(01-Shelf_screws-6mmF.nc)
(----------------------------------------------------------------)
( Generated for RhinoCam to export for CNC-STEP models Raptor X-SL3000s20 / T-Rex1215 )
( Postprocessor written at FabLab BCN/IaaC by eduardo.chamorro@iaac.net )
( Last edit : 22 January - 2019 )
(----------------------------------------------------------------)
(Stock Size X = 2400.0000, Y =  1200.0000, Z = 15.0000)
(Home Origin X =  0, Y = 0, Z = 0)
(Units = MM, Spindle Speed = 18000)
(Max cut depth = Z-15.0000)
(Tool dia= 6.0 mm, Tool length= 35.0 mm)(WARNING!-CHECK YOUR TOOL)
(-------------------------------------------------------------)
%
G90
G64
M7
M8
T1
S18000
M3
G0 Z20.0000
G0 X33.8755 Y42.8564
G1 X33.8755 Y42.8564 Z-3.0000 F2250.
G0 Z20.0000
G0 X33.8755 Y42.8564
G0 Z20.0000
G0 X474.2868 Y119.5715
G1 X474.2868 Y119.5715 Z-3.0000 F2250.
G0 Z20.0000
G0 X474.2868 Y119.5715
G0 Z20.0000
G0 X974.9769 Y30.3288
G1 X974.9769 Y30.3288 Z-3.0000 F2250.
G0 Z20.0000
G0 X974.9769 Y30.3288
G0 Z20.0000
G0 X965.8834 Y896.6874
G1 X965.8834 Y896.6874 Z-3.0000 F2250.
G0 Z20.0000
G0 X965.8834 Y896.6874
G0 Z20.0000
G0 X474.2868 Y810.1478
G1 X474.2868 Y810.1478 Z-3.0000 F2250.
G0 Z20.0000
G0 X474.2868 Y810.1478
G0 Z20.0000
G0 X33.8755 Y890.9257
G1 X33.8755 Y890.9257 Z-3.0000 F2250.
G0 Z20.0000
G0 X33.8755 Y890.9257
M9
M5
M30
(--THE END - THANK YOU FOR USING THIS AWESOME POSTPROCESSOR---)
