(02-Shelf_snap-6mmF.nc)
(----------------------------------------------------------------)
( Generated for RhinoCam to export for CNC-STEP models Raptor X-SL3000s20 / T-Rex1215 )
( Postprocessor written at FabLab BCN/IaaC by eduardo.chamorro@iaac.net )
( Last edit : 22 January - 2019 )
(----------------------------------------------------------------)
(Stock Size X = 2400.0000, Y =  1200.0000, Z = 15.0000)
(Home Origin X =  0, Y = 0, Z = 0)
(Units = MM, Spindle Speed = 18000)
(Max cut depth = Z-15.0000)
(Tool dia= 6.0 mm, Tool length= 35.0 mm)(WARNING!-CHECK YOUR TOOL)
(-------------------------------------------------------------)
%
G90
G64
M7
M8
T1
S18000
M3
G0 Z20.0000
G0 X168.8234 Y449.5403
G1 X168.8234 Y449.5403 Z-1.7500 F2250.
G1 X168.6966 Y449.2042 Z-1.8133
G1 X168.5298 Y448.8379 Z-1.8843
G1 X168.3390 Y448.4834 Z-1.9553
G1 X168.1251 Y448.1424 Z-2.0263
G1 X167.8889 Y447.8164 Z-2.0973
G1 X167.6316 Y447.5068 Z-2.1682
G1 X167.3543 Y447.2151 Z-2.2392
G1 X167.0582 Y446.9424 Z-2.3102
G1 X166.7446 Y446.6900 Z-2.3812
G1 X166.4149 Y446.4590 Z-2.4522
G1 X166.0706 Y446.2504 Z-2.5231
G1 X165.7132 Y446.0652 Z-2.5941
G1 X165.3443 Y445.9042 Z-2.6651
G1 X164.9654 Y445.7681 Z-2.7361
G1 X164.5784 Y445.6574 Z-2.8071
G1 X164.1848 Y445.5728 Z-2.8780
G1 X163.7865 Y445.5145 Z-2.9490
G1 X163.3852 Y445.4828 Z-3.0200
G2 X163.1101 Y445.4766 I-0.2751 J6.0438 F4500.
G1 X118.7816 Y445.4797 Z-3.0200
G1 X118.7816 Y236.6766 Z-3.0200
G1 X154.5134 Y236.6766 Z-3.0200
G2 X158.4546 Y226.1526 I0.0000 J-6.0000
G2 X154.5556 Y215.4766 I-3.8990 J-4.6260
G1 X118.7816 Y215.4766 Z-3.0200
G1 X118.7816 Y68.2419 Z-3.0200
G1 X120.6746 Y70.7027 Z-3.0200
G1 X124.1775 Y75.4100 Z-3.0200
G1 X127.6068 Y80.1756 Z-3.0200
G1 X130.9622 Y84.9995 Z-3.0200
G1 X134.2437 Y89.8821 Z-3.0200
G1 X137.4511 Y94.8237 Z-3.0200
G1 X140.5840 Y99.8247 Z-3.0200
G1 X143.6423 Y104.8853 Z-3.0200
G1 X146.6256 Y110.0061 Z-3.0200
G1 X149.5336 Y115.1873 Z-3.0200
G1 X152.3661 Y120.4295 Z-3.0200
G1 X155.1226 Y125.7331 Z-3.0200
G1 X157.8028 Y131.0985 Z-3.0200
G1 X160.4065 Y136.5260 Z-3.0200
G1 X162.9332 Y142.0162 Z-3.0200
G1 X165.3827 Y147.5692 Z-3.0200
G1 X167.7546 Y153.1854 Z-3.0200
G1 X170.0488 Y158.8650 Z-3.0200
G1 X172.2648 Y164.6082 Z-3.0200
G1 X174.4027 Y170.4151 Z-3.0200
G1 X176.4622 Y176.2856 Z-3.0200
G1 X178.4433 Y182.2196 Z-3.0200
G1 X180.3460 Y188.2170 Z-3.0200
G1 X182.1704 Y194.2772 Z-3.0200
G1 X183.9169 Y200.3998 Z-3.0200
G1 X185.5857 Y206.5840 Z-3.0200
G1 X187.1774 Y212.8289 Z-3.0200
G1 X188.6926 Y219.1333 Z-3.0200
G1 X190.1323 Y225.4958 Z-3.0200
G1 X191.4974 Y231.9148 Z-3.0200
G1 X192.7891 Y238.3886 Z-3.0200
G1 X194.0087 Y244.9149 Z-3.0200
G1 X195.1579 Y251.4915 Z-3.0200
G1 X196.2382 Y258.1158 Z-3.0200
G1 X197.2517 Y264.7850 Z-3.0200
G1 X198.2002 Y271.4961 Z-3.0200
G1 X199.0859 Y278.2459 Z-3.0200
G1 X199.9111 Y285.0312 Z-3.0200
G1 X200.6771 Y291.8425 Z-3.0200
G1 X202.0455 Y305.5660 Z-3.0200
G1 X203.2081 Y319.3684 Z-3.0200
G1 X204.1847 Y333.2272 Z-3.0200
G1 X204.9945 Y347.1130 Z-3.0200
G1 X205.6563 Y360.9970 Z-3.0200
G1 X206.1878 Y374.8513 Z-3.0200
G1 X206.6057 Y388.6499 Z-3.0200
G1 X206.9248 Y402.3686 Z-3.0200
G1 X207.1583 Y415.9864 Z-3.0200
G1 X207.3169 Y429.4820 Z-3.0200
G1 X207.4386 Y456.0766 Z-3.0200
G1 X207.3169 Y482.6712 Z-3.0200
G1 X207.1583 Y496.1668 Z-3.0200
G1 X206.9248 Y509.7845 Z-3.0200
G1 X206.6057 Y523.5033 Z-3.0200
G1 X206.1878 Y537.3018 Z-3.0200
G1 X205.6563 Y551.1561 Z-3.0200
G1 X204.9945 Y565.0401 Z-3.0200
G1 X204.1847 Y578.9259 Z-3.0200
G1 X203.2081 Y592.7847 Z-3.0200
G1 X202.0455 Y606.5871 Z-3.0200
G1 X200.6771 Y620.3107 Z-3.0200
G1 X199.9111 Y627.1220 Z-3.0200
G1 X199.0859 Y633.9072 Z-3.0200
G1 X198.2002 Y640.6571 Z-3.0200
G1 X197.2517 Y647.3681 Z-3.0200
G1 X196.2382 Y654.0373 Z-3.0200
G1 X195.1579 Y660.6616 Z-3.0200
G1 X194.0087 Y667.2382 Z-3.0200
G1 X192.7891 Y673.7645 Z-3.0200
G1 X191.4974 Y680.2383 Z-3.0200
G1 X190.1323 Y686.6573 Z-3.0200
G1 X188.6926 Y693.0199 Z-3.0200
G1 X187.1774 Y699.3242 Z-3.0200
G1 X185.5857 Y705.5691 Z-3.0200
G1 X183.9169 Y711.7533 Z-3.0200
G1 X182.1704 Y717.8759 Z-3.0200
G1 X180.3460 Y723.9362 Z-3.0200
G1 X178.4433 Y729.9335 Z-3.0200
G1 X176.4622 Y735.8676 Z-3.0200
G1 X174.4027 Y741.7381 Z-3.0200
G1 X172.2648 Y747.5449 Z-3.0200
G1 X170.0488 Y753.2881 Z-3.0200
G1 X167.7546 Y758.9677 Z-3.0200
G1 X165.3827 Y764.5840 Z-3.0200
G1 X162.9332 Y770.1370 Z-3.0200
G1 X160.4065 Y775.6271 Z-3.0200
G1 X157.8028 Y781.0547 Z-3.0200
G1 X155.1226 Y786.4200 Z-3.0200
G1 X152.3661 Y791.7236 Z-3.0200
G1 X149.5336 Y796.9658 Z-3.0200
G1 X146.6256 Y802.1471 Z-3.0200
G1 X143.6423 Y807.2678 Z-3.0200
G1 X140.5840 Y812.3285 Z-3.0200
G1 X137.4511 Y817.3294 Z-3.0200
G1 X134.2437 Y822.2710 Z-3.0200
G1 X130.9622 Y827.1536 Z-3.0200
G1 X127.6068 Y831.9776 Z-3.0200
G1 X124.1775 Y836.7431 Z-3.0200
G1 X120.6746 Y841.4504 Z-3.0200
G1 X118.7816 Y843.9112 Z-3.0200
G1 X118.7816 Y696.6766 Z-3.0200
G1 X154.5134 Y696.6766 Z-3.0200
G2 X158.4546 Y686.1526 I0.0000 J-6.0000
G2 X154.5556 Y675.4766 I-3.8990 J-4.6260
G1 X118.7816 Y675.4766 Z-3.0200
G1 X118.7816 Y466.6795 Z-3.0200
G1 X163.0680 Y466.6766 Z-3.0200
G2 X167.0091 Y456.1526 I-0.0001 J-6.0000
G2 X163.3852 Y445.4828 I-3.8990 J-4.6260
G1 X163.3852 Y445.4828 Z-6.0400
G2 X163.1101 Y445.4766 I-0.2751 J6.0438
G1 X118.7816 Y445.4797 Z-6.0400
G1 X118.7816 Y236.6766 Z-6.0400
G1 X154.5134 Y236.6766 Z-6.0400
G2 X158.4546 Y226.1526 I0.0000 J-6.0000
G2 X154.5556 Y215.4766 I-3.8990 J-4.6260
G1 X118.7816 Y215.4766 Z-6.0400
G1 X118.7816 Y68.2419 Z-6.0400
G1 X120.6746 Y70.7027 Z-6.0400
G1 X124.1775 Y75.4100 Z-6.0400
G1 X127.6068 Y80.1756 Z-6.0400
G1 X130.9622 Y84.9995 Z-6.0400
G1 X134.2437 Y89.8821 Z-6.0400
G1 X137.4511 Y94.8237 Z-6.0400
G1 X140.5840 Y99.8247 Z-6.0400
G1 X143.6423 Y104.8853 Z-6.0400
G1 X146.6256 Y110.0061 Z-6.0400
G1 X149.5336 Y115.1873 Z-6.0400
G1 X152.3661 Y120.4295 Z-6.0400
G1 X155.1226 Y125.7331 Z-6.0400
G1 X157.8028 Y131.0985 Z-6.0400
G1 X160.4065 Y136.5260 Z-6.0400
G1 X162.9332 Y142.0162 Z-6.0400
G1 X165.3827 Y147.5692 Z-6.0400
G1 X167.7546 Y153.1854 Z-6.0400
G1 X170.0488 Y158.8650 Z-6.0400
G1 X172.2648 Y164.6082 Z-6.0400
G1 X174.4027 Y170.4151 Z-6.0400
G1 X176.4622 Y176.2856 Z-6.0400
G1 X178.4433 Y182.2196 Z-6.0400
G1 X180.3460 Y188.2170 Z-6.0400
G1 X182.1704 Y194.2772 Z-6.0400
G1 X183.9169 Y200.3998 Z-6.0400
G1 X185.5857 Y206.5840 Z-6.0400
G1 X187.1774 Y212.8289 Z-6.0400
G1 X188.6926 Y219.1333 Z-6.0400
G1 X190.1323 Y225.4958 Z-6.0400
G1 X191.4974 Y231.9148 Z-6.0400
G1 X192.7891 Y238.3886 Z-6.0400
G1 X194.0087 Y244.9149 Z-6.0400
G1 X195.1579 Y251.4915 Z-6.0400
G1 X196.2382 Y258.1158 Z-6.0400
G1 X197.2517 Y264.7850 Z-6.0400
G1 X198.2002 Y271.4961 Z-6.0400
G1 X199.0859 Y278.2459 Z-6.0400
G1 X199.9111 Y285.0312 Z-6.0400
G1 X200.6771 Y291.8425 Z-6.0400
G1 X202.0455 Y305.5660 Z-6.0400
G1 X203.2081 Y319.3684 Z-6.0400
G1 X204.1847 Y333.2272 Z-6.0400
G1 X204.9945 Y347.1130 Z-6.0400
G1 X205.6563 Y360.9970 Z-6.0400
G1 X206.1878 Y374.8513 Z-6.0400
G1 X206.6057 Y388.6499 Z-6.0400
G1 X206.9248 Y402.3686 Z-6.0400
G1 X207.1583 Y415.9864 Z-6.0400
G1 X207.3169 Y429.4820 Z-6.0400
G1 X207.4386 Y456.0766 Z-6.0400
G1 X207.3169 Y482.6712 Z-6.0400
G1 X207.1583 Y496.1668 Z-6.0400
G1 X206.9248 Y509.7845 Z-6.0400
G1 X206.6057 Y523.5033 Z-6.0400
G1 X206.1878 Y537.3018 Z-6.0400
G1 X205.6563 Y551.1561 Z-6.0400
G1 X204.9945 Y565.0401 Z-6.0400
G1 X204.1847 Y578.9259 Z-6.0400
G1 X203.2081 Y592.7847 Z-6.0400
G1 X202.0455 Y606.5871 Z-6.0400
G1 X200.6771 Y620.3107 Z-6.0400
G1 X199.9111 Y627.1220 Z-6.0400
G1 X199.0859 Y633.9072 Z-6.0400
G1 X198.2002 Y640.6571 Z-6.0400
G1 X197.2517 Y647.3681 Z-6.0400
G1 X196.2382 Y654.0373 Z-6.0400
G1 X195.1579 Y660.6616 Z-6.0400
G1 X194.0087 Y667.2382 Z-6.0400
G1 X192.7891 Y673.7645 Z-6.0400
G1 X191.4974 Y680.2383 Z-6.0400
G1 X190.1323 Y686.6573 Z-6.0400
G1 X188.6926 Y693.0199 Z-6.0400
G1 X187.1774 Y699.3242 Z-6.0400
G1 X185.5857 Y705.5691 Z-6.0400
G1 X183.9169 Y711.7533 Z-6.0400
G1 X182.1704 Y717.8759 Z-6.0400
G1 X180.3460 Y723.9362 Z-6.0400
G1 X178.4433 Y729.9335 Z-6.0400
G1 X176.4622 Y735.8676 Z-6.0400
G1 X174.4027 Y741.7381 Z-6.0400
G1 X172.2648 Y747.5449 Z-6.0400
G1 X170.0488 Y753.2881 Z-6.0400
G1 X167.7546 Y758.9677 Z-6.0400
G1 X165.3827 Y764.5840 Z-6.0400
G1 X162.9332 Y770.1370 Z-6.0400
G1 X160.4065 Y775.6271 Z-6.0400
G1 X157.8028 Y781.0547 Z-6.0400
G1 X155.1226 Y786.4200 Z-6.0400
G1 X152.3661 Y791.7236 Z-6.0400
G1 X149.5336 Y796.9658 Z-6.0400
G1 X146.6256 Y802.1471 Z-6.0400
G1 X143.6423 Y807.2678 Z-6.0400
G1 X140.5840 Y812.3285 Z-6.0400
G1 X137.4511 Y817.3294 Z-6.0400
G1 X134.2437 Y822.2710 Z-6.0400
G1 X130.9622 Y827.1536 Z-6.0400
G1 X127.6068 Y831.9776 Z-6.0400
G1 X124.1775 Y836.7431 Z-6.0400
G1 X120.6746 Y841.4504 Z-6.0400
G1 X118.7816 Y843.9112 Z-6.0400
G1 X118.7816 Y696.6766 Z-6.0400
G1 X154.5134 Y696.6766 Z-6.0400
G2 X158.4546 Y686.1526 I0.0000 J-6.0000
G2 X154.5556 Y675.4766 I-3.8990 J-4.6260
G1 X118.7816 Y675.4766 Z-6.0400
G1 X118.7816 Y466.6795 Z-6.0400
G1 X163.0680 Y466.6766 Z-6.0400
G2 X167.0091 Y456.1526 I-0.0001 J-6.0000
G2 X163.3852 Y445.4828 I-3.8990 J-4.6260
G1 X163.3852 Y445.4828 Z-9.0600
G2 X163.1101 Y445.4766 I-0.2751 J6.0438
G1 X118.7816 Y445.4797 Z-9.0600
G1 X118.7816 Y236.6766 Z-9.0600
G1 X154.5134 Y236.6766 Z-9.0600
G2 X158.4546 Y226.1526 I0.0000 J-6.0000
G2 X154.5556 Y215.4766 I-3.8990 J-4.6260
G1 X118.7816 Y215.4766 Z-9.0600
G1 X118.7816 Y68.2419 Z-9.0600
G1 X120.6746 Y70.7027 Z-9.0600
G1 X124.1775 Y75.4100 Z-9.0600
G1 X127.6068 Y80.1756 Z-9.0600
G1 X130.9622 Y84.9995 Z-9.0600
G1 X134.2437 Y89.8821 Z-9.0600
G1 X137.4511 Y94.8237 Z-9.0600
G1 X140.5840 Y99.8247 Z-9.0600
G1 X143.6423 Y104.8853 Z-9.0600
G1 X146.6256 Y110.0061 Z-9.0600
G1 X149.5336 Y115.1873 Z-9.0600
G1 X152.3661 Y120.4295 Z-9.0600
G1 X155.1226 Y125.7331 Z-9.0600
G1 X157.8028 Y131.0985 Z-9.0600
G1 X160.4065 Y136.5260 Z-9.0600
G1 X162.9332 Y142.0162 Z-9.0600
G1 X165.3827 Y147.5692 Z-9.0600
G1 X167.7546 Y153.1854 Z-9.0600
G1 X170.0488 Y158.8650 Z-9.0600
G1 X172.2648 Y164.6082 Z-9.0600
G1 X174.4027 Y170.4151 Z-9.0600
G1 X176.4622 Y176.2856 Z-9.0600
G1 X178.4433 Y182.2196 Z-9.0600
G1 X180.3460 Y188.2170 Z-9.0600
G1 X182.1704 Y194.2772 Z-9.0600
G1 X183.9169 Y200.3998 Z-9.0600
G1 X185.5857 Y206.5840 Z-9.0600
G1 X187.1774 Y212.8289 Z-9.0600
G1 X188.6926 Y219.1333 Z-9.0600
G1 X190.1323 Y225.4958 Z-9.0600
G1 X191.4974 Y231.9148 Z-9.0600
G1 X192.7891 Y238.3886 Z-9.0600
G1 X194.0087 Y244.9149 Z-9.0600
G1 X195.1579 Y251.4915 Z-9.0600
G1 X196.2382 Y258.1158 Z-9.0600
G1 X197.2517 Y264.7850 Z-9.0600
G1 X198.2002 Y271.4961 Z-9.0600
G1 X199.0859 Y278.2459 Z-9.0600
G1 X199.9111 Y285.0312 Z-9.0600
G1 X200.6771 Y291.8425 Z-9.0600
G1 X202.0455 Y305.5660 Z-9.0600
G1 X203.2081 Y319.3684 Z-9.0600
G1 X204.1847 Y333.2272 Z-9.0600
G1 X204.9945 Y347.1130 Z-9.0600
G1 X205.6563 Y360.9970 Z-9.0600
G1 X206.1878 Y374.8513 Z-9.0600
G1 X206.6057 Y388.6499 Z-9.0600
G1 X206.9248 Y402.3686 Z-9.0600
G1 X207.1583 Y415.9864 Z-9.0600
G1 X207.3169 Y429.4820 Z-9.0600
G1 X207.4386 Y456.0766 Z-9.0600
G1 X207.3169 Y482.6712 Z-9.0600
G1 X207.1583 Y496.1668 Z-9.0600
G1 X206.9248 Y509.7845 Z-9.0600
G1 X206.6057 Y523.5033 Z-9.0600
G1 X206.1878 Y537.3018 Z-9.0600
G1 X205.6563 Y551.1561 Z-9.0600
G1 X204.9945 Y565.0401 Z-9.0600
G1 X204.1847 Y578.9259 Z-9.0600
G1 X203.2081 Y592.7847 Z-9.0600
G1 X202.0455 Y606.5871 Z-9.0600
G1 X200.6771 Y620.3107 Z-9.0600
G1 X199.9111 Y627.1220 Z-9.0600
G1 X199.0859 Y633.9072 Z-9.0600
G1 X198.2002 Y640.6571 Z-9.0600
G1 X197.2517 Y647.3681 Z-9.0600
G1 X196.2382 Y654.0373 Z-9.0600
G1 X195.1579 Y660.6616 Z-9.0600
G1 X194.0087 Y667.2382 Z-9.0600
G1 X192.7891 Y673.7645 Z-9.0600
G1 X191.4974 Y680.2383 Z-9.0600
G1 X190.1323 Y686.6573 Z-9.0600
G1 X188.6926 Y693.0199 Z-9.0600
G1 X187.1774 Y699.3242 Z-9.0600
G1 X185.5857 Y705.5691 Z-9.0600
G1 X183.9169 Y711.7533 Z-9.0600
G1 X182.1704 Y717.8759 Z-9.0600
G1 X180.3460 Y723.9362 Z-9.0600
G1 X178.4433 Y729.9335 Z-9.0600
G1 X176.4622 Y735.8676 Z-9.0600
G1 X174.4027 Y741.7381 Z-9.0600
G1 X172.2648 Y747.5449 Z-9.0600
G1 X170.0488 Y753.2881 Z-9.0600
G1 X167.7546 Y758.9677 Z-9.0600
G1 X165.3827 Y764.5840 Z-9.0600
G1 X162.9332 Y770.1370 Z-9.0600
G1 X160.4065 Y775.6271 Z-9.0600
G1 X157.8028 Y781.0547 Z-9.0600
G1 X155.1226 Y786.4200 Z-9.0600
G1 X152.3661 Y791.7236 Z-9.0600
G1 X149.5336 Y796.9658 Z-9.0600
G1 X146.6256 Y802.1471 Z-9.0600
G1 X143.6423 Y807.2678 Z-9.0600
G1 X140.5840 Y812.3285 Z-9.0600
G1 X137.4511 Y817.3294 Z-9.0600
G1 X134.2437 Y822.2710 Z-9.0600
G1 X130.9622 Y827.1536 Z-9.0600
G1 X127.6068 Y831.9776 Z-9.0600
G1 X124.1775 Y836.7431 Z-9.0600
G1 X120.6746 Y841.4504 Z-9.0600
G1 X118.7816 Y843.9112 Z-9.0600
G1 X118.7816 Y696.6766 Z-9.0600
G1 X154.5134 Y696.6766 Z-9.0600
G2 X158.4546 Y686.1526 I0.0000 J-6.0000
G2 X154.5556 Y675.4766 I-3.8990 J-4.6260
G1 X118.7816 Y675.4766 Z-9.0600
G1 X118.7816 Y466.6795 Z-9.0600
G1 X163.0680 Y466.6766 Z-9.0600
G2 X167.0091 Y456.1526 I-0.0001 J-6.0000
G2 X163.3852 Y445.4828 I-3.8990 J-4.6260
G1 X163.3852 Y445.4828 Z-12.0800
G1 X163.3669 Y445.4820 Z-12.0800
G1 X163.3486 Y445.4813 Z-12.0800
G1 X163.3302 Y445.4806 Z-12.0800
G1 X163.3119 Y445.4799 Z-12.0800
G1 X163.2936 Y445.4793 Z-12.0800
G1 X163.2752 Y445.4788 Z-12.0800
G1 X163.2569 Y445.4783 Z-12.0800
G1 X163.2385 Y445.4779 Z-12.0800
G1 X163.2202 Y445.4776 Z-12.0800
G1 X163.2018 Y445.4773 Z-12.0800
G1 X163.1835 Y445.4770 Z-12.0800
G1 X163.1651 Y445.4768 Z-12.0800
G1 X163.1468 Y445.4767 Z-12.0800
G1 X163.1284 Y445.4766 Z-12.0800
G1 X163.1101 Y445.4766 Z-12.0800
G1 X118.7816 Y445.4797 Z-12.0800
G1 X118.7816 Y236.6766 Z-12.0800
G1 X154.5134 Y236.6766 Z-12.0800
G2 X158.4546 Y226.1526 I0.0000 J-6.0000
G2 X154.5556 Y215.4766 I-3.8990 J-4.6260
G1 X118.7816 Y215.4766 Z-12.0800
G1 X118.7816 Y206.1070 Z-12.0800
G1 X118.7816 Y206.1070 Z-11.1000
G1 X118.7816 Y196.1070 Z-11.1000
G1 X118.7816 Y196.1070 Z-12.0800
G1 X118.7816 Y68.2419 Z-12.0800
G1 X120.6746 Y70.7027 Z-12.0800
G1 X124.1775 Y75.4100 Z-12.0800
G1 X127.6068 Y80.1756 Z-12.0800
G1 X130.9622 Y84.9995 Z-12.0800
G1 X134.2437 Y89.8821 Z-12.0800
G1 X137.4511 Y94.8237 Z-12.0800
G1 X140.5840 Y99.8247 Z-12.0800
G1 X143.6423 Y104.8853 Z-12.0800
G1 X146.6256 Y110.0061 Z-12.0800
G1 X149.5336 Y115.1873 Z-12.0800
G1 X152.3661 Y120.4295 Z-12.0800
G1 X155.1226 Y125.7331 Z-12.0800
G1 X157.8028 Y131.0985 Z-12.0800
G1 X160.4065 Y136.5260 Z-12.0800
G1 X162.9332 Y142.0162 Z-12.0800
G1 X165.3827 Y147.5692 Z-12.0800
G1 X167.7546 Y153.1854 Z-12.0800
G1 X170.0488 Y158.8650 Z-12.0800
G1 X172.2648 Y164.6082 Z-12.0800
G1 X174.4027 Y170.4151 Z-12.0800
G1 X176.4622 Y176.2856 Z-12.0800
G1 X178.4433 Y182.2196 Z-12.0800
G1 X180.3460 Y188.2170 Z-12.0800
G1 X182.1704 Y194.2772 Z-12.0800
G1 X183.9169 Y200.3998 Z-12.0800
G1 X185.5857 Y206.5840 Z-12.0800
G1 X187.1774 Y212.8289 Z-12.0800
G1 X188.6926 Y219.1333 Z-12.0800
G1 X190.1323 Y225.4958 Z-12.0800
G1 X191.4974 Y231.9148 Z-12.0800
G1 X192.7891 Y238.3886 Z-12.0800
G1 X194.0087 Y244.9149 Z-12.0800
G1 X195.1579 Y251.4915 Z-12.0800
G1 X196.2382 Y258.1158 Z-12.0800
G1 X197.2517 Y264.7850 Z-12.0800
G1 X198.2002 Y271.4961 Z-12.0800
G1 X198.4134 Y273.1210 Z-12.0800
G1 X198.4134 Y273.1210 Z-11.1000
G1 X199.0859 Y278.2459 Z-11.1000
G1 X199.6657 Y283.0135 Z-11.1000
G1 X199.6657 Y283.0135 Z-12.0800
G1 X199.9111 Y285.0312 Z-12.0800
G1 X200.6771 Y291.8425 Z-12.0800
G1 X202.0455 Y305.5660 Z-12.0800
G1 X203.2081 Y319.3684 Z-12.0800
G1 X204.1847 Y333.2272 Z-12.0800
G1 X204.9945 Y347.1130 Z-12.0800
G1 X205.6563 Y360.9970 Z-12.0800
G1 X206.1878 Y374.8513 Z-12.0800
G1 X206.6057 Y388.6499 Z-12.0800
G1 X206.9248 Y402.3686 Z-12.0800
G1 X207.1583 Y415.9864 Z-12.0800
G1 X207.3169 Y429.4820 Z-12.0800
G1 X207.4386 Y456.0766 Z-12.0800
G1 X207.3169 Y482.6712 Z-12.0800
G1 X207.1583 Y496.1668 Z-12.0800
G1 X206.9248 Y509.7845 Z-12.0800
G1 X206.6057 Y523.5033 Z-12.0800
G1 X206.1878 Y537.3018 Z-12.0800
G1 X205.6563 Y551.1561 Z-12.0800
G1 X204.9945 Y565.0401 Z-12.0800
G1 X204.1847 Y578.9259 Z-12.0800
G1 X203.2081 Y592.7847 Z-12.0800
G1 X202.0455 Y606.5871 Z-12.0800
G1 X200.6771 Y620.3107 Z-12.0800
G1 X199.9111 Y627.1220 Z-12.0800
G1 X199.0859 Y633.9072 Z-12.0800
G1 X198.2002 Y640.6571 Z-12.0800
G1 X197.2517 Y647.3681 Z-12.0800
G1 X196.7388 Y650.7436 Z-12.0800
G1 X196.7388 Y650.7436 Z-11.1000
G1 X196.2382 Y654.0373 Z-11.1000
G1 X195.1701 Y660.5866 Z-11.1000
G1 X195.1701 Y660.5866 Z-12.0800
G1 X195.1579 Y660.6616 Z-12.0800
G1 X194.0087 Y667.2382 Z-12.0800
G1 X192.7891 Y673.7645 Z-12.0800
G1 X191.4974 Y680.2383 Z-12.0800
G1 X190.1323 Y686.6573 Z-12.0800
G1 X188.6926 Y693.0199 Z-12.0800
G1 X187.1774 Y699.3242 Z-12.0800
G1 X185.5857 Y705.5691 Z-12.0800
G1 X183.9169 Y711.7533 Z-12.0800
G1 X182.1704 Y717.8759 Z-12.0800
G1 X180.3460 Y723.9362 Z-12.0800
G1 X178.4433 Y729.9335 Z-12.0800
G1 X176.4622 Y735.8676 Z-12.0800
G1 X174.4027 Y741.7381 Z-12.0800
G1 X172.2648 Y747.5449 Z-12.0800
G1 X170.0488 Y753.2881 Z-12.0800
G1 X167.7546 Y758.9677 Z-12.0800
G1 X165.3827 Y764.5840 Z-12.0800
G1 X162.9332 Y770.1370 Z-12.0800
G1 X160.4065 Y775.6271 Z-12.0800
G1 X157.8028 Y781.0547 Z-12.0800
G1 X155.1226 Y786.4200 Z-12.0800
G1 X152.3661 Y791.7236 Z-12.0800
G1 X149.5336 Y796.9658 Z-12.0800
G1 X146.6256 Y802.1471 Z-12.0800
G1 X143.6423 Y807.2678 Z-12.0800
G1 X140.5840 Y812.3285 Z-12.0800
G1 X137.4511 Y817.3294 Z-12.0800
G1 X134.2437 Y822.2710 Z-12.0800
G1 X130.9622 Y827.1536 Z-12.0800
G1 X127.6068 Y831.9776 Z-12.0800
G1 X124.1775 Y836.7431 Z-12.0800
G1 X120.6746 Y841.4504 Z-12.0800
G1 X118.7816 Y843.9112 Z-12.0800
G1 X118.7816 Y696.6766 Z-12.0800
G1 X118.7816 Y696.6766 Z-11.1000
G1 X125.3038 Y696.6766 Z-11.1000
G1 X125.3038 Y696.6766 Z-12.0800
G1 X154.5134 Y696.6766 Z-12.0800
G2 X158.4546 Y686.1526 I0.0000 J-6.0000
G2 X154.5556 Y675.4766 I-3.8990 J-4.6260
G1 X118.7816 Y675.4766 Z-12.0800
G1 X118.7816 Y466.6795 Z-12.0800
G1 X163.0680 Y466.6766 Z-12.0800
G2 X167.0091 Y456.1526 I-0.0001 J-6.0000
G2 X163.3852 Y445.4828 I-3.8990 J-4.6260
G1 X163.3852 Y445.4828 Z-15.1000
G1 X163.3669 Y445.4820 Z-15.1000
G1 X163.3486 Y445.4813 Z-15.1000
G1 X163.3302 Y445.4806 Z-15.1000
G1 X163.3119 Y445.4799 Z-15.1000
G1 X163.2936 Y445.4793 Z-15.1000
G1 X163.2752 Y445.4788 Z-15.1000
G1 X163.2569 Y445.4783 Z-15.1000
G1 X163.2385 Y445.4779 Z-15.1000
G1 X163.2202 Y445.4776 Z-15.1000
G1 X163.2018 Y445.4773 Z-15.1000
G1 X163.1835 Y445.4770 Z-15.1000
G1 X163.1651 Y445.4768 Z-15.1000
G1 X163.1468 Y445.4767 Z-15.1000
G1 X163.1284 Y445.4766 Z-15.1000
G1 X163.1101 Y445.4766 Z-15.1000
G1 X118.7816 Y445.4797 Z-15.1000
G1 X118.7816 Y236.6766 Z-15.1000
G1 X154.5134 Y236.6766 Z-15.1000
G2 X158.4546 Y226.1526 I0.0000 J-6.0000
G2 X154.5556 Y215.4766 I-3.8990 J-4.6260
G1 X118.7816 Y215.4766 Z-15.1000
G1 X118.7816 Y206.1070 Z-15.1000
G1 X118.7816 Y206.1070 Z-11.1000
G1 X118.7816 Y196.1070 Z-11.1000
G1 X118.7816 Y196.1070 Z-15.1000
G1 X118.7816 Y68.2419 Z-15.1000
G1 X120.6746 Y70.7027 Z-15.1000
G1 X124.1775 Y75.4100 Z-15.1000
G1 X127.6068 Y80.1756 Z-15.1000
G1 X130.9622 Y84.9995 Z-15.1000
G1 X134.2437 Y89.8821 Z-15.1000
G1 X137.4511 Y94.8237 Z-15.1000
G1 X140.5840 Y99.8247 Z-15.1000
G1 X143.6423 Y104.8853 Z-15.1000
G1 X146.6256 Y110.0061 Z-15.1000
G1 X149.5336 Y115.1873 Z-15.1000
G1 X152.3661 Y120.4295 Z-15.1000
G1 X155.1226 Y125.7331 Z-15.1000
G1 X157.8028 Y131.0985 Z-15.1000
G1 X160.4065 Y136.5260 Z-15.1000
G1 X162.9332 Y142.0162 Z-15.1000
G1 X165.3827 Y147.5692 Z-15.1000
G1 X167.7546 Y153.1854 Z-15.1000
G1 X170.0488 Y158.8650 Z-15.1000
G1 X172.2648 Y164.6082 Z-15.1000
G1 X174.4027 Y170.4151 Z-15.1000
G1 X176.4622 Y176.2856 Z-15.1000
G1 X178.4433 Y182.2196 Z-15.1000
G1 X180.3460 Y188.2170 Z-15.1000
G1 X182.1704 Y194.2772 Z-15.1000
G1 X183.9169 Y200.3998 Z-15.1000
G1 X185.5857 Y206.5840 Z-15.1000
G1 X187.1774 Y212.8289 Z-15.1000
G1 X188.6926 Y219.1333 Z-15.1000
G1 X190.1323 Y225.4958 Z-15.1000
G1 X191.4974 Y231.9148 Z-15.1000
G1 X192.7891 Y238.3886 Z-15.1000
G1 X194.0087 Y244.9149 Z-15.1000
G1 X195.1579 Y251.4915 Z-15.1000
G1 X196.2382 Y258.1158 Z-15.1000
G1 X197.2517 Y264.7850 Z-15.1000
G1 X198.2002 Y271.4961 Z-15.1000
G1 X198.4134 Y273.1210 Z-15.1000
G1 X198.4134 Y273.1210 Z-11.1000
G1 X199.0859 Y278.2459 Z-11.1000
G1 X199.6657 Y283.0135 Z-11.1000
G1 X199.6657 Y283.0135 Z-15.1000
G1 X199.9111 Y285.0312 Z-15.1000
G1 X200.6771 Y291.8425 Z-15.1000
G1 X202.0455 Y305.5660 Z-15.1000
G1 X203.2081 Y319.3684 Z-15.1000
G1 X204.1847 Y333.2272 Z-15.1000
G1 X204.9945 Y347.1130 Z-15.1000
G1 X205.6563 Y360.9970 Z-15.1000
G1 X206.1878 Y374.8513 Z-15.1000
G1 X206.6057 Y388.6499 Z-15.1000
G1 X206.9248 Y402.3686 Z-15.1000
G1 X207.1583 Y415.9864 Z-15.1000
G1 X207.3169 Y429.4820 Z-15.1000
G1 X207.4386 Y456.0766 Z-15.1000
G1 X207.3169 Y482.6712 Z-15.1000
G1 X207.1583 Y496.1668 Z-15.1000
G1 X206.9248 Y509.7845 Z-15.1000
G1 X206.6057 Y523.5033 Z-15.1000
G1 X206.1878 Y537.3018 Z-15.1000
G1 X205.6563 Y551.1561 Z-15.1000
G1 X204.9945 Y565.0401 Z-15.1000
G1 X204.1847 Y578.9259 Z-15.1000
G1 X203.2081 Y592.7847 Z-15.1000
G1 X202.0455 Y606.5871 Z-15.1000
G1 X200.6771 Y620.3107 Z-15.1000
G1 X199.9111 Y627.1220 Z-15.1000
G1 X199.0859 Y633.9072 Z-15.1000
G1 X198.2002 Y640.6571 Z-15.1000
G1 X197.2517 Y647.3681 Z-15.1000
G1 X196.7388 Y650.7436 Z-15.1000
G1 X196.7388 Y650.7436 Z-11.1000
G1 X196.2382 Y654.0373 Z-11.1000
G1 X195.1701 Y660.5866 Z-11.1000
G1 X195.1701 Y660.5866 Z-15.1000
G1 X195.1579 Y660.6616 Z-15.1000
G1 X194.0087 Y667.2382 Z-15.1000
G1 X192.7891 Y673.7645 Z-15.1000
G1 X191.4974 Y680.2383 Z-15.1000
G1 X190.1323 Y686.6573 Z-15.1000
G1 X188.6926 Y693.0199 Z-15.1000
G1 X187.1774 Y699.3242 Z-15.1000
G1 X185.5857 Y705.5691 Z-15.1000
G1 X183.9169 Y711.7533 Z-15.1000
G1 X182.1704 Y717.8759 Z-15.1000
G1 X180.3460 Y723.9362 Z-15.1000
G1 X178.4433 Y729.9335 Z-15.1000
G1 X176.4622 Y735.8676 Z-15.1000
G1 X174.4027 Y741.7381 Z-15.1000
G1 X172.2648 Y747.5449 Z-15.1000
G1 X170.0488 Y753.2881 Z-15.1000
G1 X167.7546 Y758.9677 Z-15.1000
G1 X165.3827 Y764.5840 Z-15.1000
G1 X162.9332 Y770.1370 Z-15.1000
G1 X160.4065 Y775.6271 Z-15.1000
G1 X157.8028 Y781.0547 Z-15.1000
G1 X155.1226 Y786.4200 Z-15.1000
G1 X152.3661 Y791.7236 Z-15.1000
G1 X149.5336 Y796.9658 Z-15.1000
G1 X146.6256 Y802.1471 Z-15.1000
G1 X143.6423 Y807.2678 Z-15.1000
G1 X140.5840 Y812.3285 Z-15.1000
G1 X137.4511 Y817.3294 Z-15.1000
G1 X134.2437 Y822.2710 Z-15.1000
G1 X130.9622 Y827.1536 Z-15.1000
G1 X127.6068 Y831.9776 Z-15.1000
G1 X124.1775 Y836.7431 Z-15.1000
G1 X120.6746 Y841.4504 Z-15.1000
G1 X118.7816 Y843.9112 Z-15.1000
G1 X118.7816 Y696.6766 Z-15.1000
G1 X118.7816 Y696.6766 Z-11.1000
G1 X125.3038 Y696.6766 Z-11.1000
G1 X125.3038 Y696.6766 Z-15.1000
G1 X154.5134 Y696.6766 Z-15.1000
G2 X158.4546 Y686.1526 I0.0000 J-6.0000
G2 X154.5556 Y675.4766 I-3.8990 J-4.6260
G1 X118.7816 Y675.4766 Z-15.1000
G1 X118.7816 Y466.6795 Z-15.1000
G1 X163.0680 Y466.6766 Z-15.1000
G2 X167.0091 Y456.1526 I-0.0001 J-6.0000
G2 X163.3852 Y445.4828 I-3.8990 J-4.6260
G0 Z20.0000
G0 X163.3852 Y445.4828
G0 Z20.0000
G0 X811.0000 Y453.2210
G1 X811.0000 Y453.2210 Z-1.7500 F2250.
G1 X811.0000 Y460.4235 Z-3.0200
G1 X811.0000 Y822.4235 Z-3.0200 F4500.
G2 X815.7464 Y824.8628 I3.0000 J0.0000
G2 X861.5524 Y775.7142 I-95.9105 J-135.3073
G2 X878.3558 Y743.6674 I-210.6569 J-130.8842
G1 X880.2096 Y739.3564 Z-3.0200
G1 X882.0124 Y734.9814 Z-3.0200
G1 X883.7652 Y730.5434 Z-3.0200
G1 X885.4689 Y726.0433 Z-3.0200
G1 X887.1247 Y721.4823 Z-3.0200
G1 X888.7394 Y716.8435 Z-3.0200
G1 X891.8264 Y707.4002 Z-3.0200
G1 X892.1178 Y706.4002 Z-3.0200
G2 X889.2375 Y702.5610 I-2.8803 J-0.8392
G1 X852.0645 Y702.5610 Z-3.0200
G1 X852.0637 Y702.5605 Z-3.0200
G1 X852.0645 Y702.5591 Z-3.0200
G2 X855.1065 Y699.5597 I0.0420 J-2.9997
G1 X855.1068 Y696.4594 Z-3.0200
G2 X852.1062 Y693.4591 I-3.0000 J-0.0003
G1 X852.0620 Y693.4326 Z-3.0200
G1 X852.0647 Y693.3812 Z-3.0200
G1 X852.1068 Y693.3589 Z-3.0200
G1 X852.4224 Y693.3756 Z-3.0200
G1 X893.6613 Y693.3784 Z-3.0200
G2 X896.5417 Y691.2176 I0.0002 J-3.0000
G2 X899.7773 Y678.8058 I-203.1642 J-59.5905
G1 X901.1627 Y673.0333 Z-3.0200
G1 X902.5014 Y667.1780 Z-3.0200
G1 X905.0254 Y655.2963 Z-3.0200
G1 X907.3590 Y643.1487 Z-3.0200
G1 X909.5067 Y630.7376 Z-3.0200
G1 X911.4723 Y618.0640 Z-3.0200
G1 X913.2584 Y605.1281 Z-3.0200
G1 X914.8669 Y591.9289 Z-3.0200
G1 X916.2989 Y578.4644 Z-3.0200
G1 X917.5548 Y564.7323 Z-3.0200
G1 X918.6343 Y550.7291 Z-3.0200
G1 X919.5367 Y536.4515 Z-3.0200
G1 X920.2608 Y521.8955 Z-3.0200
G1 X920.8055 Y507.0575 Z-3.0200
G1 X921.1694 Y491.9344 Z-3.0200
G1 X921.3516 Y475.5235 Z-3.0200
G2 X918.3516 Y472.5235 I-3.0000 J0.0000
G1 X866.2467 Y472.5232 Z-3.0200
G2 X869.1870 Y469.5238 I-0.0597 J-2.9994
G1 X869.1870 Y466.4235 Z-3.0200
G2 X866.1870 Y463.4235 I-3.0000 J0.0000
G1 X866.1370 Y463.3735 Z-3.0200
G1 X866.1870 Y463.3235 Z-3.0200
G1 X918.3372 Y463.3235 Z-3.0200
G2 X921.3372 Y460.3235 I0.0000 J-3.0000
G1 X921.1091 Y443.8942 Z-3.0200
G1 X920.6785 Y428.8226 Z-3.0200
G1 X920.0523 Y414.0533 Z-3.0200
G1 X919.2390 Y399.5727 Z-3.0200
G1 X918.2470 Y385.3671 Z-3.0200
G1 X917.0836 Y371.4237 Z-3.0200
G1 X915.7549 Y357.7318 Z-3.0200
G1 X914.2645 Y344.2839 Z-3.0200
G1 X912.6135 Y331.0759 Z-3.0200
G1 X910.8007 Y318.1074 Z-3.0200
G1 X908.8224 Y305.3816 Z-3.0200
G1 X906.6723 Y292.9053 Z-3.0200
G1 X904.3427 Y280.6881 Z-3.0200
G1 X901.8284 Y268.7571 Z-3.0200
G1 X900.4963 Y262.8895 Z-3.0200
G1 X899.1137 Y257.0940 Z-3.0200
G1 X897.6790 Y251.3694 Z-3.0200
G1 X895.9328 Y244.7575 Z-3.0200
G2 X893.0323 Y242.5235 I-2.9006 J0.7660
G1 X852.1802 Y242.5232 Z-3.0200
G2 X855.1206 Y239.5238 I-0.0596 J-2.9994
G1 X855.1206 Y236.4235 Z-3.0200
G2 X852.1206 Y233.4235 I-3.0000 J0.0000
G1 X852.0706 Y233.3735 Z-3.0200
G1 X852.1156 Y233.3235 Z-3.0200
G1 X888.8122 Y233.3235 Z-3.0200
G2 X891.7020 Y229.5179 I0.0000 J-3.0000
G3 X887.8778 Y213.1125 I178.1219 J-50.1698
G1 X886.4244 Y205.4754 Z-3.0200
G1 X885.1603 Y197.8979 Z-3.0200
G1 X884.0617 Y190.3798 Z-3.0200
G1 X883.1035 Y182.9228 Z-3.0200
G1 X882.2606 Y175.5299 Z-3.0200
G1 X881.5088 Y168.2099 Z-3.0200
G1 X880.1836 Y153.7886 Z-3.0200
G1 X878.9608 Y139.7381 Z-3.0200
G1 X877.7043 Y126.1332 Z-3.0200
G1 X876.3322 Y113.1293 Z-3.0200
G1 X874.9604 Y98.1500 Z-3.0200
G2 X871.9729 Y95.4235 I-2.9875 J0.2735
G1 X814.0000 Y95.4235 Z-3.0200
G2 X811.0000 Y98.4235 I0.0000 J3.0000
G1 X811.0000 Y460.4235 Z-3.0200
G1 X811.0000 Y460.4235 Z-6.0400
G1 X811.0000 Y822.4235 Z-6.0400
G2 X815.7464 Y824.8628 I3.0000 J0.0000
G2 X861.5524 Y775.7142 I-95.9105 J-135.3073
G2 X878.3558 Y743.6674 I-210.6569 J-130.8842
G1 X880.2096 Y739.3564 Z-6.0400
G1 X882.0124 Y734.9814 Z-6.0400
G1 X883.7652 Y730.5434 Z-6.0400
G1 X885.4689 Y726.0433 Z-6.0400
G1 X887.1247 Y721.4823 Z-6.0400
G1 X888.7394 Y716.8435 Z-6.0400
G1 X891.8264 Y707.4002 Z-6.0400
G1 X892.1178 Y706.4002 Z-6.0400
G2 X889.2375 Y702.5610 I-2.8803 J-0.8392
G1 X852.0645 Y702.5610 Z-6.0400
G1 X852.0637 Y702.5605 Z-6.0400
G1 X852.0645 Y702.5591 Z-6.0400
G2 X855.1065 Y699.5597 I0.0420 J-2.9997
G1 X855.1068 Y696.4594 Z-6.0400
G2 X852.1062 Y693.4591 I-3.0000 J-0.0003
G1 X852.0620 Y693.4326 Z-6.0400
G1 X852.0647 Y693.3812 Z-6.0400
G1 X852.1068 Y693.3589 Z-6.0400
G1 X852.4224 Y693.3756 Z-6.0400
G1 X893.6613 Y693.3784 Z-6.0400
G2 X896.5417 Y691.2176 I0.0002 J-3.0000
G2 X899.7773 Y678.8058 I-203.1642 J-59.5905
G1 X901.1627 Y673.0333 Z-6.0400
G1 X902.5014 Y667.1780 Z-6.0400
G1 X905.0254 Y655.2963 Z-6.0400
G1 X907.3590 Y643.1487 Z-6.0400
G1 X909.5067 Y630.7376 Z-6.0400
G1 X911.4723 Y618.0640 Z-6.0400
G1 X913.2584 Y605.1281 Z-6.0400
G1 X914.8669 Y591.9289 Z-6.0400
G1 X916.2989 Y578.4644 Z-6.0400
G1 X917.5548 Y564.7323 Z-6.0400
G1 X918.6343 Y550.7291 Z-6.0400
G1 X919.5367 Y536.4515 Z-6.0400
G1 X920.2608 Y521.8955 Z-6.0400
G1 X920.8055 Y507.0575 Z-6.0400
G1 X921.1694 Y491.9344 Z-6.0400
G1 X921.3516 Y475.5235 Z-6.0400
G2 X918.3516 Y472.5235 I-3.0000 J0.0000
G1 X866.2467 Y472.5232 Z-6.0400
G2 X869.1870 Y469.5238 I-0.0597 J-2.9994
G1 X869.1870 Y466.4235 Z-6.0400
G2 X866.1870 Y463.4235 I-3.0000 J0.0000
G1 X866.1370 Y463.3735 Z-6.0400
G1 X866.1870 Y463.3235 Z-6.0400
G1 X918.3372 Y463.3235 Z-6.0400
G2 X921.3372 Y460.3235 I0.0000 J-3.0000
G1 X921.1091 Y443.8942 Z-6.0400
G1 X920.6785 Y428.8226 Z-6.0400
G1 X920.0523 Y414.0533 Z-6.0400
G1 X919.2390 Y399.5727 Z-6.0400
G1 X918.2470 Y385.3671 Z-6.0400
G1 X917.0836 Y371.4237 Z-6.0400
G1 X915.7549 Y357.7318 Z-6.0400
G1 X914.2645 Y344.2839 Z-6.0400
G1 X912.6135 Y331.0759 Z-6.0400
G1 X910.8007 Y318.1074 Z-6.0400
G1 X908.8224 Y305.3816 Z-6.0400
G1 X906.6723 Y292.9053 Z-6.0400
G1 X904.3427 Y280.6881 Z-6.0400
G1 X901.8284 Y268.7571 Z-6.0400
G1 X900.4963 Y262.8895 Z-6.0400
G1 X899.1137 Y257.0940 Z-6.0400
G1 X897.6790 Y251.3694 Z-6.0400
G1 X895.9328 Y244.7575 Z-6.0400
G2 X893.0323 Y242.5235 I-2.9006 J0.7660
G1 X852.1802 Y242.5232 Z-6.0400
G2 X855.1206 Y239.5238 I-0.0596 J-2.9994
G1 X855.1206 Y236.4235 Z-6.0400
G2 X852.1206 Y233.4235 I-3.0000 J0.0000
G1 X852.0706 Y233.3735 Z-6.0400
G1 X852.1156 Y233.3235 Z-6.0400
G1 X888.8122 Y233.3235 Z-6.0400
G2 X891.7020 Y229.5179 I0.0000 J-3.0000
G3 X887.8778 Y213.1125 I178.1219 J-50.1698
G1 X886.4244 Y205.4754 Z-6.0400
G1 X885.1603 Y197.8979 Z-6.0400
G1 X884.0617 Y190.3798 Z-6.0400
G1 X883.1035 Y182.9228 Z-6.0400
G1 X882.2606 Y175.5299 Z-6.0400
G1 X881.5088 Y168.2099 Z-6.0400
G1 X880.1836 Y153.7886 Z-6.0400
G1 X878.9608 Y139.7381 Z-6.0400
G1 X877.7043 Y126.1332 Z-6.0400
G1 X876.3322 Y113.1293 Z-6.0400
G1 X874.9604 Y98.1500 Z-6.0400
G2 X871.9729 Y95.4235 I-2.9875 J0.2735
G1 X814.0000 Y95.4235 Z-6.0400
G2 X811.0000 Y98.4235 I0.0000 J3.0000
G1 X811.0000 Y460.4235 Z-6.0400
G1 X811.0000 Y460.4235 Z-9.0600
G1 X811.0000 Y822.4235 Z-9.0600
G2 X815.7464 Y824.8628 I3.0000 J0.0000
G2 X861.5524 Y775.7142 I-95.9105 J-135.3073
G2 X878.3558 Y743.6674 I-210.6569 J-130.8842
G1 X880.2096 Y739.3564 Z-9.0600
G1 X882.0124 Y734.9814 Z-9.0600
G1 X883.7652 Y730.5434 Z-9.0600
G1 X885.4689 Y726.0433 Z-9.0600
G1 X887.1247 Y721.4823 Z-9.0600
G1 X888.7394 Y716.8435 Z-9.0600
G1 X891.8264 Y707.4002 Z-9.0600
G1 X892.1178 Y706.4002 Z-9.0600
G2 X889.2375 Y702.5610 I-2.8803 J-0.8392
G1 X852.0645 Y702.5610 Z-9.0600
G1 X852.0637 Y702.5605 Z-9.0600
G1 X852.0645 Y702.5591 Z-9.0600
G2 X855.1065 Y699.5597 I0.0420 J-2.9997
G1 X855.1068 Y696.4594 Z-9.0600
G2 X852.1062 Y693.4591 I-3.0000 J-0.0003
G1 X852.0620 Y693.4326 Z-9.0600
G1 X852.0647 Y693.3812 Z-9.0600
G1 X852.1068 Y693.3589 Z-9.0600
G1 X852.4224 Y693.3756 Z-9.0600
G1 X893.6613 Y693.3784 Z-9.0600
G2 X896.5417 Y691.2176 I0.0002 J-3.0000
G2 X899.7773 Y678.8058 I-203.1642 J-59.5905
G1 X901.1627 Y673.0333 Z-9.0600
G1 X902.5014 Y667.1780 Z-9.0600
G1 X905.0254 Y655.2963 Z-9.0600
G1 X907.3590 Y643.1487 Z-9.0600
G1 X909.5067 Y630.7376 Z-9.0600
G1 X911.4723 Y618.0640 Z-9.0600
G1 X913.2584 Y605.1281 Z-9.0600
G1 X914.8669 Y591.9289 Z-9.0600
G1 X916.2989 Y578.4644 Z-9.0600
G1 X917.5548 Y564.7323 Z-9.0600
G1 X918.6343 Y550.7291 Z-9.0600
G1 X919.5367 Y536.4515 Z-9.0600
G1 X920.2608 Y521.8955 Z-9.0600
G1 X920.8055 Y507.0575 Z-9.0600
G1 X921.1694 Y491.9344 Z-9.0600
G1 X921.3516 Y475.5235 Z-9.0600
G2 X918.3516 Y472.5235 I-3.0000 J0.0000
G1 X866.2467 Y472.5232 Z-9.0600
G2 X869.1870 Y469.5238 I-0.0597 J-2.9994
G1 X869.1870 Y466.4235 Z-9.0600
G2 X866.1870 Y463.4235 I-3.0000 J0.0000
G1 X866.1370 Y463.3735 Z-9.0600
G1 X866.1870 Y463.3235 Z-9.0600
G1 X918.3372 Y463.3235 Z-9.0600
G2 X921.3372 Y460.3235 I0.0000 J-3.0000
G1 X921.1091 Y443.8942 Z-9.0600
G1 X920.6785 Y428.8226 Z-9.0600
G1 X920.0523 Y414.0533 Z-9.0600
G1 X919.2390 Y399.5727 Z-9.0600
G1 X918.2470 Y385.3671 Z-9.0600
G1 X917.0836 Y371.4237 Z-9.0600
G1 X915.7549 Y357.7318 Z-9.0600
G1 X914.2645 Y344.2839 Z-9.0600
G1 X912.6135 Y331.0759 Z-9.0600
G1 X910.8007 Y318.1074 Z-9.0600
G1 X908.8224 Y305.3816 Z-9.0600
G1 X906.6723 Y292.9053 Z-9.0600
G1 X904.3427 Y280.6881 Z-9.0600
G1 X901.8284 Y268.7571 Z-9.0600
G1 X900.4963 Y262.8895 Z-9.0600
G1 X899.1137 Y257.0940 Z-9.0600
G1 X897.6790 Y251.3694 Z-9.0600
G1 X895.9328 Y244.7575 Z-9.0600
G2 X893.0323 Y242.5235 I-2.9006 J0.7660
G1 X852.1802 Y242.5232 Z-9.0600
G2 X855.1206 Y239.5238 I-0.0596 J-2.9994
G1 X855.1206 Y236.4235 Z-9.0600
G2 X852.1206 Y233.4235 I-3.0000 J0.0000
G1 X852.0706 Y233.3735 Z-9.0600
G1 X852.1156 Y233.3235 Z-9.0600
G1 X888.8122 Y233.3235 Z-9.0600
G2 X891.7020 Y229.5179 I0.0000 J-3.0000
G3 X887.8778 Y213.1125 I178.1219 J-50.1698
G1 X886.4244 Y205.4754 Z-9.0600
G1 X885.1603 Y197.8979 Z-9.0600
G1 X884.0617 Y190.3798 Z-9.0600
G1 X883.1035 Y182.9228 Z-9.0600
G1 X882.2606 Y175.5299 Z-9.0600
G1 X881.5088 Y168.2099 Z-9.0600
G1 X880.1836 Y153.7886 Z-9.0600
G1 X878.9608 Y139.7381 Z-9.0600
G1 X877.7043 Y126.1332 Z-9.0600
G1 X876.3322 Y113.1293 Z-9.0600
G1 X874.9604 Y98.1500 Z-9.0600
G2 X871.9729 Y95.4235 I-2.9875 J0.2735
G1 X814.0000 Y95.4235 Z-9.0600
G2 X811.0000 Y98.4235 I0.0000 J3.0000
G1 X811.0000 Y460.4235 Z-9.0600
G1 X811.0000 Y460.4235 Z-12.0800
G1 X811.0000 Y682.6213 Z-12.0800
G1 X811.0000 Y682.6213 Z-11.1000
G1 X811.0000 Y692.6213 Z-11.1000
G1 X811.0000 Y692.6213 Z-12.0800
G1 X811.0000 Y822.4235 Z-12.0800
G2 X815.7464 Y824.8628 I3.0000 J0.0000
G2 X861.5524 Y775.7142 I-95.9105 J-135.3073
G2 X878.3558 Y743.6674 I-210.6569 J-130.8842
G1 X880.2096 Y739.3564 Z-12.0800
G1 X882.0124 Y734.9814 Z-12.0800
G1 X883.7652 Y730.5434 Z-12.0800
G1 X885.4689 Y726.0433 Z-12.0800
G1 X887.1247 Y721.4823 Z-12.0800
G1 X888.7394 Y716.8435 Z-12.0800
G2 X892.1858 Y706.1156 I-122.5935 J-45.3023
G2 X889.2375 Y702.5610 I-2.9483 J-0.5546
G1 X852.0645 Y702.5610 Z-12.0800
G1 X852.0637 Y702.5605 Z-12.0800
G1 X852.0645 Y702.5591 Z-12.0800
G2 X855.1065 Y699.5597 I0.0420 J-2.9997
G2 X855.0491 Y695.8740 I-18.7359 J-1.5519
G2 X852.0659 Y693.4387 I-3.1527 J0.8172
G1 X852.0638 Y693.4357 Z-12.0800
G1 X852.0620 Y693.4326 Z-12.0800
G1 X852.0647 Y693.3812 Z-12.0800
G1 X852.0666 Y693.3785 Z-12.0800
G1 X852.0688 Y693.3760 Z-12.0800
G1 X852.0710 Y693.3736 Z-12.0800
G1 X852.0735 Y693.3713 Z-12.0800
G1 X852.0760 Y693.3693 Z-12.0800
G1 X852.0787 Y693.3673 Z-12.0800
G1 X852.0815 Y693.3656 Z-12.0800
G1 X852.0845 Y693.3641 Z-12.0800
G1 X852.0875 Y693.3627 Z-12.0800
G1 X852.0906 Y693.3616 Z-12.0800
G1 X852.0938 Y693.3606 Z-12.0800
G1 X852.0970 Y693.3599 Z-12.0800
G1 X852.1002 Y693.3593 Z-12.0800
G1 X852.1035 Y693.3590 Z-12.0800
G1 X852.1068 Y693.3589 Z-12.0800
G1 X852.4224 Y693.3756 Z-12.0800
G1 X893.6613 Y693.3784 Z-12.0800
G2 X896.5417 Y691.2176 I0.0002 J-3.0000
G2 X899.7773 Y678.8058 I-203.1642 J-59.5905
G1 X901.1627 Y673.0333 Z-12.0800
G1 X902.5014 Y667.1780 Z-12.0800
G1 X905.0254 Y655.2963 Z-12.0800
G1 X907.3590 Y643.1487 Z-12.0800
G1 X909.5067 Y630.7376 Z-12.0800
G1 X911.1327 Y620.2534 Z-12.0800
G1 X911.1327 Y620.2534 Z-11.1000
G1 X911.4723 Y618.0640 Z-11.1000
G1 X912.5438 Y610.3032 Z-11.1000
G1 X912.5438 Y610.3032 Z-12.0800
G1 X913.2584 Y605.1281 Z-12.0800
G1 X914.8669 Y591.9289 Z-12.0800
G1 X916.2989 Y578.4644 Z-12.0800
G1 X917.5548 Y564.7323 Z-12.0800
G1 X918.6343 Y550.7291 Z-12.0800
G1 X919.5367 Y536.4515 Z-12.0800
G1 X920.2608 Y521.8955 Z-12.0800
G1 X920.8055 Y507.0575 Z-12.0800
G1 X921.1694 Y491.9344 Z-12.0800
G1 X921.3516 Y475.5235 Z-12.0800
G2 X918.3516 Y472.5235 I-3.0000 J0.0000
G1 X866.2467 Y472.5232 Z-12.0800
G2 X869.1870 Y469.5238 I-0.0597 J-2.9994
G2 X869.1294 Y465.8383 I-18.7389 J-1.5501
G2 X866.1395 Y463.3890 I-3.3088 J0.9896
G1 X866.1381 Y463.3839 Z-12.0800
G1 X866.1373 Y463.3788 Z-12.0800
G1 X866.1370 Y463.3735 Z-12.0800
G1 X866.1870 Y463.3235 Z-12.0800
G1 X918.3372 Y463.3235 Z-12.0800
G2 X921.3372 Y460.3235 I0.0000 J-3.0000
G1 X921.1091 Y443.8942 Z-12.0800
G1 X920.6785 Y428.8226 Z-12.0800
G1 X920.0523 Y414.0533 Z-12.0800
G1 X919.2390 Y399.5727 Z-12.0800
G1 X918.2470 Y385.3671 Z-12.0800
G1 X917.0836 Y371.4237 Z-12.0800
G1 X915.7549 Y357.7318 Z-12.0800
G1 X914.2645 Y344.2839 Z-12.0800
G1 X912.6135 Y331.0759 Z-12.0800
G1 X910.8007 Y318.1074 Z-12.0800
G1 X908.8224 Y305.3816 Z-12.0800
G1 X906.6723 Y292.9053 Z-12.0800
G1 X904.3427 Y280.6881 Z-12.0800
G1 X903.7090 Y277.6807 Z-12.0800
G1 X903.7090 Y277.6807 Z-11.1000
G1 X901.8284 Y268.7571 Z-11.1000
G1 X901.6232 Y267.8530 Z-11.1000
G1 X901.6232 Y267.8530 Z-12.0800
G1 X900.4963 Y262.8895 Z-12.0800
G1 X899.1137 Y257.0940 Z-12.0800
G1 X897.6790 Y251.3694 Z-12.0800
G1 X895.9328 Y244.7575 Z-12.0800
G2 X893.0323 Y242.5235 I-2.9006 J0.7660
G1 X852.1802 Y242.5232 Z-12.0800
G2 X855.1206 Y239.5238 I-0.0596 J-2.9994
G2 X855.0629 Y235.8383 I-18.7390 J-1.5501
G2 X852.0730 Y233.3890 I-3.3088 J0.9896
G1 X852.0717 Y233.3839 Z-12.0800
G1 X852.0708 Y233.3788 Z-12.0800
G1 X852.0706 Y233.3735 Z-12.0800
G1 X852.1156 Y233.3235 Z-12.0800
G1 X888.8122 Y233.3235 Z-12.0800
G2 X891.7020 Y229.5179 I0.0000 J-3.0000
G3 X887.8778 Y213.1125 I178.1219 J-50.1698
G1 X886.4244 Y205.4754 Z-12.0800
G1 X885.1603 Y197.8979 Z-12.0800
G1 X884.0617 Y190.3798 Z-12.0800
G1 X883.1035 Y182.9228 Z-12.0800
G1 X882.2606 Y175.5299 Z-12.0800
G1 X881.5088 Y168.2099 Z-12.0800
G1 X880.1836 Y153.7886 Z-12.0800
G1 X878.9608 Y139.7381 Z-12.0800
G1 X877.7043 Y126.1332 Z-12.0800
G1 X876.3322 Y113.1293 Z-12.0800
G1 X874.9604 Y98.1500 Z-12.0800
G2 X871.9729 Y95.4235 I-2.9875 J0.2735
G1 X814.0000 Y95.4235 Z-12.0800
G2 X811.0000 Y98.4235 I0.0000 J3.0000
G1 X811.0000 Y228.2477 Z-12.0800
G1 X811.0000 Y228.2477 Z-11.1000
G1 X811.0000 Y238.2477 Z-11.1000
G1 X811.0000 Y238.2477 Z-12.0800
G1 X811.0000 Y460.4235 Z-12.0800
G1 X811.0000 Y460.4235 Z-15.1000
G1 X811.0000 Y682.6213 Z-15.1000
G1 X811.0000 Y682.6213 Z-11.1000
G1 X811.0000 Y692.6213 Z-11.1000
G1 X811.0000 Y692.6213 Z-15.1000
G1 X811.0000 Y822.4235 Z-15.1000
G2 X815.7464 Y824.8628 I3.0000 J0.0000
G2 X861.5524 Y775.7142 I-95.9105 J-135.3073
G2 X878.3558 Y743.6674 I-210.6569 J-130.8842
G1 X880.2096 Y739.3564 Z-15.1000
G1 X882.0124 Y734.9814 Z-15.1000
G1 X883.7652 Y730.5434 Z-15.1000
G1 X885.4689 Y726.0433 Z-15.1000
G1 X887.1247 Y721.4823 Z-15.1000
G1 X888.7394 Y716.8435 Z-15.1000
G2 X892.1858 Y706.1156 I-122.5935 J-45.3023
G2 X889.2375 Y702.5610 I-2.9483 J-0.5546
G1 X852.0645 Y702.5610 Z-15.1000
G1 X852.0637 Y702.5605 Z-15.1000
G1 X852.0645 Y702.5591 Z-15.1000
G2 X855.1065 Y699.5597 I0.0420 J-2.9997
G2 X855.0491 Y695.8740 I-18.7359 J-1.5519
G2 X852.0659 Y693.4387 I-3.1527 J0.8172
G1 X852.0638 Y693.4357 Z-15.1000
G1 X852.0620 Y693.4326 Z-15.1000
G1 X852.0647 Y693.3812 Z-15.1000
G1 X852.0666 Y693.3785 Z-15.1000
G1 X852.0688 Y693.3760 Z-15.1000
G1 X852.0710 Y693.3736 Z-15.1000
G1 X852.0735 Y693.3713 Z-15.1000
G1 X852.0760 Y693.3693 Z-15.1000
G1 X852.0787 Y693.3673 Z-15.1000
G1 X852.0815 Y693.3656 Z-15.1000
G1 X852.0845 Y693.3641 Z-15.1000
G1 X852.0875 Y693.3627 Z-15.1000
G1 X852.0906 Y693.3616 Z-15.1000
G1 X852.0938 Y693.3606 Z-15.1000
G1 X852.0970 Y693.3599 Z-15.1000
G1 X852.1002 Y693.3593 Z-15.1000
G1 X852.1035 Y693.3590 Z-15.1000
G1 X852.1068 Y693.3589 Z-15.1000
G1 X852.4224 Y693.3756 Z-15.1000
G1 X893.6613 Y693.3784 Z-15.1000
G2 X896.5417 Y691.2176 I0.0002 J-3.0000
G2 X899.7773 Y678.8058 I-203.1642 J-59.5905
G1 X901.1627 Y673.0333 Z-15.1000
G1 X902.5014 Y667.1780 Z-15.1000
G1 X905.0254 Y655.2963 Z-15.1000
G1 X907.3590 Y643.1487 Z-15.1000
G1 X909.5067 Y630.7376 Z-15.1000
G1 X911.1327 Y620.2534 Z-15.1000
G1 X911.1327 Y620.2534 Z-11.1000
G1 X911.4723 Y618.0640 Z-11.1000
G1 X912.5438 Y610.3032 Z-11.1000
G1 X912.5438 Y610.3032 Z-15.1000
G1 X913.2584 Y605.1281 Z-15.1000
G1 X914.8669 Y591.9289 Z-15.1000
G1 X916.2989 Y578.4644 Z-15.1000
G1 X917.5548 Y564.7323 Z-15.1000
G1 X918.6343 Y550.7291 Z-15.1000
G1 X919.5367 Y536.4515 Z-15.1000
G1 X920.2608 Y521.8955 Z-15.1000
G1 X920.8055 Y507.0575 Z-15.1000
G1 X921.1694 Y491.9344 Z-15.1000
G1 X921.3516 Y475.5235 Z-15.1000
G2 X918.3516 Y472.5235 I-3.0000 J0.0000
G1 X866.2467 Y472.5232 Z-15.1000
G2 X869.1870 Y469.5238 I-0.0597 J-2.9994
G2 X869.1294 Y465.8383 I-18.7389 J-1.5501
G2 X866.1395 Y463.3890 I-3.3088 J0.9896
G1 X866.1381 Y463.3839 Z-15.1000
G1 X866.1373 Y463.3788 Z-15.1000
G1 X866.1370 Y463.3735 Z-15.1000
G1 X866.1870 Y463.3235 Z-15.1000
G1 X918.3372 Y463.3235 Z-15.1000
G2 X921.3372 Y460.3235 I0.0000 J-3.0000
G1 X921.1091 Y443.8942 Z-15.1000
G1 X920.6785 Y428.8226 Z-15.1000
G1 X920.0523 Y414.0533 Z-15.1000
G1 X919.2390 Y399.5727 Z-15.1000
G1 X918.2470 Y385.3671 Z-15.1000
G1 X917.0836 Y371.4237 Z-15.1000
G1 X915.7549 Y357.7318 Z-15.1000
G1 X914.2645 Y344.2839 Z-15.1000
G1 X912.6135 Y331.0759 Z-15.1000
G1 X910.8007 Y318.1074 Z-15.1000
G1 X908.8224 Y305.3816 Z-15.1000
G1 X906.6723 Y292.9053 Z-15.1000
G1 X904.3427 Y280.6881 Z-15.1000
G1 X903.7090 Y277.6807 Z-15.1000
G1 X903.7090 Y277.6807 Z-11.1000
G1 X901.8284 Y268.7571 Z-11.1000
G1 X901.6232 Y267.8530 Z-11.1000
G1 X901.6232 Y267.8530 Z-15.1000
G1 X900.4963 Y262.8895 Z-15.1000
G1 X899.1137 Y257.0940 Z-15.1000
G1 X897.6790 Y251.3694 Z-15.1000
G1 X895.9328 Y244.7575 Z-15.1000
G2 X893.0323 Y242.5235 I-2.9006 J0.7660
G1 X852.1802 Y242.5232 Z-15.1000
G2 X855.1206 Y239.5238 I-0.0596 J-2.9994
G2 X855.0629 Y235.8383 I-18.7390 J-1.5501
G2 X852.0730 Y233.3890 I-3.3088 J0.9896
G1 X852.0717 Y233.3839 Z-15.1000
G1 X852.0708 Y233.3788 Z-15.1000
G1 X852.0706 Y233.3735 Z-15.1000
G1 X852.1156 Y233.3235 Z-15.1000
G1 X888.8122 Y233.3235 Z-15.1000
G2 X891.7020 Y229.5179 I0.0000 J-3.0000
G3 X887.8778 Y213.1125 I178.1219 J-50.1698
G1 X886.4244 Y205.4754 Z-15.1000
G1 X885.1603 Y197.8979 Z-15.1000
G1 X884.0617 Y190.3798 Z-15.1000
G1 X883.1035 Y182.9228 Z-15.1000
G1 X882.2606 Y175.5299 Z-15.1000
G1 X881.5088 Y168.2099 Z-15.1000
G1 X880.1836 Y153.7886 Z-15.1000
G1 X878.9608 Y139.7381 Z-15.1000
G1 X877.7043 Y126.1332 Z-15.1000
G1 X876.3322 Y113.1293 Z-15.1000
G1 X874.9604 Y98.1500 Z-15.1000
G2 X871.9729 Y95.4235 I-2.9875 J0.2735
G1 X814.0000 Y95.4235 Z-15.1000
G2 X811.0000 Y98.4235 I0.0000 J3.0000
G1 X811.0000 Y228.2477 Z-15.1000
G1 X811.0000 Y228.2477 Z-11.1000
G1 X811.0000 Y238.2477 Z-11.1000
G1 X811.0000 Y238.2477 Z-15.1000
G1 X811.0000 Y460.4235 Z-15.1000
G0 Z20.0000
G0 X811.0000 Y460.4235
M9
M5
M30
(--THE END - THANK YOU FOR USING THIS AWESOME POSTPROCESSOR---)
