(03-Shelf_snap-6mmF.nc)
(----------------------------------------------------------------)
( Generated for RhinoCam to export for CNC-STEP models Raptor X-SL3000s20 / T-Rex1215 )
( Postprocessor written at FabLab BCN/IaaC by eduardo.chamorro@iaac.net )
( Last edit : 22 January - 2019 )
(----------------------------------------------------------------)
(Stock Size X = 2400.0000, Y =  1200.0000, Z = 15.0000)
(Home Origin X =  0, Y = 0, Z = 0)
(Units = MM, Spindle Speed = 18000)
(Max cut depth = Z-15.0000)
(Tool dia= 6.0 mm, Tool length= 35.0 mm)(WARNING!-CHECK YOUR TOOL)
(-------------------------------------------------------------)
%
G90
G64
M7
M8
T1
S18000
M3
G0 Z20.0000
G0 X509.8359 Y457.5165
G1 X509.8359 Y457.5165 Z-1.7500 F2250.
G1 X509.8359 Y464.7190 Z-3.0200
G1 X509.8359 Y826.7190 Z-3.0200 F4500.
G2 X514.5735 Y829.1646 I3.0000 J0.0000
G2 X565.2829 Y779.9897 I-134.1708 J-189.0909
G1 X568.1262 Y776.2576 Z-3.0200
G1 X570.9321 Y772.4534 Z-3.0200
G1 X573.7005 Y768.5780 Z-3.0200
G1 X576.4314 Y764.6323 Z-3.0200
G1 X579.1250 Y760.6172 Z-3.0200
G1 X581.7811 Y756.5335 Z-3.0200
G1 X584.3998 Y752.3820 Z-3.0200
G1 X586.9809 Y748.1636 Z-3.0200
G1 X589.5242 Y743.8790 Z-3.0200
G1 X592.0298 Y739.5288 Z-3.0200
G1 X594.4973 Y735.1138 Z-3.0200
G1 X596.9266 Y730.6345 Z-3.0200
G1 X599.3173 Y726.0917 Z-3.0200
G1 X601.6691 Y721.4856 Z-3.0200
G1 X603.9832 Y716.8137 Z-3.0200
G1 X606.7130 Y711.1151 Z-3.0200
G2 X604.0074 Y706.8190 I-2.7056 J-1.2961
G1 X560.2241 Y706.8190 Z-3.0200
G2 X563.1645 Y703.8196 I-0.0596 J-2.9994
G1 X563.1645 Y700.7190 Z-3.0200
G2 X560.1645 Y697.7190 I-3.0000 J0.0000
G1 X560.1212 Y697.6940 Z-3.0200
G1 X560.1212 Y697.6440 Z-3.0200
G1 X560.1601 Y697.6190 Z-3.0200
G1 X610.8126 Y697.6190 Z-3.0200
G2 X613.5816 Y695.7734 I0.0000 J-3.0000
G1 X616.2891 Y689.2781 Z-3.0200
G1 X618.5210 Y683.7124 Z-3.0200
G1 X620.7006 Y678.0738 Z-3.0200
G1 X622.8272 Y672.3621 Z-3.0200
G1 X624.8995 Y666.5773 Z-3.0200
G1 X626.9167 Y660.7193 Z-3.0200
G1 X628.8775 Y654.7877 Z-3.0200
G1 X630.7808 Y648.7825 Z-3.0200
G1 X632.6255 Y642.7030 Z-3.0200
G1 X634.4101 Y636.5489 Z-3.0200
G1 X636.1335 Y630.3197 Z-3.0200
G1 X637.7943 Y624.0147 Z-3.0200
G1 X639.3912 Y617.6334 Z-3.0200
G1 X640.9227 Y611.1751 Z-3.0200
G1 X642.3875 Y604.6391 Z-3.0200
G1 X643.7842 Y598.0245 Z-3.0200
G1 X645.1114 Y591.3306 Z-3.0200
G1 X646.3676 Y584.5567 Z-3.0200
G1 X647.5515 Y577.7017 Z-3.0200
G1 X648.6618 Y570.7649 Z-3.0200
G1 X649.6969 Y563.7454 Z-3.0200
G1 X650.6556 Y556.6423 Z-3.0200
G1 X651.5366 Y549.4547 Z-3.0200
G1 X652.3386 Y542.1817 Z-3.0200
G1 X653.0605 Y534.8226 Z-3.0200
G1 X653.7010 Y527.3765 Z-3.0200
G1 X654.2592 Y519.8427 Z-3.0200
G1 X654.7342 Y512.2205 Z-3.0200
G1 X655.1251 Y504.5093 Z-3.0200
G1 X655.4312 Y496.7086 Z-3.0200
G1 X655.6519 Y488.8181 Z-3.0200
G1 X655.7869 Y480.8190 Z-3.0200
G1 X655.7869 Y479.8190 Z-3.0200
G2 X652.7869 Y476.8190 I-3.0000 J0.0000
G1 X582.8956 Y476.8187 Z-3.0200
G2 X585.8359 Y473.8193 I-0.0597 J-2.9994
G1 X585.8359 Y470.7190 Z-3.0200
G2 X582.8359 Y467.7190 I-3.0000 J0.0000
G1 X582.7859 Y467.6690 Z-3.0200
G1 X582.8359 Y467.6190 Z-3.0200
G1 X652.7808 Y467.6190 Z-3.0200
G2 X655.7808 Y464.6190 I0.0000 J-3.0000
G1 X655.7803 Y463.5620 Z-3.0200
G1 X655.6287 Y455.5924 Z-3.0200
G1 X655.3818 Y447.7226 Z-3.0200
G1 X655.0412 Y439.9513 Z-3.0200
G1 X654.6087 Y432.2769 Z-3.0200
G1 X654.0867 Y424.6974 Z-3.0200
G1 X653.4778 Y417.2105 Z-3.0200
G1 X652.7844 Y409.8140 Z-3.0200
G1 X652.0096 Y402.5052 Z-3.0200
G1 X651.1558 Y395.2819 Z-3.0200
G1 X650.2261 Y388.1416 Z-3.0200
G1 X649.2230 Y381.0821 Z-3.0200
G1 X648.1491 Y374.1012 Z-3.0200
G1 X647.0068 Y367.1968 Z-3.0200
G1 X645.7985 Y360.3671 Z-3.0200
G1 X644.5262 Y353.6106 Z-3.0200
G1 X643.1916 Y346.9259 Z-3.0200
G1 X641.7965 Y340.3121 Z-3.0200
G1 X640.3420 Y333.7682 Z-3.0200
G1 X638.8294 Y327.2938 Z-3.0200
G1 X637.2596 Y320.8886 Z-3.0200
G1 X635.6330 Y314.5525 Z-3.0200
G1 X633.9502 Y308.2860 Z-3.0200
G1 X632.2112 Y302.0894 Z-3.0200
G1 X630.4159 Y295.9635 Z-3.0200
G1 X628.5642 Y289.9093 Z-3.0200
G1 X626.6557 Y283.9279 Z-3.0200
G1 X624.6897 Y278.0205 Z-3.0200
G1 X622.6656 Y272.1883 Z-3.0200
G1 X620.5828 Y266.4328 Z-3.0200
G1 X618.4405 Y260.7553 Z-3.0200
G1 X616.2379 Y255.1572 Z-3.0200
G1 X613.9283 Y249.5367 Z-3.0200
G1 X613.4555 Y248.5367 Z-3.0200
G2 X610.7433 Y246.8190 I-2.7122 J1.2823
G1 X560.2241 Y246.8190 Z-3.0200
G2 X563.1645 Y243.8196 I-0.0596 J-2.9994
G1 X563.1645 Y240.7190 Z-3.0200
G2 X560.1645 Y237.7190 I-3.0000 J0.0000
G1 X560.1212 Y237.6940 Z-3.0200
G1 X560.1212 Y237.6440 Z-3.0200
G1 X560.1601 Y237.6190 Z-3.0200
G1 X604.1527 Y237.6190 Z-3.0200
G2 X606.9450 Y233.5222 I0.0000 J-3.0000
G1 X603.4082 Y224.8304 Z-3.0200
G1 X600.4859 Y217.2506 Z-3.0200
G1 X597.7486 Y209.7155 Z-3.0200
G1 X595.1854 Y202.2253 Z-3.0200
G1 X592.7860 Y194.7812 Z-3.0200
G1 X590.5407 Y187.3857 Z-3.0200
G1 X588.4416 Y180.0423 Z-3.0200
G1 X586.4829 Y172.7562 Z-3.0200
G1 X584.6606 Y165.5331 Z-3.0200
G1 X582.9734 Y158.3803 Z-3.0200
G1 X581.4218 Y151.3056 Z-3.0200
G1 X580.0083 Y144.3172 Z-3.0200
G1 X578.7366 Y137.4234 Z-3.0200
G1 X577.6113 Y130.6320 Z-3.0200
G1 X576.6369 Y123.9493 Z-3.0200
G1 X575.8148 Y117.3633 Z-3.0200
G1 X574.1070 Y102.3793 Z-3.0200
G2 X571.1263 Y99.7190 I-2.9807 J0.3397
G1 X512.8359 Y99.7190 Z-3.0200
G2 X509.8359 Y102.7190 I0.0000 J3.0000
G1 X509.8359 Y464.7190 Z-3.0200
G1 X509.8359 Y464.7190 Z-6.0400
G1 X509.8359 Y826.7190 Z-6.0400
G2 X514.5735 Y829.1646 I3.0000 J0.0000
G2 X565.2829 Y779.9897 I-134.1708 J-189.0909
G1 X568.1262 Y776.2576 Z-6.0400
G1 X570.9321 Y772.4534 Z-6.0400
G1 X573.7005 Y768.5780 Z-6.0400
G1 X576.4314 Y764.6323 Z-6.0400
G1 X579.1250 Y760.6172 Z-6.0400
G1 X581.7811 Y756.5335 Z-6.0400
G1 X584.3998 Y752.3820 Z-6.0400
G1 X586.9809 Y748.1636 Z-6.0400
G1 X589.5242 Y743.8790 Z-6.0400
G1 X592.0298 Y739.5288 Z-6.0400
G1 X594.4973 Y735.1138 Z-6.0400
G1 X596.9266 Y730.6345 Z-6.0400
G1 X599.3173 Y726.0917 Z-6.0400
G1 X601.6691 Y721.4856 Z-6.0400
G1 X603.9832 Y716.8137 Z-6.0400
G1 X606.7130 Y711.1151 Z-6.0400
G2 X604.0074 Y706.8190 I-2.7056 J-1.2961
G1 X560.2241 Y706.8190 Z-6.0400
G2 X563.1645 Y703.8196 I-0.0596 J-2.9994
G1 X563.1645 Y700.7190 Z-6.0400
G2 X560.1645 Y697.7190 I-3.0000 J0.0000
G1 X560.1212 Y697.6940 Z-6.0400
G1 X560.1212 Y697.6440 Z-6.0400
G1 X560.1601 Y697.6190 Z-6.0400
G1 X610.8126 Y697.6190 Z-6.0400
G2 X613.5816 Y695.7734 I0.0000 J-3.0000
G1 X616.2891 Y689.2781 Z-6.0400
G1 X618.5210 Y683.7124 Z-6.0400
G1 X620.7006 Y678.0738 Z-6.0400
G1 X622.8272 Y672.3621 Z-6.0400
G1 X624.8995 Y666.5773 Z-6.0400
G1 X626.9167 Y660.7193 Z-6.0400
G1 X628.8775 Y654.7877 Z-6.0400
G1 X630.7808 Y648.7825 Z-6.0400
G1 X632.6255 Y642.7030 Z-6.0400
G1 X634.4101 Y636.5489 Z-6.0400
G1 X636.1335 Y630.3197 Z-6.0400
G1 X637.7943 Y624.0147 Z-6.0400
G1 X639.3912 Y617.6334 Z-6.0400
G1 X640.9227 Y611.1751 Z-6.0400
G1 X642.3875 Y604.6391 Z-6.0400
G1 X643.7842 Y598.0245 Z-6.0400
G1 X645.1114 Y591.3306 Z-6.0400
G1 X646.3676 Y584.5567 Z-6.0400
G1 X647.5515 Y577.7017 Z-6.0400
G1 X648.6618 Y570.7649 Z-6.0400
G1 X649.6969 Y563.7454 Z-6.0400
G1 X650.6556 Y556.6423 Z-6.0400
G1 X651.5366 Y549.4547 Z-6.0400
G1 X652.3386 Y542.1817 Z-6.0400
G1 X653.0605 Y534.8226 Z-6.0400
G1 X653.7010 Y527.3765 Z-6.0400
G1 X654.2592 Y519.8427 Z-6.0400
G1 X654.7342 Y512.2205 Z-6.0400
G1 X655.1251 Y504.5093 Z-6.0400
G1 X655.4312 Y496.7086 Z-6.0400
G1 X655.6519 Y488.8181 Z-6.0400
G1 X655.7869 Y480.8190 Z-6.0400
G1 X655.7869 Y479.8190 Z-6.0400
G2 X652.7869 Y476.8190 I-3.0000 J0.0000
G1 X582.8956 Y476.8187 Z-6.0400
G2 X585.8359 Y473.8193 I-0.0597 J-2.9994
G1 X585.8359 Y470.7190 Z-6.0400
G2 X582.8359 Y467.7190 I-3.0000 J0.0000
G1 X582.7859 Y467.6690 Z-6.0400
G1 X582.8359 Y467.6190 Z-6.0400
G1 X652.7808 Y467.6190 Z-6.0400
G2 X655.7808 Y464.6190 I0.0000 J-3.0000
G1 X655.7803 Y463.5620 Z-6.0400
G1 X655.6287 Y455.5924 Z-6.0400
G1 X655.3818 Y447.7226 Z-6.0400
G1 X655.0412 Y439.9513 Z-6.0400
G1 X654.6087 Y432.2769 Z-6.0400
G1 X654.0867 Y424.6974 Z-6.0400
G1 X653.4778 Y417.2105 Z-6.0400
G1 X652.7844 Y409.8140 Z-6.0400
G1 X652.0096 Y402.5052 Z-6.0400
G1 X651.1558 Y395.2819 Z-6.0400
G1 X650.2261 Y388.1416 Z-6.0400
G1 X649.2230 Y381.0821 Z-6.0400
G1 X648.1491 Y374.1012 Z-6.0400
G1 X647.0068 Y367.1968 Z-6.0400
G1 X645.7985 Y360.3671 Z-6.0400
G1 X644.5262 Y353.6106 Z-6.0400
G1 X643.1916 Y346.9259 Z-6.0400
G1 X641.7965 Y340.3121 Z-6.0400
G1 X640.3420 Y333.7682 Z-6.0400
G1 X638.8294 Y327.2938 Z-6.0400
G1 X637.2596 Y320.8886 Z-6.0400
G1 X635.6330 Y314.5525 Z-6.0400
G1 X633.9502 Y308.2860 Z-6.0400
G1 X632.2112 Y302.0894 Z-6.0400
G1 X630.4159 Y295.9635 Z-6.0400
G1 X628.5642 Y289.9093 Z-6.0400
G1 X626.6557 Y283.9279 Z-6.0400
G1 X624.6897 Y278.0205 Z-6.0400
G1 X622.6656 Y272.1883 Z-6.0400
G1 X620.5828 Y266.4328 Z-6.0400
G1 X618.4405 Y260.7553 Z-6.0400
G1 X616.2379 Y255.1572 Z-6.0400
G1 X613.9283 Y249.5367 Z-6.0400
G1 X613.4555 Y248.5367 Z-6.0400
G2 X610.7433 Y246.8190 I-2.7122 J1.2823
G1 X560.2241 Y246.8190 Z-6.0400
G2 X563.1645 Y243.8196 I-0.0596 J-2.9994
G1 X563.1645 Y240.7190 Z-6.0400
G2 X560.1645 Y237.7190 I-3.0000 J0.0000
G1 X560.1212 Y237.6940 Z-6.0400
G1 X560.1212 Y237.6440 Z-6.0400
G1 X560.1601 Y237.6190 Z-6.0400
G1 X604.1527 Y237.6190 Z-6.0400
G2 X606.9450 Y233.5222 I0.0000 J-3.0000
G1 X603.4082 Y224.8304 Z-6.0400
G1 X600.4859 Y217.2506 Z-6.0400
G1 X597.7486 Y209.7155 Z-6.0400
G1 X595.1854 Y202.2253 Z-6.0400
G1 X592.7860 Y194.7812 Z-6.0400
G1 X590.5407 Y187.3857 Z-6.0400
G1 X588.4416 Y180.0423 Z-6.0400
G1 X586.4829 Y172.7562 Z-6.0400
G1 X584.6606 Y165.5331 Z-6.0400
G1 X582.9734 Y158.3803 Z-6.0400
G1 X581.4218 Y151.3056 Z-6.0400
G1 X580.0083 Y144.3172 Z-6.0400
G1 X578.7366 Y137.4234 Z-6.0400
G1 X577.6113 Y130.6320 Z-6.0400
G1 X576.6369 Y123.9493 Z-6.0400
G1 X575.8148 Y117.3633 Z-6.0400
G1 X574.1070 Y102.3793 Z-6.0400
G2 X571.1263 Y99.7190 I-2.9807 J0.3397
G1 X512.8359 Y99.7190 Z-6.0400
G2 X509.8359 Y102.7190 I0.0000 J3.0000
G1 X509.8359 Y464.7190 Z-6.0400
G1 X509.8359 Y464.7190 Z-9.0600
G1 X509.8359 Y826.7190 Z-9.0600
G2 X514.5735 Y829.1646 I3.0000 J0.0000
G2 X565.2829 Y779.9897 I-134.1708 J-189.0909
G1 X568.1262 Y776.2576 Z-9.0600
G1 X570.9321 Y772.4534 Z-9.0600
G1 X573.7005 Y768.5780 Z-9.0600
G1 X576.4314 Y764.6323 Z-9.0600
G1 X579.1250 Y760.6172 Z-9.0600
G1 X581.7811 Y756.5335 Z-9.0600
G1 X584.3998 Y752.3820 Z-9.0600
G1 X586.9809 Y748.1636 Z-9.0600
G1 X589.5242 Y743.8790 Z-9.0600
G1 X592.0298 Y739.5288 Z-9.0600
G1 X594.4973 Y735.1138 Z-9.0600
G1 X596.9266 Y730.6345 Z-9.0600
G1 X599.3173 Y726.0917 Z-9.0600
G1 X601.6691 Y721.4856 Z-9.0600
G1 X603.9832 Y716.8137 Z-9.0600
G1 X606.7130 Y711.1151 Z-9.0600
G2 X604.0074 Y706.8190 I-2.7056 J-1.2961
G1 X560.2241 Y706.8190 Z-9.0600
G2 X563.1645 Y703.8196 I-0.0596 J-2.9994
G1 X563.1645 Y700.7190 Z-9.0600
G2 X560.1645 Y697.7190 I-3.0000 J0.0000
G1 X560.1212 Y697.6940 Z-9.0600
G1 X560.1212 Y697.6440 Z-9.0600
G1 X560.1601 Y697.6190 Z-9.0600
G1 X610.8126 Y697.6190 Z-9.0600
G2 X613.5816 Y695.7734 I0.0000 J-3.0000
G1 X616.2891 Y689.2781 Z-9.0600
G1 X618.5210 Y683.7124 Z-9.0600
G1 X620.7006 Y678.0738 Z-9.0600
G1 X622.8272 Y672.3621 Z-9.0600
G1 X624.8995 Y666.5773 Z-9.0600
G1 X626.9167 Y660.7193 Z-9.0600
G1 X628.8775 Y654.7877 Z-9.0600
G1 X630.7808 Y648.7825 Z-9.0600
G1 X632.6255 Y642.7030 Z-9.0600
G1 X634.4101 Y636.5489 Z-9.0600
G1 X636.1335 Y630.3197 Z-9.0600
G1 X637.7943 Y624.0147 Z-9.0600
G1 X639.3912 Y617.6334 Z-9.0600
G1 X640.9227 Y611.1751 Z-9.0600
G1 X642.3875 Y604.6391 Z-9.0600
G1 X643.7842 Y598.0245 Z-9.0600
G1 X645.1114 Y591.3306 Z-9.0600
G1 X646.3676 Y584.5567 Z-9.0600
G1 X647.5515 Y577.7017 Z-9.0600
G1 X648.6618 Y570.7649 Z-9.0600
G1 X649.6969 Y563.7454 Z-9.0600
G1 X650.6556 Y556.6423 Z-9.0600
G1 X651.5366 Y549.4547 Z-9.0600
G1 X652.3386 Y542.1817 Z-9.0600
G1 X653.0605 Y534.8226 Z-9.0600
G1 X653.7010 Y527.3765 Z-9.0600
G1 X654.2592 Y519.8427 Z-9.0600
G1 X654.7342 Y512.2205 Z-9.0600
G1 X655.1251 Y504.5093 Z-9.0600
G1 X655.4312 Y496.7086 Z-9.0600
G1 X655.6519 Y488.8181 Z-9.0600
G1 X655.7869 Y480.8190 Z-9.0600
G1 X655.7869 Y479.8190 Z-9.0600
G2 X652.7869 Y476.8190 I-3.0000 J0.0000
G1 X582.8956 Y476.8187 Z-9.0600
G2 X585.8359 Y473.8193 I-0.0597 J-2.9994
G1 X585.8359 Y470.7190 Z-9.0600
G2 X582.8359 Y467.7190 I-3.0000 J0.0000
G1 X582.7859 Y467.6690 Z-9.0600
G1 X582.8359 Y467.6190 Z-9.0600
G1 X652.7808 Y467.6190 Z-9.0600
G2 X655.7808 Y464.6190 I0.0000 J-3.0000
G1 X655.7803 Y463.5620 Z-9.0600
G1 X655.6287 Y455.5924 Z-9.0600
G1 X655.3818 Y447.7226 Z-9.0600
G1 X655.0412 Y439.9513 Z-9.0600
G1 X654.6087 Y432.2769 Z-9.0600
G1 X654.0867 Y424.6974 Z-9.0600
G1 X653.4778 Y417.2105 Z-9.0600
G1 X652.7844 Y409.8140 Z-9.0600
G1 X652.0096 Y402.5052 Z-9.0600
G1 X651.1558 Y395.2819 Z-9.0600
G1 X650.2261 Y388.1416 Z-9.0600
G1 X649.2230 Y381.0821 Z-9.0600
G1 X648.1491 Y374.1012 Z-9.0600
G1 X647.0068 Y367.1968 Z-9.0600
G1 X645.7985 Y360.3671 Z-9.0600
G1 X644.5262 Y353.6106 Z-9.0600
G1 X643.1916 Y346.9259 Z-9.0600
G1 X641.7965 Y340.3121 Z-9.0600
G1 X640.3420 Y333.7682 Z-9.0600
G1 X638.8294 Y327.2938 Z-9.0600
G1 X637.2596 Y320.8886 Z-9.0600
G1 X635.6330 Y314.5525 Z-9.0600
G1 X633.9502 Y308.2860 Z-9.0600
G1 X632.2112 Y302.0894 Z-9.0600
G1 X630.4159 Y295.9635 Z-9.0600
G1 X628.5642 Y289.9093 Z-9.0600
G1 X626.6557 Y283.9279 Z-9.0600
G1 X624.6897 Y278.0205 Z-9.0600
G1 X622.6656 Y272.1883 Z-9.0600
G1 X620.5828 Y266.4328 Z-9.0600
G1 X618.4405 Y260.7553 Z-9.0600
G1 X616.2379 Y255.1572 Z-9.0600
G1 X613.9283 Y249.5367 Z-9.0600
G1 X613.4555 Y248.5367 Z-9.0600
G2 X610.7433 Y246.8190 I-2.7122 J1.2823
G1 X560.2241 Y246.8190 Z-9.0600
G2 X563.1645 Y243.8196 I-0.0596 J-2.9994
G1 X563.1645 Y240.7190 Z-9.0600
G2 X560.1645 Y237.7190 I-3.0000 J0.0000
G1 X560.1212 Y237.6940 Z-9.0600
G1 X560.1212 Y237.6440 Z-9.0600
G1 X560.1601 Y237.6190 Z-9.0600
G1 X604.1527 Y237.6190 Z-9.0600
G2 X606.9450 Y233.5222 I0.0000 J-3.0000
G1 X603.4082 Y224.8304 Z-9.0600
G1 X600.4859 Y217.2506 Z-9.0600
G1 X597.7486 Y209.7155 Z-9.0600
G1 X595.1854 Y202.2253 Z-9.0600
G1 X592.7860 Y194.7812 Z-9.0600
G1 X590.5407 Y187.3857 Z-9.0600
G1 X588.4416 Y180.0423 Z-9.0600
G1 X586.4829 Y172.7562 Z-9.0600
G1 X584.6606 Y165.5331 Z-9.0600
G1 X582.9734 Y158.3803 Z-9.0600
G1 X581.4218 Y151.3056 Z-9.0600
G1 X580.0083 Y144.3172 Z-9.0600
G1 X578.7366 Y137.4234 Z-9.0600
G1 X577.6113 Y130.6320 Z-9.0600
G1 X576.6369 Y123.9493 Z-9.0600
G1 X575.8148 Y117.3633 Z-9.0600
G1 X574.1070 Y102.3793 Z-9.0600
G2 X571.1263 Y99.7190 I-2.9807 J0.3397
G1 X512.8359 Y99.7190 Z-9.0600
G2 X509.8359 Y102.7190 I0.0000 J3.0000
G1 X509.8359 Y464.7190 Z-9.0600
G1 X509.8359 Y464.7190 Z-12.0800
G1 X509.8359 Y697.8073 Z-12.0800
G1 X509.8359 Y697.8073 Z-11.1000
G1 X509.8359 Y707.8073 Z-11.1000
G1 X509.8359 Y707.8073 Z-12.0800
G1 X509.8359 Y826.7190 Z-12.0800
G2 X514.5735 Y829.1646 I3.0000 J0.0000
G2 X565.2829 Y779.9897 I-134.1708 J-189.0909
G1 X568.1262 Y776.2576 Z-12.0800
G1 X570.9321 Y772.4534 Z-12.0800
G1 X573.7005 Y768.5780 Z-12.0800
G1 X576.4314 Y764.6323 Z-12.0800
G1 X579.1250 Y760.6172 Z-12.0800
G1 X581.7811 Y756.5335 Z-12.0800
G1 X584.3998 Y752.3820 Z-12.0800
G1 X586.9809 Y748.1636 Z-12.0800
G1 X589.5242 Y743.8790 Z-12.0800
G1 X592.0298 Y739.5288 Z-12.0800
G1 X594.4973 Y735.1138 Z-12.0800
G1 X596.9266 Y730.6345 Z-12.0800
G1 X599.3173 Y726.0917 Z-12.0800
G1 X601.6691 Y721.4856 Z-12.0800
G1 X603.9832 Y716.8137 Z-12.0800
G1 X606.7130 Y711.1151 Z-12.0800
G2 X604.0074 Y706.8190 I-2.7056 J-1.2961
G1 X560.2241 Y706.8190 Z-12.0800
G2 X563.1645 Y703.8196 I-0.0596 J-2.9994
G2 X563.1068 Y700.1337 I-18.7405 J-1.5503
G2 X560.1251 Y697.6998 I-3.1402 J0.8036
G1 X560.1230 Y697.6970 Z-12.0800
G1 X560.1212 Y697.6940 Z-12.0800
G1 X560.1212 Y697.6440 Z-12.0800
G1 X560.1601 Y697.6190 Z-12.0800
G1 X610.8126 Y697.6190 Z-12.0800
G2 X613.5816 Y695.7734 I0.0000 J-3.0000
G1 X616.2891 Y689.2781 Z-12.0800
G1 X618.5210 Y683.7124 Z-12.0800
G1 X620.7006 Y678.0738 Z-12.0800
G1 X622.8272 Y672.3621 Z-12.0800
G1 X624.8995 Y666.5773 Z-12.0800
G1 X626.9167 Y660.7193 Z-12.0800
G1 X628.8775 Y654.7877 Z-12.0800
G1 X630.7808 Y648.7825 Z-12.0800
G1 X632.6255 Y642.7030 Z-12.0800
G1 X634.4101 Y636.5489 Z-12.0800
G1 X636.1335 Y630.3197 Z-12.0800
G1 X637.7943 Y624.0147 Z-12.0800
G1 X639.0826 Y618.8665 Z-12.0800
G1 X639.0826 Y618.8665 Z-11.1000
G1 X639.3912 Y617.6334 Z-11.1000
G1 X640.9227 Y611.1751 Z-11.1000
G1 X641.3963 Y609.0618 Z-11.1000
G1 X641.3963 Y609.0618 Z-12.0800
G1 X642.3875 Y604.6391 Z-12.0800
G1 X643.7842 Y598.0245 Z-12.0800
G1 X645.1114 Y591.3306 Z-12.0800
G1 X646.3676 Y584.5567 Z-12.0800
G1 X647.5515 Y577.7017 Z-12.0800
G1 X648.6618 Y570.7649 Z-12.0800
G1 X649.6969 Y563.7454 Z-12.0800
G1 X650.6556 Y556.6423 Z-12.0800
G1 X651.5366 Y549.4547 Z-12.0800
G1 X652.3386 Y542.1817 Z-12.0800
G1 X653.0605 Y534.8226 Z-12.0800
G1 X653.7010 Y527.3765 Z-12.0800
G1 X654.2592 Y519.8427 Z-12.0800
G1 X654.7342 Y512.2205 Z-12.0800
G1 X655.1251 Y504.5093 Z-12.0800
G1 X655.4312 Y496.7086 Z-12.0800
G1 X655.6519 Y488.8181 Z-12.0800
G2 X655.7724 Y479.5250 I-165.6282 J-6.7957
G2 X652.7869 Y476.8190 I-2.9855 J0.2940
G1 X582.8956 Y476.8187 Z-12.0800
G2 X585.8359 Y473.8193 I-0.0597 J-2.9994
G2 X585.7783 Y470.1337 I-18.7389 J-1.5501
G2 X582.7884 Y467.6845 I-3.3088 J0.9896
G1 X582.7870 Y467.6794 Z-12.0800
G1 X582.7862 Y467.6742 Z-12.0800
G1 X582.7859 Y467.6690 Z-12.0800
G1 X582.8359 Y467.6190 Z-12.0800
G1 X652.7808 Y467.6190 Z-12.0800
G2 X655.7808 Y464.6190 I0.0000 J-3.0000
G1 X655.7803 Y463.5620 Z-12.0800
G1 X655.6287 Y455.5924 Z-12.0800
G1 X655.3818 Y447.7226 Z-12.0800
G1 X655.0412 Y439.9513 Z-12.0800
G1 X654.6087 Y432.2769 Z-12.0800
G1 X654.0867 Y424.6974 Z-12.0800
G1 X653.4778 Y417.2105 Z-12.0800
G1 X652.7844 Y409.8140 Z-12.0800
G1 X652.0096 Y402.5052 Z-12.0800
G1 X651.1558 Y395.2819 Z-12.0800
G1 X650.2261 Y388.1416 Z-12.0800
G1 X649.2230 Y381.0821 Z-12.0800
G1 X648.1491 Y374.1012 Z-12.0800
G1 X647.0068 Y367.1968 Z-12.0800
G1 X645.7985 Y360.3671 Z-12.0800
G1 X644.5262 Y353.6106 Z-12.0800
G1 X643.1916 Y346.9259 Z-12.0800
G1 X641.7965 Y340.3121 Z-12.0800
G1 X640.3420 Y333.7682 Z-12.0800
G1 X638.8294 Y327.2938 Z-12.0800
G1 X637.2596 Y320.8886 Z-12.0800
G1 X635.6330 Y314.5525 Z-12.0800
G1 X633.9502 Y308.2860 Z-12.0800
G1 X632.2112 Y302.0894 Z-12.0800
G1 X630.4159 Y295.9635 Z-12.0800
G1 X629.1718 Y291.8959 Z-12.0800
G1 X629.1718 Y291.8959 Z-11.1000
G1 X628.5642 Y289.9093 Z-11.1000
G1 X626.6557 Y283.9279 Z-11.1000
G1 X626.1133 Y282.2984 Z-11.1000
G1 X626.1133 Y282.2984 Z-12.0800
G1 X624.6897 Y278.0205 Z-12.0800
G1 X622.6656 Y272.1883 Z-12.0800
G1 X620.5828 Y266.4328 Z-12.0800
G1 X618.4405 Y260.7553 Z-12.0800
G1 X616.2379 Y255.1572 Z-12.0800
G2 X613.3514 Y248.3364 I-60.0371 J21.3867
G2 X610.7433 Y246.8190 I-2.6081 J1.4826
G1 X560.2241 Y246.8190 Z-12.0800
G2 X563.1645 Y243.8196 I-0.0596 J-2.9994
G2 X563.1068 Y240.1337 I-18.7405 J-1.5503
G2 X560.1251 Y237.6998 I-3.1402 J0.8036
G1 X560.1230 Y237.6970 Z-12.0800
G1 X560.1212 Y237.6940 Z-12.0800
G1 X560.1212 Y237.6440 Z-12.0800
G1 X560.1601 Y237.6190 Z-12.0800
G1 X604.1527 Y237.6190 Z-12.0800
G2 X606.9450 Y233.5222 I0.0000 J-3.0000
G1 X603.4082 Y224.8304 Z-12.0800
G1 X600.4859 Y217.2506 Z-12.0800
G1 X597.7486 Y209.7155 Z-12.0800
G1 X595.1854 Y202.2253 Z-12.0800
G1 X592.7860 Y194.7812 Z-12.0800
G1 X590.5407 Y187.3857 Z-12.0800
G1 X588.4416 Y180.0423 Z-12.0800
G1 X586.4829 Y172.7562 Z-12.0800
G1 X584.6606 Y165.5331 Z-12.0800
G1 X582.9734 Y158.3803 Z-12.0800
G1 X581.4218 Y151.3056 Z-12.0800
G1 X580.0083 Y144.3172 Z-12.0800
G1 X578.7366 Y137.4234 Z-12.0800
G1 X577.6113 Y130.6320 Z-12.0800
G1 X576.6369 Y123.9493 Z-12.0800
G1 X575.8148 Y117.3633 Z-12.0800
G1 X574.1070 Y102.3793 Z-12.0800
G2 X571.1263 Y99.7190 I-2.9807 J0.3397
G1 X512.8359 Y99.7190 Z-12.0800
G2 X509.8359 Y102.7190 I0.0000 J3.0000
G1 X509.8359 Y221.6525 Z-12.0800
G1 X509.8359 Y221.6525 Z-11.1000
G1 X509.8359 Y231.6525 Z-11.1000
G1 X509.8359 Y231.6525 Z-12.0800
G1 X509.8359 Y464.7190 Z-12.0800
G1 X509.8359 Y464.7190 Z-15.1000
G1 X509.8359 Y697.8073 Z-15.1000
G1 X509.8359 Y697.8073 Z-11.1000
G1 X509.8359 Y707.8073 Z-11.1000
G1 X509.8359 Y707.8073 Z-15.1000
G1 X509.8359 Y826.7190 Z-15.1000
G2 X514.5735 Y829.1646 I3.0000 J0.0000
G2 X565.2829 Y779.9897 I-134.1708 J-189.0909
G1 X568.1262 Y776.2576 Z-15.1000
G1 X570.9321 Y772.4534 Z-15.1000
G1 X573.7005 Y768.5780 Z-15.1000
G1 X576.4314 Y764.6323 Z-15.1000
G1 X579.1250 Y760.6172 Z-15.1000
G1 X581.7811 Y756.5335 Z-15.1000
G1 X584.3998 Y752.3820 Z-15.1000
G1 X586.9809 Y748.1636 Z-15.1000
G1 X589.5242 Y743.8790 Z-15.1000
G1 X592.0298 Y739.5288 Z-15.1000
G1 X594.4973 Y735.1138 Z-15.1000
G1 X596.9266 Y730.6345 Z-15.1000
G1 X599.3173 Y726.0917 Z-15.1000
G1 X601.6691 Y721.4856 Z-15.1000
G1 X603.9832 Y716.8137 Z-15.1000
G1 X606.7130 Y711.1151 Z-15.1000
G2 X604.0074 Y706.8190 I-2.7056 J-1.2961
G1 X560.2241 Y706.8190 Z-15.1000
G2 X563.1645 Y703.8196 I-0.0596 J-2.9994
G2 X563.1068 Y700.1337 I-18.7405 J-1.5503
G2 X560.1251 Y697.6998 I-3.1402 J0.8036
G1 X560.1230 Y697.6970 Z-15.1000
G1 X560.1212 Y697.6940 Z-15.1000
G1 X560.1212 Y697.6440 Z-15.1000
G1 X560.1601 Y697.6190 Z-15.1000
G1 X610.8126 Y697.6190 Z-15.1000
G2 X613.5816 Y695.7734 I0.0000 J-3.0000
G1 X616.2891 Y689.2781 Z-15.1000
G1 X618.5210 Y683.7124 Z-15.1000
G1 X620.7006 Y678.0738 Z-15.1000
G1 X622.8272 Y672.3621 Z-15.1000
G1 X624.8995 Y666.5773 Z-15.1000
G1 X626.9167 Y660.7193 Z-15.1000
G1 X628.8775 Y654.7877 Z-15.1000
G1 X630.7808 Y648.7825 Z-15.1000
G1 X632.6255 Y642.7030 Z-15.1000
G1 X634.4101 Y636.5489 Z-15.1000
G1 X636.1335 Y630.3197 Z-15.1000
G1 X637.7943 Y624.0147 Z-15.1000
G1 X639.0826 Y618.8665 Z-15.1000
G1 X639.0826 Y618.8665 Z-11.1000
G1 X639.3912 Y617.6334 Z-11.1000
G1 X640.9227 Y611.1751 Z-11.1000
G1 X641.3963 Y609.0618 Z-11.1000
G1 X641.3963 Y609.0618 Z-15.1000
G1 X642.3875 Y604.6391 Z-15.1000
G1 X643.7842 Y598.0245 Z-15.1000
G1 X645.1114 Y591.3306 Z-15.1000
G1 X646.3676 Y584.5567 Z-15.1000
G1 X647.5515 Y577.7017 Z-15.1000
G1 X648.6618 Y570.7649 Z-15.1000
G1 X649.6969 Y563.7454 Z-15.1000
G1 X650.6556 Y556.6423 Z-15.1000
G1 X651.5366 Y549.4547 Z-15.1000
G1 X652.3386 Y542.1817 Z-15.1000
G1 X653.0605 Y534.8226 Z-15.1000
G1 X653.7010 Y527.3765 Z-15.1000
G1 X654.2592 Y519.8427 Z-15.1000
G1 X654.7342 Y512.2205 Z-15.1000
G1 X655.1251 Y504.5093 Z-15.1000
G1 X655.4312 Y496.7086 Z-15.1000
G1 X655.6519 Y488.8181 Z-15.1000
G2 X655.7724 Y479.5250 I-165.6282 J-6.7957
G2 X652.7869 Y476.8190 I-2.9855 J0.2940
G1 X582.8956 Y476.8187 Z-15.1000
G2 X585.8359 Y473.8193 I-0.0597 J-2.9994
G2 X585.7783 Y470.1337 I-18.7389 J-1.5501
G2 X582.7884 Y467.6845 I-3.3088 J0.9896
G1 X582.7870 Y467.6794 Z-15.1000
G1 X582.7862 Y467.6742 Z-15.1000
G1 X582.7859 Y467.6690 Z-15.1000
G1 X582.8359 Y467.6190 Z-15.1000
G1 X652.7808 Y467.6190 Z-15.1000
G2 X655.7808 Y464.6190 I0.0000 J-3.0000
G1 X655.7803 Y463.5620 Z-15.1000
G1 X655.6287 Y455.5924 Z-15.1000
G1 X655.3818 Y447.7226 Z-15.1000
G1 X655.0412 Y439.9513 Z-15.1000
G1 X654.6087 Y432.2769 Z-15.1000
G1 X654.0867 Y424.6974 Z-15.1000
G1 X653.4778 Y417.2105 Z-15.1000
G1 X652.7844 Y409.8140 Z-15.1000
G1 X652.0096 Y402.5052 Z-15.1000
G1 X651.1558 Y395.2819 Z-15.1000
G1 X650.2261 Y388.1416 Z-15.1000
G1 X649.2230 Y381.0821 Z-15.1000
G1 X648.1491 Y374.1012 Z-15.1000
G1 X647.0068 Y367.1968 Z-15.1000
G1 X645.7985 Y360.3671 Z-15.1000
G1 X644.5262 Y353.6106 Z-15.1000
G1 X643.1916 Y346.9259 Z-15.1000
G1 X641.7965 Y340.3121 Z-15.1000
G1 X640.3420 Y333.7682 Z-15.1000
G1 X638.8294 Y327.2938 Z-15.1000
G1 X637.2596 Y320.8886 Z-15.1000
G1 X635.6330 Y314.5525 Z-15.1000
G1 X633.9502 Y308.2860 Z-15.1000
G1 X632.2112 Y302.0894 Z-15.1000
G1 X630.4159 Y295.9635 Z-15.1000
G1 X629.1718 Y291.8959 Z-15.1000
G1 X629.1718 Y291.8959 Z-11.1000
G1 X628.5642 Y289.9093 Z-11.1000
G1 X626.6557 Y283.9279 Z-11.1000
G1 X626.1133 Y282.2984 Z-11.1000
G1 X626.1133 Y282.2984 Z-15.1000
G1 X624.6897 Y278.0205 Z-15.1000
G1 X622.6656 Y272.1883 Z-15.1000
G1 X620.5828 Y266.4328 Z-15.1000
G1 X618.4405 Y260.7553 Z-15.1000
G1 X616.2379 Y255.1572 Z-15.1000
G2 X613.3514 Y248.3364 I-60.0371 J21.3867
G2 X610.7433 Y246.8190 I-2.6081 J1.4826
G1 X560.2241 Y246.8190 Z-15.1000
G2 X563.1645 Y243.8196 I-0.0596 J-2.9994
G2 X563.1068 Y240.1337 I-18.7405 J-1.5503
G2 X560.1251 Y237.6998 I-3.1402 J0.8036
G1 X560.1230 Y237.6970 Z-15.1000
G1 X560.1212 Y237.6940 Z-15.1000
G1 X560.1212 Y237.6440 Z-15.1000
G1 X560.1601 Y237.6190 Z-15.1000
G1 X604.1527 Y237.6190 Z-15.1000
G2 X606.9450 Y233.5222 I0.0000 J-3.0000
G1 X603.4082 Y224.8304 Z-15.1000
G1 X600.4859 Y217.2506 Z-15.1000
G1 X597.7486 Y209.7155 Z-15.1000
G1 X595.1854 Y202.2253 Z-15.1000
G1 X592.7860 Y194.7812 Z-15.1000
G1 X590.5407 Y187.3857 Z-15.1000
G1 X588.4416 Y180.0423 Z-15.1000
G1 X586.4829 Y172.7562 Z-15.1000
G1 X584.6606 Y165.5331 Z-15.1000
G1 X582.9734 Y158.3803 Z-15.1000
G1 X581.4218 Y151.3056 Z-15.1000
G1 X580.0083 Y144.3172 Z-15.1000
G1 X578.7366 Y137.4234 Z-15.1000
G1 X577.6113 Y130.6320 Z-15.1000
G1 X576.6369 Y123.9493 Z-15.1000
G1 X575.8148 Y117.3633 Z-15.1000
G1 X574.1070 Y102.3793 Z-15.1000
G2 X571.1263 Y99.7190 I-2.9807 J0.3397
G1 X512.8359 Y99.7190 Z-15.1000
G2 X509.8359 Y102.7190 I0.0000 J3.0000
G1 X509.8359 Y221.6525 Z-15.1000
G1 X509.8359 Y221.6525 Z-11.1000
G1 X509.8359 Y231.6525 Z-11.1000
G1 X509.8359 Y231.6525 Z-15.1000
G1 X509.8359 Y464.7190 Z-15.1000
G0 Z20.0000
G0 X509.8359 Y464.7190
G0 Z20.0000
G0 X350.3250 Y574.5907
G1 X350.3250 Y574.5907 Z-1.7500 F2250.
G1 X350.3250 Y581.7933 Z-3.0200
G1 X350.3250 Y689.1931 Z-3.0200 F4500.
G2 X353.3250 Y692.1931 I3.0000 J0.0000
G1 X405.5549 Y692.1928 Z-3.0200
G1 X405.6042 Y692.2435 Z-3.0200
G1 X405.5584 Y692.2929 Z-3.0200
G1 X405.5535 Y692.2928 Z-3.0200
G2 X402.5120 Y695.2925 I-0.0415 J2.9997
G1 X402.5120 Y698.3931 Z-3.0200
G2 X405.5120 Y701.3931 I3.0000 J0.0000
G1 X353.3250 Y701.3931 Z-3.0200
G2 X350.3250 Y704.3931 I0.0000 J3.0000
G1 X350.3250 Y863.2916 Z-3.0200
G2 X355.5252 Y865.3310 I3.0000 J0.0000
G1 X359.9914 Y860.5124 Z-3.0200
G1 X364.3903 Y855.6527 Z-3.0200
G1 X368.7220 Y850.7519 Z-3.0200
G1 X372.9864 Y845.8097 Z-3.0200
G1 X377.1832 Y840.8261 Z-3.0200
G1 X381.3124 Y835.8009 Z-3.0200
G1 X385.3737 Y830.7339 Z-3.0200
G1 X389.3668 Y825.6249 Z-3.0200
G1 X393.2914 Y820.4736 Z-3.0200
G1 X397.1472 Y815.2796 Z-3.0200
G1 X400.9337 Y810.0427 Z-3.0200
G1 X404.6505 Y804.7625 Z-3.0200
G1 X408.2972 Y799.4386 Z-3.0200
G1 X411.8732 Y794.0707 Z-3.0200
G1 X415.3780 Y788.6582 Z-3.0200
G1 X418.8110 Y783.2009 Z-3.0200
G1 X422.1717 Y777.6982 Z-3.0200
G1 X425.4594 Y772.1498 Z-3.0200
G1 X428.6736 Y766.5552 Z-3.0200
G1 X431.8136 Y760.9139 Z-3.0200
G1 X434.8788 Y755.2256 Z-3.0200
G1 X437.8686 Y749.4898 Z-3.0200
G1 X440.7824 Y743.7061 Z-3.0200
G1 X443.6197 Y737.8741 Z-3.0200
G1 X446.3799 Y731.9937 Z-3.0200
G1 X449.0625 Y726.0644 Z-3.0200
G1 X451.6672 Y720.0860 Z-3.0200
G1 X454.1935 Y714.0584 Z-3.0200
G1 X456.6413 Y707.9814 Z-3.0200
G1 X459.0104 Y701.8551 Z-3.0200
G1 X461.3006 Y695.6794 Z-3.0200
G1 X463.5121 Y689.4544 Z-3.0200
G1 X465.6449 Y683.1804 Z-3.0200
G1 X467.6993 Y676.8576 Z-3.0200
G1 X469.6757 Y670.4862 Z-3.0200
G1 X471.5746 Y664.0667 Z-3.0200
G1 X473.3965 Y657.5996 Z-3.0200
G1 X475.1421 Y651.0852 Z-3.0200
G1 X476.8119 Y644.5241 Z-3.0200
G1 X478.4067 Y637.9168 Z-3.0200
G1 X479.9272 Y631.2637 Z-3.0200
G1 X481.3741 Y624.5655 Z-3.0200
G1 X482.7483 Y617.8227 Z-3.0200
G1 X484.0505 Y611.0359 Z-3.0200
G1 X485.2814 Y604.2055 Z-3.0200
G1 X486.4418 Y597.3321 Z-3.0200
G1 X487.5325 Y590.4163 Z-3.0200
G1 X488.5541 Y583.4586 Z-3.0200
G1 X489.5074 Y576.4594 Z-3.0200
G1 X490.3931 Y569.4193 Z-3.0200
G1 X491.2117 Y562.3387 Z-3.0200
G1 X491.9639 Y555.2180 Z-3.0200
G1 X492.6503 Y548.0578 Z-3.0200
G1 X493.2713 Y540.8582 Z-3.0200
G1 X493.8276 Y533.6198 Z-3.0200
G1 X494.3194 Y526.3427 Z-3.0200
G1 X494.7472 Y519.0273 Z-3.0200
G1 X495.1113 Y511.6739 Z-3.0200
G1 X495.4120 Y504.2826 Z-3.0200
G1 X495.6496 Y496.8537 Z-3.0200
G1 X495.8242 Y489.3872 Z-3.0200
G1 X495.9361 Y481.8833 Z-3.0200
G1 X495.9853 Y474.3421 Z-3.0200
G1 X495.9852 Y459.2199 Z-3.0200
G1 X495.9358 Y451.6784 Z-3.0200
G1 X495.8238 Y444.1742 Z-3.0200
G1 X495.6489 Y436.7074 Z-3.0200
G1 X495.4111 Y429.2781 Z-3.0200
G1 X495.1101 Y421.8865 Z-3.0200
G1 X494.7457 Y414.5327 Z-3.0200
G1 X494.3177 Y407.2169 Z-3.0200
G1 X493.8256 Y399.9395 Z-3.0200
G1 X493.2690 Y392.7006 Z-3.0200
G1 X492.6477 Y385.5006 Z-3.0200
G1 X491.9610 Y378.3399 Z-3.0200
G1 X491.2084 Y371.2187 Z-3.0200
G1 X490.3894 Y364.1376 Z-3.0200
G1 X489.5034 Y357.0970 Z-3.0200
G1 X488.5497 Y350.0973 Z-3.0200
G1 X487.5277 Y343.1390 Z-3.0200
G1 X486.4366 Y336.2226 Z-3.0200
G1 X485.2757 Y329.3487 Z-3.0200
G1 X484.0443 Y322.5177 Z-3.0200
G1 X482.7417 Y315.7303 Z-3.0200
G1 X481.3669 Y308.9869 Z-3.0200
G1 X479.9194 Y302.2881 Z-3.0200
G1 X478.3983 Y295.6346 Z-3.0200
G1 X476.8029 Y289.0267 Z-3.0200
G1 X475.1325 Y282.4651 Z-3.0200
G1 X473.3863 Y275.9502 Z-3.0200
G1 X471.5638 Y269.4826 Z-3.0200
G1 X469.6643 Y263.0627 Z-3.0200
G1 X467.6872 Y256.6910 Z-3.0200
G1 X465.6321 Y250.3679 Z-3.0200
G1 X463.4986 Y244.0936 Z-3.0200
G1 X461.2865 Y237.8686 Z-3.0200
G1 X458.9956 Y231.6928 Z-3.0200
G1 X456.6260 Y225.5665 Z-3.0200
G1 X454.1776 Y219.4897 Z-3.0200
G1 X451.6507 Y213.4622 Z-3.0200
G1 X449.0454 Y207.4841 Z-3.0200
G1 X446.3623 Y201.5551 Z-3.0200
G1 X443.6016 Y195.6749 Z-3.0200
G1 X440.7639 Y189.8434 Z-3.0200
G1 X437.8497 Y184.0601 Z-3.0200
G1 X434.8595 Y178.3248 Z-3.0200
G1 X431.7939 Y172.6370 Z-3.0200
G1 X428.6535 Y166.9962 Z-3.0200
G1 X425.4390 Y161.4021 Z-3.0200
G1 X422.1510 Y155.8542 Z-3.0200
G1 X418.7901 Y150.3521 Z-3.0200
G1 X415.3568 Y144.8954 Z-3.0200
G1 X411.8517 Y139.4835 Z-3.0200
G1 X408.2755 Y134.1161 Z-3.0200
G1 X404.6286 Y128.7928 Z-3.0200
G1 X400.9116 Y123.5132 Z-3.0200
G1 X397.1249 Y118.2768 Z-3.0200
G1 X393.2690 Y113.0834 Z-3.0200
G1 X389.3442 Y107.9326 Z-3.0200
G1 X385.3509 Y102.8240 Z-3.0200
G1 X381.2894 Y97.7575 Z-3.0200
G1 X377.1601 Y92.7328 Z-3.0200
G1 X372.9630 Y87.7497 Z-3.0200
G1 X368.6985 Y82.8080 Z-3.0200
G1 X364.3667 Y77.9074 Z-3.0200
G1 X359.9677 Y73.0478 Z-3.0200
G1 X355.5254 Y68.2542 Z-3.0200
G2 X350.3250 Y70.2934 I-2.2004 J2.0392
G1 X350.3250 Y229.1937 Z-3.0200
G2 X353.3250 Y232.1937 I3.0000 J0.0000
G1 X405.5120 Y232.1937 Z-3.0200
G1 X405.5553 Y232.2187 Z-3.0200
G1 X405.5553 Y232.2687 Z-3.0200
G1 X405.5164 Y232.2937 Z-3.0200
G1 X405.5120 Y232.2937 Z-3.0200
G2 X402.5120 Y235.2937 I0.0000 J3.0000
G1 X402.5120 Y238.3940 Z-3.0200
G2 X405.4698 Y241.3937 I3.0000 J0.0000
G1 X353.3250 Y241.3937 Z-3.0200
G2 X350.3250 Y244.3937 I0.0000 J3.0000
G1 X350.3250 Y459.1934 Z-3.0200
G2 X353.3250 Y462.1934 I3.0000 J0.0000
G1 X422.9720 Y462.1934 Z-3.0200
G1 X423.0153 Y462.2184 Z-3.0200
G1 X423.0153 Y462.2684 Z-3.0200
G1 X422.9764 Y462.2934 Z-3.0200
G1 X422.9720 Y462.2934 Z-3.0200
G2 X419.9720 Y465.2934 I0.0000 J3.0000
G1 X419.9720 Y468.3937 Z-3.0200
G2 X422.9298 Y471.3934 I3.0000 J0.0000
G1 X353.3250 Y471.3934 Z-3.0200
G2 X350.3250 Y474.3934 I0.0000 J3.0000
G1 X350.3250 Y581.7933 Z-3.0200
G1 X350.3250 Y581.7933 Z-6.0400
G1 X350.3250 Y689.1931 Z-6.0400
G2 X353.3250 Y692.1931 I3.0000 J0.0000
G1 X405.5549 Y692.1928 Z-6.0400
G1 X405.6042 Y692.2435 Z-6.0400
G1 X405.5584 Y692.2929 Z-6.0400
G1 X405.5535 Y692.2928 Z-6.0400
G2 X402.5120 Y695.2925 I-0.0415 J2.9997
G1 X402.5120 Y698.3931 Z-6.0400
G2 X405.5120 Y701.3931 I3.0000 J0.0000
G1 X353.3250 Y701.3931 Z-6.0400
G2 X350.3250 Y704.3931 I0.0000 J3.0000
G1 X350.3250 Y863.2916 Z-6.0400
G2 X355.5252 Y865.3310 I3.0000 J0.0000
G1 X359.9914 Y860.5124 Z-6.0400
G1 X364.3903 Y855.6527 Z-6.0400
G1 X368.7220 Y850.7519 Z-6.0400
G1 X372.9864 Y845.8097 Z-6.0400
G1 X377.1832 Y840.8261 Z-6.0400
G1 X381.3124 Y835.8009 Z-6.0400
G1 X385.3737 Y830.7339 Z-6.0400
G1 X389.3668 Y825.6249 Z-6.0400
G1 X393.2914 Y820.4736 Z-6.0400
G1 X397.1472 Y815.2796 Z-6.0400
G1 X400.9337 Y810.0427 Z-6.0400
G1 X404.6505 Y804.7625 Z-6.0400
G1 X408.2972 Y799.4386 Z-6.0400
G1 X411.8732 Y794.0707 Z-6.0400
G1 X415.3780 Y788.6582 Z-6.0400
G1 X418.8110 Y783.2009 Z-6.0400
G1 X422.1717 Y777.6982 Z-6.0400
G1 X425.4594 Y772.1498 Z-6.0400
G1 X428.6736 Y766.5552 Z-6.0400
G1 X431.8136 Y760.9139 Z-6.0400
G1 X434.8788 Y755.2256 Z-6.0400
G1 X437.8686 Y749.4898 Z-6.0400
G1 X440.7824 Y743.7061 Z-6.0400
G1 X443.6197 Y737.8741 Z-6.0400
G1 X446.3799 Y731.9937 Z-6.0400
G1 X449.0625 Y726.0644 Z-6.0400
G1 X451.6672 Y720.0860 Z-6.0400
G1 X454.1935 Y714.0584 Z-6.0400
G1 X456.6413 Y707.9814 Z-6.0400
G1 X459.0104 Y701.8551 Z-6.0400
G1 X461.3006 Y695.6794 Z-6.0400
G1 X463.5121 Y689.4544 Z-6.0400
G1 X465.6449 Y683.1804 Z-6.0400
G1 X467.6993 Y676.8576 Z-6.0400
G1 X469.6757 Y670.4862 Z-6.0400
G1 X471.5746 Y664.0667 Z-6.0400
G1 X473.3965 Y657.5996 Z-6.0400
G1 X475.1421 Y651.0852 Z-6.0400
G1 X476.8119 Y644.5241 Z-6.0400
G1 X478.4067 Y637.9168 Z-6.0400
G1 X479.9272 Y631.2637 Z-6.0400
G1 X481.3741 Y624.5655 Z-6.0400
G1 X482.7483 Y617.8227 Z-6.0400
G1 X484.0505 Y611.0359 Z-6.0400
G1 X485.2814 Y604.2055 Z-6.0400
G1 X486.4418 Y597.3321 Z-6.0400
G1 X487.5325 Y590.4163 Z-6.0400
G1 X488.5541 Y583.4586 Z-6.0400
G1 X489.5074 Y576.4594 Z-6.0400
G1 X490.3931 Y569.4193 Z-6.0400
G1 X491.2117 Y562.3387 Z-6.0400
G1 X491.9639 Y555.2180 Z-6.0400
G1 X492.6503 Y548.0578 Z-6.0400
G1 X493.2713 Y540.8582 Z-6.0400
G1 X493.8276 Y533.6198 Z-6.0400
G1 X494.3194 Y526.3427 Z-6.0400
G1 X494.7472 Y519.0273 Z-6.0400
G1 X495.1113 Y511.6739 Z-6.0400
G1 X495.4120 Y504.2826 Z-6.0400
G1 X495.6496 Y496.8537 Z-6.0400
G1 X495.8242 Y489.3872 Z-6.0400
G1 X495.9361 Y481.8833 Z-6.0400
G1 X495.9853 Y474.3421 Z-6.0400
G1 X495.9852 Y459.2199 Z-6.0400
G1 X495.9358 Y451.6784 Z-6.0400
G1 X495.8238 Y444.1742 Z-6.0400
G1 X495.6489 Y436.7074 Z-6.0400
G1 X495.4111 Y429.2781 Z-6.0400
G1 X495.1101 Y421.8865 Z-6.0400
G1 X494.7457 Y414.5327 Z-6.0400
G1 X494.3177 Y407.2169 Z-6.0400
G1 X493.8256 Y399.9395 Z-6.0400
G1 X493.2690 Y392.7006 Z-6.0400
G1 X492.6477 Y385.5006 Z-6.0400
G1 X491.9610 Y378.3399 Z-6.0400
G1 X491.2084 Y371.2187 Z-6.0400
G1 X490.3894 Y364.1376 Z-6.0400
G1 X489.5034 Y357.0970 Z-6.0400
G1 X488.5497 Y350.0973 Z-6.0400
G1 X487.5277 Y343.1390 Z-6.0400
G1 X486.4366 Y336.2226 Z-6.0400
G1 X485.2757 Y329.3487 Z-6.0400
G1 X484.0443 Y322.5177 Z-6.0400
G1 X482.7417 Y315.7303 Z-6.0400
G1 X481.3669 Y308.9869 Z-6.0400
G1 X479.9194 Y302.2881 Z-6.0400
G1 X478.3983 Y295.6346 Z-6.0400
G1 X476.8029 Y289.0267 Z-6.0400
G1 X475.1325 Y282.4651 Z-6.0400
G1 X473.3863 Y275.9502 Z-6.0400
G1 X471.5638 Y269.4826 Z-6.0400
G1 X469.6643 Y263.0627 Z-6.0400
G1 X467.6872 Y256.6910 Z-6.0400
G1 X465.6321 Y250.3679 Z-6.0400
G1 X463.4986 Y244.0936 Z-6.0400
G1 X461.2865 Y237.8686 Z-6.0400
G1 X458.9956 Y231.6928 Z-6.0400
G1 X456.6260 Y225.5665 Z-6.0400
G1 X454.1776 Y219.4897 Z-6.0400
G1 X451.6507 Y213.4622 Z-6.0400
G1 X449.0454 Y207.4841 Z-6.0400
G1 X446.3623 Y201.5551 Z-6.0400
G1 X443.6016 Y195.6749 Z-6.0400
G1 X440.7639 Y189.8434 Z-6.0400
G1 X437.8497 Y184.0601 Z-6.0400
G1 X434.8595 Y178.3248 Z-6.0400
G1 X431.7939 Y172.6370 Z-6.0400
G1 X428.6535 Y166.9962 Z-6.0400
G1 X425.4390 Y161.4021 Z-6.0400
G1 X422.1510 Y155.8542 Z-6.0400
G1 X418.7901 Y150.3521 Z-6.0400
G1 X415.3568 Y144.8954 Z-6.0400
G1 X411.8517 Y139.4835 Z-6.0400
G1 X408.2755 Y134.1161 Z-6.0400
G1 X404.6286 Y128.7928 Z-6.0400
G1 X400.9116 Y123.5132 Z-6.0400
G1 X397.1249 Y118.2768 Z-6.0400
G1 X393.2690 Y113.0834 Z-6.0400
G1 X389.3442 Y107.9326 Z-6.0400
G1 X385.3509 Y102.8240 Z-6.0400
G1 X381.2894 Y97.7575 Z-6.0400
G1 X377.1601 Y92.7328 Z-6.0400
G1 X372.9630 Y87.7497 Z-6.0400
G1 X368.6985 Y82.8080 Z-6.0400
G1 X364.3667 Y77.9074 Z-6.0400
G1 X359.9677 Y73.0478 Z-6.0400
G1 X355.5254 Y68.2542 Z-6.0400
G2 X350.3250 Y70.2934 I-2.2004 J2.0392
G1 X350.3250 Y229.1937 Z-6.0400
G2 X353.3250 Y232.1937 I3.0000 J0.0000
G1 X405.5120 Y232.1937 Z-6.0400
G1 X405.5553 Y232.2187 Z-6.0400
G1 X405.5553 Y232.2687 Z-6.0400
G1 X405.5164 Y232.2937 Z-6.0400
G1 X405.5120 Y232.2937 Z-6.0400
G2 X402.5120 Y235.2937 I0.0000 J3.0000
G1 X402.5120 Y238.3940 Z-6.0400
G2 X405.4698 Y241.3937 I3.0000 J0.0000
G1 X353.3250 Y241.3937 Z-6.0400
G2 X350.3250 Y244.3937 I0.0000 J3.0000
G1 X350.3250 Y459.1934 Z-6.0400
G2 X353.3250 Y462.1934 I3.0000 J0.0000
G1 X422.9720 Y462.1934 Z-6.0400
G1 X423.0153 Y462.2184 Z-6.0400
G1 X423.0153 Y462.2684 Z-6.0400
G1 X422.9764 Y462.2934 Z-6.0400
G1 X422.9720 Y462.2934 Z-6.0400
G2 X419.9720 Y465.2934 I0.0000 J3.0000
G1 X419.9720 Y468.3937 Z-6.0400
G2 X422.9298 Y471.3934 I3.0000 J0.0000
G1 X353.3250 Y471.3934 Z-6.0400
G2 X350.3250 Y474.3934 I0.0000 J3.0000
G1 X350.3250 Y581.7933 Z-6.0400
G1 X350.3250 Y581.7933 Z-9.0600
G1 X350.3250 Y689.1931 Z-9.0600
G2 X353.3250 Y692.1931 I3.0000 J0.0000
G1 X405.5549 Y692.1928 Z-9.0600
G1 X405.6042 Y692.2435 Z-9.0600
G1 X405.5584 Y692.2929 Z-9.0600
G1 X405.5535 Y692.2928 Z-9.0600
G2 X402.5120 Y695.2925 I-0.0415 J2.9997
G1 X402.5120 Y698.3931 Z-9.0600
G2 X405.5120 Y701.3931 I3.0000 J0.0000
G1 X353.3250 Y701.3931 Z-9.0600
G2 X350.3250 Y704.3931 I0.0000 J3.0000
G1 X350.3250 Y863.2916 Z-9.0600
G2 X355.5252 Y865.3310 I3.0000 J0.0000
G1 X359.9914 Y860.5124 Z-9.0600
G1 X364.3903 Y855.6527 Z-9.0600
G1 X368.7220 Y850.7519 Z-9.0600
G1 X372.9864 Y845.8097 Z-9.0600
G1 X377.1832 Y840.8261 Z-9.0600
G1 X381.3124 Y835.8009 Z-9.0600
G1 X385.3737 Y830.7339 Z-9.0600
G1 X389.3668 Y825.6249 Z-9.0600
G1 X393.2914 Y820.4736 Z-9.0600
G1 X397.1472 Y815.2796 Z-9.0600
G1 X400.9337 Y810.0427 Z-9.0600
G1 X404.6505 Y804.7625 Z-9.0600
G1 X408.2972 Y799.4386 Z-9.0600
G1 X411.8732 Y794.0707 Z-9.0600
G1 X415.3780 Y788.6582 Z-9.0600
G1 X418.8110 Y783.2009 Z-9.0600
G1 X422.1717 Y777.6982 Z-9.0600
G1 X425.4594 Y772.1498 Z-9.0600
G1 X428.6736 Y766.5552 Z-9.0600
G1 X431.8136 Y760.9139 Z-9.0600
G1 X434.8788 Y755.2256 Z-9.0600
G1 X437.8686 Y749.4898 Z-9.0600
G1 X440.7824 Y743.7061 Z-9.0600
G1 X443.6197 Y737.8741 Z-9.0600
G1 X446.3799 Y731.9937 Z-9.0600
G1 X449.0625 Y726.0644 Z-9.0600
G1 X451.6672 Y720.0860 Z-9.0600
G1 X454.1935 Y714.0584 Z-9.0600
G1 X456.6413 Y707.9814 Z-9.0600
G1 X459.0104 Y701.8551 Z-9.0600
G1 X461.3006 Y695.6794 Z-9.0600
G1 X463.5121 Y689.4544 Z-9.0600
G1 X465.6449 Y683.1804 Z-9.0600
G1 X467.6993 Y676.8576 Z-9.0600
G1 X469.6757 Y670.4862 Z-9.0600
G1 X471.5746 Y664.0667 Z-9.0600
G1 X473.3965 Y657.5996 Z-9.0600
G1 X475.1421 Y651.0852 Z-9.0600
G1 X476.8119 Y644.5241 Z-9.0600
G1 X478.4067 Y637.9168 Z-9.0600
G1 X479.9272 Y631.2637 Z-9.0600
G1 X481.3741 Y624.5655 Z-9.0600
G1 X482.7483 Y617.8227 Z-9.0600
G1 X484.0505 Y611.0359 Z-9.0600
G1 X485.2814 Y604.2055 Z-9.0600
G1 X486.4418 Y597.3321 Z-9.0600
G1 X487.5325 Y590.4163 Z-9.0600
G1 X488.5541 Y583.4586 Z-9.0600
G1 X489.5074 Y576.4594 Z-9.0600
G1 X490.3931 Y569.4193 Z-9.0600
G1 X491.2117 Y562.3387 Z-9.0600
G1 X491.9639 Y555.2180 Z-9.0600
G1 X492.6503 Y548.0578 Z-9.0600
G1 X493.2713 Y540.8582 Z-9.0600
G1 X493.8276 Y533.6198 Z-9.0600
G1 X494.3194 Y526.3427 Z-9.0600
G1 X494.7472 Y519.0273 Z-9.0600
G1 X495.1113 Y511.6739 Z-9.0600
G1 X495.4120 Y504.2826 Z-9.0600
G1 X495.6496 Y496.8537 Z-9.0600
G1 X495.8242 Y489.3872 Z-9.0600
G1 X495.9361 Y481.8833 Z-9.0600
G1 X495.9853 Y474.3421 Z-9.0600
G1 X495.9852 Y459.2199 Z-9.0600
G1 X495.9358 Y451.6784 Z-9.0600
G1 X495.8238 Y444.1742 Z-9.0600
G1 X495.6489 Y436.7074 Z-9.0600
G1 X495.4111 Y429.2781 Z-9.0600
G1 X495.1101 Y421.8865 Z-9.0600
G1 X494.7457 Y414.5327 Z-9.0600
G1 X494.3177 Y407.2169 Z-9.0600
G1 X493.8256 Y399.9395 Z-9.0600
G1 X493.2690 Y392.7006 Z-9.0600
G1 X492.6477 Y385.5006 Z-9.0600
G1 X491.9610 Y378.3399 Z-9.0600
G1 X491.2084 Y371.2187 Z-9.0600
G1 X490.3894 Y364.1376 Z-9.0600
G1 X489.5034 Y357.0970 Z-9.0600
G1 X488.5497 Y350.0973 Z-9.0600
G1 X487.5277 Y343.1390 Z-9.0600
G1 X486.4366 Y336.2226 Z-9.0600
G1 X485.2757 Y329.3487 Z-9.0600
G1 X484.0443 Y322.5177 Z-9.0600
G1 X482.7417 Y315.7303 Z-9.0600
G1 X481.3669 Y308.9869 Z-9.0600
G1 X479.9194 Y302.2881 Z-9.0600
G1 X478.3983 Y295.6346 Z-9.0600
G1 X476.8029 Y289.0267 Z-9.0600
G1 X475.1325 Y282.4651 Z-9.0600
G1 X473.3863 Y275.9502 Z-9.0600
G1 X471.5638 Y269.4826 Z-9.0600
G1 X469.6643 Y263.0627 Z-9.0600
G1 X467.6872 Y256.6910 Z-9.0600
G1 X465.6321 Y250.3679 Z-9.0600
G1 X463.4986 Y244.0936 Z-9.0600
G1 X461.2865 Y237.8686 Z-9.0600
G1 X458.9956 Y231.6928 Z-9.0600
G1 X456.6260 Y225.5665 Z-9.0600
G1 X454.1776 Y219.4897 Z-9.0600
G1 X451.6507 Y213.4622 Z-9.0600
G1 X449.0454 Y207.4841 Z-9.0600
G1 X446.3623 Y201.5551 Z-9.0600
G1 X443.6016 Y195.6749 Z-9.0600
G1 X440.7639 Y189.8434 Z-9.0600
G1 X437.8497 Y184.0601 Z-9.0600
G1 X434.8595 Y178.3248 Z-9.0600
G1 X431.7939 Y172.6370 Z-9.0600
G1 X428.6535 Y166.9962 Z-9.0600
G1 X425.4390 Y161.4021 Z-9.0600
G1 X422.1510 Y155.8542 Z-9.0600
G1 X418.7901 Y150.3521 Z-9.0600
G1 X415.3568 Y144.8954 Z-9.0600
G1 X411.8517 Y139.4835 Z-9.0600
G1 X408.2755 Y134.1161 Z-9.0600
G1 X404.6286 Y128.7928 Z-9.0600
G1 X400.9116 Y123.5132 Z-9.0600
G1 X397.1249 Y118.2768 Z-9.0600
G1 X393.2690 Y113.0834 Z-9.0600
G1 X389.3442 Y107.9326 Z-9.0600
G1 X385.3509 Y102.8240 Z-9.0600
G1 X381.2894 Y97.7575 Z-9.0600
G1 X377.1601 Y92.7328 Z-9.0600
G1 X372.9630 Y87.7497 Z-9.0600
G1 X368.6985 Y82.8080 Z-9.0600
G1 X364.3667 Y77.9074 Z-9.0600
G1 X359.9677 Y73.0478 Z-9.0600
G1 X355.5254 Y68.2542 Z-9.0600
G2 X350.3250 Y70.2934 I-2.2004 J2.0392
G1 X350.3250 Y229.1937 Z-9.0600
G2 X353.3250 Y232.1937 I3.0000 J0.0000
G1 X405.5120 Y232.1937 Z-9.0600
G1 X405.5553 Y232.2187 Z-9.0600
G1 X405.5553 Y232.2687 Z-9.0600
G1 X405.5164 Y232.2937 Z-9.0600
G1 X405.5120 Y232.2937 Z-9.0600
G2 X402.5120 Y235.2937 I0.0000 J3.0000
G1 X402.5120 Y238.3940 Z-9.0600
G2 X405.4698 Y241.3937 I3.0000 J0.0000
G1 X353.3250 Y241.3937 Z-9.0600
G2 X350.3250 Y244.3937 I0.0000 J3.0000
G1 X350.3250 Y459.1934 Z-9.0600
G2 X353.3250 Y462.1934 I3.0000 J0.0000
G1 X422.9720 Y462.1934 Z-9.0600
G1 X423.0153 Y462.2184 Z-9.0600
G1 X423.0153 Y462.2684 Z-9.0600
G1 X422.9764 Y462.2934 Z-9.0600
G1 X422.9720 Y462.2934 Z-9.0600
G2 X419.9720 Y465.2934 I0.0000 J3.0000
G1 X419.9720 Y468.3937 Z-9.0600
G2 X422.9298 Y471.3934 I3.0000 J0.0000
G1 X353.3250 Y471.3934 Z-9.0600
G2 X350.3250 Y474.3934 I0.0000 J3.0000
G1 X350.3250 Y581.7933 Z-9.0600
G1 X350.3250 Y581.7933 Z-12.0800
G1 X350.3250 Y689.1931 Z-12.0800
G2 X353.3250 Y692.1931 I3.0000 J0.0000
G1 X405.5549 Y692.1928 Z-12.0800
G1 X405.6042 Y692.2435 Z-12.0800
G1 X405.6039 Y692.2484 Z-12.0800
G1 X405.6031 Y692.2533 Z-12.0800
G1 X405.6018 Y692.2580 Z-12.0800
G1 X405.6001 Y692.2626 Z-12.0800
G1 X405.5979 Y692.2670 Z-12.0800
G1 X405.5954 Y692.2712 Z-12.0800
G1 X405.5924 Y692.2751 Z-12.0800
G1 X405.5890 Y692.2787 Z-12.0800
G1 X405.5854 Y692.2820 Z-12.0800
G1 X405.5814 Y692.2849 Z-12.0800
G1 X405.5772 Y692.2874 Z-12.0800
G1 X405.5727 Y692.2894 Z-12.0800
G1 X405.5681 Y692.2910 Z-12.0800
G1 X405.5633 Y692.2922 Z-12.0800
G1 X405.5584 Y692.2929 Z-12.0800
G1 X405.5535 Y692.2928 Z-12.0800
G1 X405.2567 Y692.3034 Z-12.0800
G2 X402.5120 Y695.2925 I0.2553 J2.9891
G2 X402.5697 Y698.9784 I18.7404 J1.5503
G2 X405.5120 Y701.3931 I2.9423 J-0.5853
G1 X353.3250 Y701.3931 Z-12.0800
G2 X350.3250 Y704.3931 I0.0000 J3.0000
G1 X350.3250 Y718.5872 Z-12.0800
G1 X350.3250 Y718.5872 Z-11.1000
G1 X350.3250 Y728.5872 Z-11.1000
G1 X350.3250 Y728.5872 Z-12.0800
G1 X350.3250 Y863.2916 Z-12.0800
G2 X355.5252 Y865.3310 I3.0000 J0.0000
G1 X359.9914 Y860.5124 Z-12.0800
G1 X364.3903 Y855.6527 Z-12.0800
G1 X368.7220 Y850.7519 Z-12.0800
G1 X372.9864 Y845.8097 Z-12.0800
G1 X377.1832 Y840.8261 Z-12.0800
G1 X381.3124 Y835.8009 Z-12.0800
G1 X385.3737 Y830.7339 Z-12.0800
G1 X389.3668 Y825.6249 Z-12.0800
G1 X393.2914 Y820.4736 Z-12.0800
G1 X397.1472 Y815.2796 Z-12.0800
G1 X400.9337 Y810.0427 Z-12.0800
G1 X404.6505 Y804.7625 Z-12.0800
G1 X408.2972 Y799.4386 Z-12.0800
G1 X411.8732 Y794.0707 Z-12.0800
G1 X415.3780 Y788.6582 Z-12.0800
G1 X418.8110 Y783.2009 Z-12.0800
G1 X422.1717 Y777.6982 Z-12.0800
G1 X425.4594 Y772.1498 Z-12.0800
G1 X428.6736 Y766.5552 Z-12.0800
G1 X431.8136 Y760.9139 Z-12.0800
G1 X434.8788 Y755.2256 Z-12.0800
G1 X437.8686 Y749.4898 Z-12.0800
G1 X440.7824 Y743.7061 Z-12.0800
G1 X443.6197 Y737.8741 Z-12.0800
G1 X446.3799 Y731.9937 Z-12.0800
G1 X449.0625 Y726.0644 Z-12.0800
G1 X451.6672 Y720.0860 Z-12.0800
G1 X454.1935 Y714.0584 Z-12.0800
G1 X456.6413 Y707.9814 Z-12.0800
G1 X459.0104 Y701.8551 Z-12.0800
G1 X461.3006 Y695.6794 Z-12.0800
G1 X463.5121 Y689.4544 Z-12.0800
G1 X465.6449 Y683.1804 Z-12.0800
G1 X467.6993 Y676.8576 Z-12.0800
G1 X469.6757 Y670.4862 Z-12.0800
G1 X471.5746 Y664.0667 Z-12.0800
G1 X473.3965 Y657.5996 Z-12.0800
G1 X475.1421 Y651.0852 Z-12.0800
G1 X476.8119 Y644.5241 Z-12.0800
G1 X478.4067 Y637.9168 Z-12.0800
G1 X479.9272 Y631.2637 Z-12.0800
G1 X481.3741 Y624.5655 Z-12.0800
G1 X482.7483 Y617.8227 Z-12.0800
G1 X484.0505 Y611.0359 Z-12.0800
G1 X485.2814 Y604.2055 Z-12.0800
G1 X486.4418 Y597.3321 Z-12.0800
G1 X487.5325 Y590.4163 Z-12.0800
G1 X488.5541 Y583.4586 Z-12.0800
G1 X489.5074 Y576.4594 Z-12.0800
G1 X490.3931 Y569.4193 Z-12.0800
G1 X491.2117 Y562.3387 Z-12.0800
G1 X491.9639 Y555.2180 Z-12.0800
G1 X492.6503 Y548.0578 Z-12.0800
G1 X493.2713 Y540.8582 Z-12.0800
G1 X493.5576 Y537.1322 Z-12.0800
G1 X493.5576 Y537.1322 Z-11.1000
G1 X493.8276 Y533.6198 Z-11.1000
G1 X494.2662 Y527.1297 Z-11.1000
G1 X494.2662 Y527.1297 Z-12.0800
G1 X494.3194 Y526.3427 Z-12.0800
G1 X494.7472 Y519.0273 Z-12.0800
G1 X495.1113 Y511.6739 Z-12.0800
G1 X495.4120 Y504.2826 Z-12.0800
G1 X495.6496 Y496.8537 Z-12.0800
G1 X495.8242 Y489.3872 Z-12.0800
G1 X495.9361 Y481.8833 Z-12.0800
G1 X495.9853 Y474.3421 Z-12.0800
G1 X495.9852 Y459.2199 Z-12.0800
G1 X495.9358 Y451.6784 Z-12.0800
G1 X495.8238 Y444.1742 Z-12.0800
G1 X495.6489 Y436.7074 Z-12.0800
G1 X495.4111 Y429.2781 Z-12.0800
G1 X495.1101 Y421.8865 Z-12.0800
G1 X494.7457 Y414.5327 Z-12.0800
G1 X494.3177 Y407.2169 Z-12.0800
G1 X493.8256 Y399.9395 Z-12.0800
G1 X493.2690 Y392.7006 Z-12.0800
G1 X492.6477 Y385.5006 Z-12.0800
G1 X491.9610 Y378.3399 Z-12.0800
G1 X491.2084 Y371.2187 Z-12.0800
G1 X490.3894 Y364.1376 Z-12.0800
G1 X489.5034 Y357.0970 Z-12.0800
G1 X488.5497 Y350.0973 Z-12.0800
G1 X487.5277 Y343.1390 Z-12.0800
G1 X486.4366 Y336.2226 Z-12.0800
G1 X485.2757 Y329.3487 Z-12.0800
G1 X484.0443 Y322.5177 Z-12.0800
G1 X482.7417 Y315.7303 Z-12.0800
G1 X481.3669 Y308.9869 Z-12.0800
G1 X479.9194 Y302.2881 Z-12.0800
G1 X478.3983 Y295.6346 Z-12.0800
G1 X476.8029 Y289.0267 Z-12.0800
G1 X475.1325 Y282.4651 Z-12.0800
G1 X473.3863 Y275.9502 Z-12.0800
G1 X471.5638 Y269.4826 Z-12.0800
G1 X469.6643 Y263.0627 Z-12.0800
G1 X467.6872 Y256.6910 Z-12.0800
G1 X465.6321 Y250.3679 Z-12.0800
G1 X463.4986 Y244.0936 Z-12.0800
G1 X461.2865 Y237.8686 Z-12.0800
G1 X458.9956 Y231.6928 Z-12.0800
G1 X456.6260 Y225.5665 Z-12.0800
G1 X454.1776 Y219.4897 Z-12.0800
G1 X451.6507 Y213.4622 Z-12.0800
G1 X449.0454 Y207.4841 Z-12.0800
G1 X446.3623 Y201.5551 Z-12.0800
G1 X443.6016 Y195.6749 Z-12.0800
G1 X440.7639 Y189.8434 Z-12.0800
G1 X437.8497 Y184.0601 Z-12.0800
G1 X434.8595 Y178.3248 Z-12.0800
G1 X431.7939 Y172.6370 Z-12.0800
G1 X428.6535 Y166.9962 Z-12.0800
G1 X425.4390 Y161.4021 Z-12.0800
G1 X422.1510 Y155.8542 Z-12.0800
G1 X418.7901 Y150.3521 Z-12.0800
G1 X415.3568 Y144.8954 Z-12.0800
G1 X411.8517 Y139.4835 Z-12.0800
G1 X408.2755 Y134.1161 Z-12.0800
G1 X404.6286 Y128.7928 Z-12.0800
G1 X400.9116 Y123.5132 Z-12.0800
G1 X397.1249 Y118.2768 Z-12.0800
G1 X393.2690 Y113.0834 Z-12.0800
G1 X389.3442 Y107.9326 Z-12.0800
G1 X385.3509 Y102.8240 Z-12.0800
G1 X381.2894 Y97.7575 Z-12.0800
G1 X377.1601 Y92.7328 Z-12.0800
G1 X372.9630 Y87.7497 Z-12.0800
G1 X368.6985 Y82.8080 Z-12.0800
G1 X364.3667 Y77.9074 Z-12.0800
G1 X359.9677 Y73.0478 Z-12.0800
G1 X355.5254 Y68.2542 Z-12.0800
G2 X350.3250 Y70.2934 I-2.2004 J2.0392
G1 X350.3250 Y74.6563 Z-12.0800
G1 X350.3250 Y74.6563 Z-11.1000
G1 X350.3250 Y84.6563 Z-11.1000
G1 X350.3250 Y84.6563 Z-12.0800
G1 X350.3250 Y229.1937 Z-12.0800
G2 X353.3250 Y232.1937 I3.0000 J0.0000
G1 X405.5120 Y232.1937 Z-12.0800
G1 X405.5553 Y232.2187 Z-12.0800
G1 X405.5553 Y232.2687 Z-12.0800
G1 X405.5536 Y232.2714 Z-12.0800
G1 X405.5518 Y232.2740 Z-12.0800
G1 X405.5497 Y232.2765 Z-12.0800
G1 X405.5475 Y232.2788 Z-12.0800
G1 X405.5452 Y232.2810 Z-12.0800
G1 X405.5428 Y232.2831 Z-12.0800
G1 X405.5402 Y232.2850 Z-12.0800
G1 X405.5375 Y232.2867 Z-12.0800
G1 X405.5347 Y232.2883 Z-12.0800
G1 X405.5318 Y232.2896 Z-12.0800
G1 X405.5288 Y232.2908 Z-12.0800
G1 X405.5258 Y232.2918 Z-12.0800
G1 X405.5227 Y232.2926 Z-12.0800
G1 X405.5196 Y232.2933 Z-12.0800
G1 X405.5164 Y232.2937 Z-12.0800
G1 X405.5120 Y232.2937 Z-12.0800
G1 X405.2180 Y232.3081 Z-12.0800
G2 X402.5120 Y235.2937 I0.2940 J2.9856
G2 X402.5686 Y238.9741 I18.8821 J1.5501
G2 X405.4698 Y241.3937 I2.9434 J-0.5801
G1 X353.3250 Y241.3937 Z-12.0800
G2 X350.3250 Y244.3937 I0.0000 J3.0000
G1 X350.3250 Y459.1934 Z-12.0800
G2 X353.3250 Y462.1934 I3.0000 J0.0000
G1 X363.9033 Y462.1934 Z-12.0800
G1 X363.9033 Y462.1934 Z-11.1000
G1 X373.9033 Y462.1934 Z-11.1000
G1 X373.9033 Y462.1934 Z-12.0800
G1 X422.9720 Y462.1934 Z-12.0800
G1 X423.0153 Y462.2184 Z-12.0800
G1 X423.0153 Y462.2684 Z-12.0800
G1 X422.9764 Y462.2934 Z-12.0800
G1 X422.9720 Y462.2934 Z-12.0800
G1 X422.6780 Y462.3078 Z-12.0800
G1 X422.3867 Y462.3510 Z-12.0800
G2 X419.9720 Y465.2934 I0.5853 J2.9424
G2 X420.0286 Y468.9738 I18.8821 J1.5502
G2 X422.9298 Y471.3934 I2.9434 J-0.5801
G1 X353.3250 Y471.3934 Z-12.0800
G2 X350.3250 Y474.3934 I0.0000 J3.0000
G1 X350.3250 Y581.7933 Z-12.0800
G1 X350.3250 Y581.7933 Z-15.1000
G1 X350.3250 Y689.1931 Z-15.1000
G2 X353.3250 Y692.1931 I3.0000 J0.0000
G1 X405.5549 Y692.1928 Z-15.1000
G1 X405.6042 Y692.2435 Z-15.1000
G1 X405.6039 Y692.2484 Z-15.1000
G1 X405.6031 Y692.2533 Z-15.1000
G1 X405.6018 Y692.2580 Z-15.1000
G1 X405.6001 Y692.2626 Z-15.1000
G1 X405.5979 Y692.2670 Z-15.1000
G1 X405.5954 Y692.2712 Z-15.1000
G1 X405.5924 Y692.2751 Z-15.1000
G1 X405.5890 Y692.2787 Z-15.1000
G1 X405.5854 Y692.2820 Z-15.1000
G1 X405.5814 Y692.2849 Z-15.1000
G1 X405.5772 Y692.2874 Z-15.1000
G1 X405.5727 Y692.2894 Z-15.1000
G1 X405.5681 Y692.2910 Z-15.1000
G1 X405.5633 Y692.2922 Z-15.1000
G1 X405.5584 Y692.2929 Z-15.1000
G1 X405.5535 Y692.2928 Z-15.1000
G1 X405.2567 Y692.3034 Z-15.1000
G2 X402.5120 Y695.2925 I0.2553 J2.9891
G2 X402.5697 Y698.9784 I18.7404 J1.5503
G2 X405.5120 Y701.3931 I2.9423 J-0.5853
G1 X353.3250 Y701.3931 Z-15.1000
G2 X350.3250 Y704.3931 I0.0000 J3.0000
G1 X350.3250 Y718.5872 Z-15.1000
G1 X350.3250 Y718.5872 Z-11.1000
G1 X350.3250 Y728.5872 Z-11.1000
G1 X350.3250 Y728.5872 Z-15.1000
G1 X350.3250 Y863.2916 Z-15.1000
G2 X355.5252 Y865.3310 I3.0000 J0.0000
G1 X359.9914 Y860.5124 Z-15.1000
G1 X364.3903 Y855.6527 Z-15.1000
G1 X368.7220 Y850.7519 Z-15.1000
G1 X372.9864 Y845.8097 Z-15.1000
G1 X377.1832 Y840.8261 Z-15.1000
G1 X381.3124 Y835.8009 Z-15.1000
G1 X385.3737 Y830.7339 Z-15.1000
G1 X389.3668 Y825.6249 Z-15.1000
G1 X393.2914 Y820.4736 Z-15.1000
G1 X397.1472 Y815.2796 Z-15.1000
G1 X400.9337 Y810.0427 Z-15.1000
G1 X404.6505 Y804.7625 Z-15.1000
G1 X408.2972 Y799.4386 Z-15.1000
G1 X411.8732 Y794.0707 Z-15.1000
G1 X415.3780 Y788.6582 Z-15.1000
G1 X418.8110 Y783.2009 Z-15.1000
G1 X422.1717 Y777.6982 Z-15.1000
G1 X425.4594 Y772.1498 Z-15.1000
G1 X428.6736 Y766.5552 Z-15.1000
G1 X431.8136 Y760.9139 Z-15.1000
G1 X434.8788 Y755.2256 Z-15.1000
G1 X437.8686 Y749.4898 Z-15.1000
G1 X440.7824 Y743.7061 Z-15.1000
G1 X443.6197 Y737.8741 Z-15.1000
G1 X446.3799 Y731.9937 Z-15.1000
G1 X449.0625 Y726.0644 Z-15.1000
G1 X451.6672 Y720.0860 Z-15.1000
G1 X454.1935 Y714.0584 Z-15.1000
G1 X456.6413 Y707.9814 Z-15.1000
G1 X459.0104 Y701.8551 Z-15.1000
G1 X461.3006 Y695.6794 Z-15.1000
G1 X463.5121 Y689.4544 Z-15.1000
G1 X465.6449 Y683.1804 Z-15.1000
G1 X467.6993 Y676.8576 Z-15.1000
G1 X469.6757 Y670.4862 Z-15.1000
G1 X471.5746 Y664.0667 Z-15.1000
G1 X473.3965 Y657.5996 Z-15.1000
G1 X475.1421 Y651.0852 Z-15.1000
G1 X476.8119 Y644.5241 Z-15.1000
G1 X478.4067 Y637.9168 Z-15.1000
G1 X479.9272 Y631.2637 Z-15.1000
G1 X481.3741 Y624.5655 Z-15.1000
G1 X482.7483 Y617.8227 Z-15.1000
G1 X484.0505 Y611.0359 Z-15.1000
G1 X485.2814 Y604.2055 Z-15.1000
G1 X486.4418 Y597.3321 Z-15.1000
G1 X487.5325 Y590.4163 Z-15.1000
G1 X488.5541 Y583.4586 Z-15.1000
G1 X489.5074 Y576.4594 Z-15.1000
G1 X490.3931 Y569.4193 Z-15.1000
G1 X491.2117 Y562.3387 Z-15.1000
G1 X491.9639 Y555.2180 Z-15.1000
G1 X492.6503 Y548.0578 Z-15.1000
G1 X493.2713 Y540.8582 Z-15.1000
G1 X493.5576 Y537.1322 Z-15.1000
G1 X493.5576 Y537.1322 Z-11.1000
G1 X493.8276 Y533.6198 Z-11.1000
G1 X494.2662 Y527.1297 Z-11.1000
G1 X494.2662 Y527.1297 Z-15.1000
G1 X494.3194 Y526.3427 Z-15.1000
G1 X494.7472 Y519.0273 Z-15.1000
G1 X495.1113 Y511.6739 Z-15.1000
G1 X495.4120 Y504.2826 Z-15.1000
G1 X495.6496 Y496.8537 Z-15.1000
G1 X495.8242 Y489.3872 Z-15.1000
G1 X495.9361 Y481.8833 Z-15.1000
G1 X495.9853 Y474.3421 Z-15.1000
G1 X495.9852 Y459.2199 Z-15.1000
G1 X495.9358 Y451.6784 Z-15.1000
G1 X495.8238 Y444.1742 Z-15.1000
G1 X495.6489 Y436.7074 Z-15.1000
G1 X495.4111 Y429.2781 Z-15.1000
G1 X495.1101 Y421.8865 Z-15.1000
G1 X494.7457 Y414.5327 Z-15.1000
G1 X494.3177 Y407.2169 Z-15.1000
G1 X493.8256 Y399.9395 Z-15.1000
G1 X493.2690 Y392.7006 Z-15.1000
G1 X492.6477 Y385.5006 Z-15.1000
G1 X491.9610 Y378.3399 Z-15.1000
G1 X491.2084 Y371.2187 Z-15.1000
G1 X490.3894 Y364.1376 Z-15.1000
G1 X489.5034 Y357.0970 Z-15.1000
G1 X488.5497 Y350.0973 Z-15.1000
G1 X487.5277 Y343.1390 Z-15.1000
G1 X486.4366 Y336.2226 Z-15.1000
G1 X485.2757 Y329.3487 Z-15.1000
G1 X484.0443 Y322.5177 Z-15.1000
G1 X482.7417 Y315.7303 Z-15.1000
G1 X481.3669 Y308.9869 Z-15.1000
G1 X479.9194 Y302.2881 Z-15.1000
G1 X478.3983 Y295.6346 Z-15.1000
G1 X476.8029 Y289.0267 Z-15.1000
G1 X475.1325 Y282.4651 Z-15.1000
G1 X473.3863 Y275.9502 Z-15.1000
G1 X471.5638 Y269.4826 Z-15.1000
G1 X469.6643 Y263.0627 Z-15.1000
G1 X467.6872 Y256.6910 Z-15.1000
G1 X465.6321 Y250.3679 Z-15.1000
G1 X463.4986 Y244.0936 Z-15.1000
G1 X461.2865 Y237.8686 Z-15.1000
G1 X458.9956 Y231.6928 Z-15.1000
G1 X456.6260 Y225.5665 Z-15.1000
G1 X454.1776 Y219.4897 Z-15.1000
G1 X451.6507 Y213.4622 Z-15.1000
G1 X449.0454 Y207.4841 Z-15.1000
G1 X446.3623 Y201.5551 Z-15.1000
G1 X443.6016 Y195.6749 Z-15.1000
G1 X440.7639 Y189.8434 Z-15.1000
G1 X437.8497 Y184.0601 Z-15.1000
G1 X434.8595 Y178.3248 Z-15.1000
G1 X431.7939 Y172.6370 Z-15.1000
G1 X428.6535 Y166.9962 Z-15.1000
G1 X425.4390 Y161.4021 Z-15.1000
G1 X422.1510 Y155.8542 Z-15.1000
G1 X418.7901 Y150.3521 Z-15.1000
G1 X415.3568 Y144.8954 Z-15.1000
G1 X411.8517 Y139.4835 Z-15.1000
G1 X408.2755 Y134.1161 Z-15.1000
G1 X404.6286 Y128.7928 Z-15.1000
G1 X400.9116 Y123.5132 Z-15.1000
G1 X397.1249 Y118.2768 Z-15.1000
G1 X393.2690 Y113.0834 Z-15.1000
G1 X389.3442 Y107.9326 Z-15.1000
G1 X385.3509 Y102.8240 Z-15.1000
G1 X381.2894 Y97.7575 Z-15.1000
G1 X377.1601 Y92.7328 Z-15.1000
G1 X372.9630 Y87.7497 Z-15.1000
G1 X368.6985 Y82.8080 Z-15.1000
G1 X364.3667 Y77.9074 Z-15.1000
G1 X359.9677 Y73.0478 Z-15.1000
G1 X355.5254 Y68.2542 Z-15.1000
G2 X350.3250 Y70.2934 I-2.2004 J2.0392
G1 X350.3250 Y74.6563 Z-15.1000
G1 X350.3250 Y74.6563 Z-11.1000
G1 X350.3250 Y84.6563 Z-11.1000
G1 X350.3250 Y84.6563 Z-15.1000
G1 X350.3250 Y229.1937 Z-15.1000
G2 X353.3250 Y232.1937 I3.0000 J0.0000
G1 X405.5120 Y232.1937 Z-15.1000
G1 X405.5553 Y232.2187 Z-15.1000
G1 X405.5553 Y232.2687 Z-15.1000
G1 X405.5536 Y232.2714 Z-15.1000
G1 X405.5518 Y232.2740 Z-15.1000
G1 X405.5497 Y232.2765 Z-15.1000
G1 X405.5475 Y232.2788 Z-15.1000
G1 X405.5452 Y232.2810 Z-15.1000
G1 X405.5428 Y232.2831 Z-15.1000
G1 X405.5402 Y232.2850 Z-15.1000
G1 X405.5375 Y232.2867 Z-15.1000
G1 X405.5347 Y232.2883 Z-15.1000
G1 X405.5318 Y232.2896 Z-15.1000
G1 X405.5288 Y232.2908 Z-15.1000
G1 X405.5258 Y232.2918 Z-15.1000
G1 X405.5227 Y232.2926 Z-15.1000
G1 X405.5196 Y232.2933 Z-15.1000
G1 X405.5164 Y232.2937 Z-15.1000
G1 X405.5120 Y232.2937 Z-15.1000
G1 X405.2180 Y232.3081 Z-15.1000
G2 X402.5120 Y235.2937 I0.2940 J2.9856
G2 X402.5686 Y238.9741 I18.8821 J1.5501
G2 X405.4698 Y241.3937 I2.9434 J-0.5801
G1 X353.3250 Y241.3937 Z-15.1000
G2 X350.3250 Y244.3937 I0.0000 J3.0000
G1 X350.3250 Y459.1934 Z-15.1000
G2 X353.3250 Y462.1934 I3.0000 J0.0000
G1 X363.9033 Y462.1934 Z-15.1000
G1 X363.9033 Y462.1934 Z-11.1000
G1 X373.9033 Y462.1934 Z-11.1000
G1 X373.9033 Y462.1934 Z-15.1000
G1 X422.9720 Y462.1934 Z-15.1000
G1 X423.0153 Y462.2184 Z-15.1000
G1 X423.0153 Y462.2684 Z-15.1000
G1 X422.9764 Y462.2934 Z-15.1000
G1 X422.9720 Y462.2934 Z-15.1000
G1 X422.6780 Y462.3078 Z-15.1000
G1 X422.3867 Y462.3510 Z-15.1000
G2 X419.9720 Y465.2934 I0.5853 J2.9424
G2 X420.0286 Y468.9738 I18.8821 J1.5502
G2 X422.9298 Y471.3934 I2.9434 J-0.5801
G1 X353.3250 Y471.3934 Z-15.1000
G2 X350.3250 Y474.3934 I0.0000 J3.0000
G1 X350.3250 Y581.7933 Z-15.1000
G0 Z20.0000
G0 X350.3250 Y581.7933
G0 Z20.0000
G0 X231.0000 Y333.8756
G1 X231.0000 Y333.8756 Z-1.7500 F2250.
G1 X231.0000 Y341.0781 Z-3.0200
G1 X231.0000 Y448.4797 Z-3.0200 F4500.
G2 X234.0000 Y451.4797 I3.0000 J0.0000
G1 X281.3461 Y451.4797 Z-3.0200
G1 X281.3785 Y451.5266 Z-3.0200
G1 X281.3334 Y451.5766 Z-3.0200
G1 X281.3285 Y451.5766 Z-3.0200
G2 X278.3285 Y454.5766 I0.0000 J3.0000
G1 X278.3285 Y457.6769 Z-3.0200
G2 X281.2863 Y460.6766 I3.0000 J0.0000
G1 X233.9998 Y460.6797 Z-3.0200
G2 X231.0000 Y463.6797 I0.0002 J3.0000
G1 X231.0000 Y678.4766 Z-3.0200
G2 X234.0000 Y681.4766 I3.0000 J0.0000
G1 X272.7740 Y681.4766 Z-3.0200
G1 X272.8240 Y681.5266 Z-3.0200
G1 X272.7789 Y681.5766 Z-3.0200
G1 X272.7740 Y681.5766 Z-3.0200
G2 X269.7740 Y684.5766 I0.0000 J3.0000
G1 X269.7740 Y687.6769 Z-3.0200
G2 X272.7318 Y690.6766 I3.0000 J0.0000
G1 X234.0000 Y690.6766 Z-3.0200
G2 X231.0000 Y693.6766 I0.0000 J3.0000
G1 X231.0000 Y852.5766 Z-3.0200
G2 X236.3483 Y854.4435 I3.0000 J0.0000
G1 X240.0576 Y849.7770 Z-3.0200
G1 X243.6922 Y845.0516 Z-3.0200
G1 X247.2521 Y840.2671 Z-3.0200
G1 X250.7371 Y835.4234 Z-3.0200
G1 X254.1471 Y830.5204 Z-3.0200
G1 X257.4819 Y825.5577 Z-3.0200
G1 X260.7413 Y820.5352 Z-3.0200
G1 X263.9251 Y815.4524 Z-3.0200
G1 X267.0329 Y810.3090 Z-3.0200
G1 X270.0644 Y805.1047 Z-3.0200
G1 X273.0193 Y799.8392 Z-3.0200
G1 X275.8972 Y794.5120 Z-3.0200
G1 X278.6978 Y789.1229 Z-3.0200
G1 X281.4206 Y783.6714 Z-3.0200
G1 X284.0654 Y778.1573 Z-3.0200
G1 X286.6317 Y772.5803 Z-3.0200
G1 X289.1191 Y766.9402 Z-3.0200
G1 X291.5275 Y761.2368 Z-3.0200
G1 X293.8565 Y755.4699 Z-3.0200
G1 X296.1057 Y749.6397 Z-3.0200
G1 X298.2752 Y743.7460 Z-3.0200
G1 X300.3646 Y737.7892 Z-3.0200
G1 X302.3740 Y731.7694 Z-3.0200
G1 X304.3033 Y725.6870 Z-3.0200
G1 X306.1527 Y719.5427 Z-3.0200
G1 X307.9225 Y713.3372 Z-3.0200
G1 X309.6130 Y707.0714 Z-3.0200
G1 X311.2248 Y700.7464 Z-3.0200
G1 X312.7587 Y694.3636 Z-3.0200
G1 X314.2154 Y687.9245 Z-3.0200
G1 X315.5962 Y681.4308 Z-3.0200
G1 X316.9021 Y674.8847 Z-3.0200
G1 X318.1346 Y668.2883 Z-3.0200
G1 X319.2953 Y661.6441 Z-3.0200
G1 X320.3861 Y654.9548 Z-3.0200
G1 X321.4089 Y648.2233 Z-3.0200
G1 X322.3657 Y641.4525 Z-3.0200
G1 X323.2588 Y634.6456 Z-3.0200
G1 X324.0904 Y627.8060 Z-3.0200
G1 X324.8640 Y620.9248 Z-3.0200
G1 X326.2408 Y607.1137 Z-3.0200
G1 X327.4102 Y593.2269 Z-3.0200
G1 X328.3919 Y579.2934 Z-3.0200
G1 X329.2054 Y565.3417 Z-3.0200
G1 X329.8698 Y551.4001 Z-3.0200
G1 X330.4031 Y537.4955 Z-3.0200
G1 X330.8222 Y523.6533 Z-3.0200
G1 X331.1422 Y509.8966 Z-3.0200
G1 X331.3762 Y496.2453 Z-3.0200
G1 X331.5351 Y482.7094 Z-3.0200
G1 X331.6570 Y456.0628 Z-3.0200
G1 X331.5350 Y429.4222 Z-3.0200
G1 X331.3760 Y415.8916 Z-3.0200
G1 X331.1418 Y402.2382 Z-3.0200
G1 X330.8217 Y388.4788 Z-3.0200
G1 X330.4023 Y374.6334 Z-3.0200
G1 X329.8686 Y360.7252 Z-3.0200
G1 X329.2037 Y346.7796 Z-3.0200
G1 X328.3895 Y332.8235 Z-3.0200
G1 X327.4070 Y318.8853 Z-3.0200
G1 X326.2366 Y304.9936 Z-3.0200
G1 X324.8600 Y291.1907 Z-3.0200
G1 X324.0872 Y284.3203 Z-3.0200
G1 X323.2552 Y277.4793 Z-3.0200
G1 X322.3617 Y270.6711 Z-3.0200
G1 X321.4044 Y263.8990 Z-3.0200
G1 X320.3810 Y257.1661 Z-3.0200
G1 X319.2897 Y250.4755 Z-3.0200
G1 X318.1283 Y243.8301 Z-3.0200
G1 X316.8951 Y237.2325 Z-3.0200
G1 X315.5885 Y230.6853 Z-3.0200
G1 X314.2071 Y224.1906 Z-3.0200
G1 X312.7496 Y217.7506 Z-3.0200
G1 X311.2150 Y211.3669 Z-3.0200
G1 X309.6023 Y205.0411 Z-3.0200
G1 X307.9110 Y198.7746 Z-3.0200
G1 X306.1404 Y192.5685 Z-3.0200
G1 X304.2902 Y186.4237 Z-3.0200
G1 X302.3600 Y180.3410 Z-3.0200
G1 X300.3499 Y174.3208 Z-3.0200
G1 X298.2596 Y168.3637 Z-3.0200
G1 X296.0893 Y162.4699 Z-3.0200
G1 X293.8392 Y156.6396 Z-3.0200
G1 X291.5095 Y150.8728 Z-3.0200
G1 X289.1003 Y145.1694 Z-3.0200
G1 X286.6121 Y139.5293 Z-3.0200
G1 X284.0450 Y133.9525 Z-3.0200
G1 X281.3995 Y128.4386 Z-3.0200
G1 X278.6759 Y122.9874 Z-3.0200
G1 X275.8747 Y117.5985 Z-3.0200
G1 X272.9960 Y112.2717 Z-3.0200
G1 X270.0405 Y107.0065 Z-3.0200
G1 X267.0083 Y101.8027 Z-3.0200
G1 X263.8998 Y96.6597 Z-3.0200
G1 X260.7154 Y91.5774 Z-3.0200
G1 X257.4554 Y86.5553 Z-3.0200
G1 X254.1199 Y81.5931 Z-3.0200
G1 X250.7093 Y76.6905 Z-3.0200
G1 X247.2237 Y71.8473 Z-3.0200
G1 X243.6633 Y67.0634 Z-3.0200
G1 X240.0281 Y62.3384 Z-3.0200
G1 X236.3483 Y57.7097 Z-3.0200
G2 X231.0000 Y59.5766 I-2.3483 J1.8669
G1 X231.0000 Y218.4766 Z-3.0200
G2 X234.0000 Y221.4766 I3.0000 J0.0000
G1 X272.7740 Y221.4766 Z-3.0200
G1 X272.8240 Y221.5266 Z-3.0200
G1 X272.7740 Y221.5766 Z-3.0200
G2 X269.7740 Y224.5766 I0.0000 J3.0000
G1 X269.7740 Y227.6769 Z-3.0200
G2 X272.7318 Y230.6766 I3.0000 J0.0000
G1 X234.0000 Y230.6766 Z-3.0200
G2 X231.0000 Y233.6766 I0.0000 J3.0000
G1 X231.0000 Y341.0781 Z-3.0200
G1 X231.0000 Y341.0781 Z-6.0400
G1 X231.0000 Y448.4797 Z-6.0400
G2 X234.0000 Y451.4797 I3.0000 J0.0000
G1 X281.3461 Y451.4797 Z-6.0400
G1 X281.3785 Y451.5266 Z-6.0400
G1 X281.3334 Y451.5766 Z-6.0400
G1 X281.3285 Y451.5766 Z-6.0400
G2 X278.3285 Y454.5766 I0.0000 J3.0000
G1 X278.3285 Y457.6769 Z-6.0400
G2 X281.2863 Y460.6766 I3.0000 J0.0000
G1 X233.9998 Y460.6797 Z-6.0400
G2 X231.0000 Y463.6797 I0.0002 J3.0000
G1 X231.0000 Y678.4766 Z-6.0400
G2 X234.0000 Y681.4766 I3.0000 J0.0000
G1 X272.7740 Y681.4766 Z-6.0400
G1 X272.8240 Y681.5266 Z-6.0400
G1 X272.7789 Y681.5766 Z-6.0400
G1 X272.7740 Y681.5766 Z-6.0400
G2 X269.7740 Y684.5766 I0.0000 J3.0000
G1 X269.7740 Y687.6769 Z-6.0400
G2 X272.7318 Y690.6766 I3.0000 J0.0000
G1 X234.0000 Y690.6766 Z-6.0400
G2 X231.0000 Y693.6766 I0.0000 J3.0000
G1 X231.0000 Y852.5766 Z-6.0400
G2 X236.3483 Y854.4435 I3.0000 J0.0000
G1 X240.0576 Y849.7770 Z-6.0400
G1 X243.6922 Y845.0516 Z-6.0400
G1 X247.2521 Y840.2671 Z-6.0400
G1 X250.7371 Y835.4234 Z-6.0400
G1 X254.1471 Y830.5204 Z-6.0400
G1 X257.4819 Y825.5577 Z-6.0400
G1 X260.7413 Y820.5352 Z-6.0400
G1 X263.9251 Y815.4524 Z-6.0400
G1 X267.0329 Y810.3090 Z-6.0400
G1 X270.0644 Y805.1047 Z-6.0400
G1 X273.0193 Y799.8392 Z-6.0400
G1 X275.8972 Y794.5120 Z-6.0400
G1 X278.6978 Y789.1229 Z-6.0400
G1 X281.4206 Y783.6714 Z-6.0400
G1 X284.0654 Y778.1573 Z-6.0400
G1 X286.6317 Y772.5803 Z-6.0400
G1 X289.1191 Y766.9402 Z-6.0400
G1 X291.5275 Y761.2368 Z-6.0400
G1 X293.8565 Y755.4699 Z-6.0400
G1 X296.1057 Y749.6397 Z-6.0400
G1 X298.2752 Y743.7460 Z-6.0400
G1 X300.3646 Y737.7892 Z-6.0400
G1 X302.3740 Y731.7694 Z-6.0400
G1 X304.3033 Y725.6870 Z-6.0400
G1 X306.1527 Y719.5427 Z-6.0400
G1 X307.9225 Y713.3372 Z-6.0400
G1 X309.6130 Y707.0714 Z-6.0400
G1 X311.2248 Y700.7464 Z-6.0400
G1 X312.7587 Y694.3636 Z-6.0400
G1 X314.2154 Y687.9245 Z-6.0400
G1 X315.5962 Y681.4308 Z-6.0400
G1 X316.9021 Y674.8847 Z-6.0400
G1 X318.1346 Y668.2883 Z-6.0400
G1 X319.2953 Y661.6441 Z-6.0400
G1 X320.3861 Y654.9548 Z-6.0400
G1 X321.4089 Y648.2233 Z-6.0400
G1 X322.3657 Y641.4525 Z-6.0400
G1 X323.2588 Y634.6456 Z-6.0400
G1 X324.0904 Y627.8060 Z-6.0400
G1 X324.8640 Y620.9248 Z-6.0400
G1 X326.2408 Y607.1137 Z-6.0400
G1 X327.4102 Y593.2269 Z-6.0400
G1 X328.3919 Y579.2934 Z-6.0400
G1 X329.2054 Y565.3417 Z-6.0400
G1 X329.8698 Y551.4001 Z-6.0400
G1 X330.4031 Y537.4955 Z-6.0400
G1 X330.8222 Y523.6533 Z-6.0400
G1 X331.1422 Y509.8966 Z-6.0400
G1 X331.3762 Y496.2453 Z-6.0400
G1 X331.5351 Y482.7094 Z-6.0400
G1 X331.6570 Y456.0628 Z-6.0400
G1 X331.5350 Y429.4222 Z-6.0400
G1 X331.3760 Y415.8916 Z-6.0400
G1 X331.1418 Y402.2382 Z-6.0400
G1 X330.8217 Y388.4788 Z-6.0400
G1 X330.4023 Y374.6334 Z-6.0400
G1 X329.8686 Y360.7252 Z-6.0400
G1 X329.2037 Y346.7796 Z-6.0400
G1 X328.3895 Y332.8235 Z-6.0400
G1 X327.4070 Y318.8853 Z-6.0400
G1 X326.2366 Y304.9936 Z-6.0400
G1 X324.8600 Y291.1907 Z-6.0400
G1 X324.0872 Y284.3203 Z-6.0400
G1 X323.2552 Y277.4793 Z-6.0400
G1 X322.3617 Y270.6711 Z-6.0400
G1 X321.4044 Y263.8990 Z-6.0400
G1 X320.3810 Y257.1661 Z-6.0400
G1 X319.2897 Y250.4755 Z-6.0400
G1 X318.1283 Y243.8301 Z-6.0400
G1 X316.8951 Y237.2325 Z-6.0400
G1 X315.5885 Y230.6853 Z-6.0400
G1 X314.2071 Y224.1906 Z-6.0400
G1 X312.7496 Y217.7506 Z-6.0400
G1 X311.2150 Y211.3669 Z-6.0400
G1 X309.6023 Y205.0411 Z-6.0400
G1 X307.9110 Y198.7746 Z-6.0400
G1 X306.1404 Y192.5685 Z-6.0400
G1 X304.2902 Y186.4237 Z-6.0400
G1 X302.3600 Y180.3410 Z-6.0400
G1 X300.3499 Y174.3208 Z-6.0400
G1 X298.2596 Y168.3637 Z-6.0400
G1 X296.0893 Y162.4699 Z-6.0400
G1 X293.8392 Y156.6396 Z-6.0400
G1 X291.5095 Y150.8728 Z-6.0400
G1 X289.1003 Y145.1694 Z-6.0400
G1 X286.6121 Y139.5293 Z-6.0400
G1 X284.0450 Y133.9525 Z-6.0400
G1 X281.3995 Y128.4386 Z-6.0400
G1 X278.6759 Y122.9874 Z-6.0400
G1 X275.8747 Y117.5985 Z-6.0400
G1 X272.9960 Y112.2717 Z-6.0400
G1 X270.0405 Y107.0065 Z-6.0400
G1 X267.0083 Y101.8027 Z-6.0400
G1 X263.8998 Y96.6597 Z-6.0400
G1 X260.7154 Y91.5774 Z-6.0400
G1 X257.4554 Y86.5553 Z-6.0400
G1 X254.1199 Y81.5931 Z-6.0400
G1 X250.7093 Y76.6905 Z-6.0400
G1 X247.2237 Y71.8473 Z-6.0400
G1 X243.6633 Y67.0634 Z-6.0400
G1 X240.0281 Y62.3384 Z-6.0400
G1 X236.3483 Y57.7097 Z-6.0400
G2 X231.0000 Y59.5766 I-2.3483 J1.8669
G1 X231.0000 Y218.4766 Z-6.0400
G2 X234.0000 Y221.4766 I3.0000 J0.0000
G1 X272.7740 Y221.4766 Z-6.0400
G1 X272.8240 Y221.5266 Z-6.0400
G1 X272.7740 Y221.5766 Z-6.0400
G2 X269.7740 Y224.5766 I0.0000 J3.0000
G1 X269.7740 Y227.6769 Z-6.0400
G2 X272.7318 Y230.6766 I3.0000 J0.0000
G1 X234.0000 Y230.6766 Z-6.0400
G2 X231.0000 Y233.6766 I0.0000 J3.0000
G1 X231.0000 Y341.0781 Z-6.0400
G1 X231.0000 Y341.0781 Z-9.0600
G1 X231.0000 Y448.4797 Z-9.0600
G2 X234.0000 Y451.4797 I3.0000 J0.0000
G1 X281.3461 Y451.4797 Z-9.0600
G1 X281.3785 Y451.5266 Z-9.0600
G1 X281.3334 Y451.5766 Z-9.0600
G1 X281.3285 Y451.5766 Z-9.0600
G2 X278.3285 Y454.5766 I0.0000 J3.0000
G1 X278.3285 Y457.6769 Z-9.0600
G2 X281.2863 Y460.6766 I3.0000 J0.0000
G1 X233.9998 Y460.6797 Z-9.0600
G2 X231.0000 Y463.6797 I0.0002 J3.0000
G1 X231.0000 Y678.4766 Z-9.0600
G2 X234.0000 Y681.4766 I3.0000 J0.0000
G1 X272.7740 Y681.4766 Z-9.0600
G1 X272.8240 Y681.5266 Z-9.0600
G1 X272.7789 Y681.5766 Z-9.0600
G1 X272.7740 Y681.5766 Z-9.0600
G2 X269.7740 Y684.5766 I0.0000 J3.0000
G1 X269.7740 Y687.6769 Z-9.0600
G2 X272.7318 Y690.6766 I3.0000 J0.0000
G1 X234.0000 Y690.6766 Z-9.0600
G2 X231.0000 Y693.6766 I0.0000 J3.0000
G1 X231.0000 Y852.5766 Z-9.0600
G2 X236.3483 Y854.4435 I3.0000 J0.0000
G1 X240.0576 Y849.7770 Z-9.0600
G1 X243.6922 Y845.0516 Z-9.0600
G1 X247.2521 Y840.2671 Z-9.0600
G1 X250.7371 Y835.4234 Z-9.0600
G1 X254.1471 Y830.5204 Z-9.0600
G1 X257.4819 Y825.5577 Z-9.0600
G1 X260.7413 Y820.5352 Z-9.0600
G1 X263.9251 Y815.4524 Z-9.0600
G1 X267.0329 Y810.3090 Z-9.0600
G1 X270.0644 Y805.1047 Z-9.0600
G1 X273.0193 Y799.8392 Z-9.0600
G1 X275.8972 Y794.5120 Z-9.0600
G1 X278.6978 Y789.1229 Z-9.0600
G1 X281.4206 Y783.6714 Z-9.0600
G1 X284.0654 Y778.1573 Z-9.0600
G1 X286.6317 Y772.5803 Z-9.0600
G1 X289.1191 Y766.9402 Z-9.0600
G1 X291.5275 Y761.2368 Z-9.0600
G1 X293.8565 Y755.4699 Z-9.0600
G1 X296.1057 Y749.6397 Z-9.0600
G1 X298.2752 Y743.7460 Z-9.0600
G1 X300.3646 Y737.7892 Z-9.0600
G1 X302.3740 Y731.7694 Z-9.0600
G1 X304.3033 Y725.6870 Z-9.0600
G1 X306.1527 Y719.5427 Z-9.0600
G1 X307.9225 Y713.3372 Z-9.0600
G1 X309.6130 Y707.0714 Z-9.0600
G1 X311.2248 Y700.7464 Z-9.0600
G1 X312.7587 Y694.3636 Z-9.0600
G1 X314.2154 Y687.9245 Z-9.0600
G1 X315.5962 Y681.4308 Z-9.0600
G1 X316.9021 Y674.8847 Z-9.0600
G1 X318.1346 Y668.2883 Z-9.0600
G1 X319.2953 Y661.6441 Z-9.0600
G1 X320.3861 Y654.9548 Z-9.0600
G1 X321.4089 Y648.2233 Z-9.0600
G1 X322.3657 Y641.4525 Z-9.0600
G1 X323.2588 Y634.6456 Z-9.0600
G1 X324.0904 Y627.8060 Z-9.0600
G1 X324.8640 Y620.9248 Z-9.0600
G1 X326.2408 Y607.1137 Z-9.0600
G1 X327.4102 Y593.2269 Z-9.0600
G1 X328.3919 Y579.2934 Z-9.0600
G1 X329.2054 Y565.3417 Z-9.0600
G1 X329.8698 Y551.4001 Z-9.0600
G1 X330.4031 Y537.4955 Z-9.0600
G1 X330.8222 Y523.6533 Z-9.0600
G1 X331.1422 Y509.8966 Z-9.0600
G1 X331.3762 Y496.2453 Z-9.0600
G1 X331.5351 Y482.7094 Z-9.0600
G1 X331.6570 Y456.0628 Z-9.0600
G1 X331.5350 Y429.4222 Z-9.0600
G1 X331.3760 Y415.8916 Z-9.0600
G1 X331.1418 Y402.2382 Z-9.0600
G1 X330.8217 Y388.4788 Z-9.0600
G1 X330.4023 Y374.6334 Z-9.0600
G1 X329.8686 Y360.7252 Z-9.0600
G1 X329.2037 Y346.7796 Z-9.0600
G1 X328.3895 Y332.8235 Z-9.0600
G1 X327.4070 Y318.8853 Z-9.0600
G1 X326.2366 Y304.9936 Z-9.0600
G1 X324.8600 Y291.1907 Z-9.0600
G1 X324.0872 Y284.3203 Z-9.0600
G1 X323.2552 Y277.4793 Z-9.0600
G1 X322.3617 Y270.6711 Z-9.0600
G1 X321.4044 Y263.8990 Z-9.0600
G1 X320.3810 Y257.1661 Z-9.0600
G1 X319.2897 Y250.4755 Z-9.0600
G1 X318.1283 Y243.8301 Z-9.0600
G1 X316.8951 Y237.2325 Z-9.0600
G1 X315.5885 Y230.6853 Z-9.0600
G1 X314.2071 Y224.1906 Z-9.0600
G1 X312.7496 Y217.7506 Z-9.0600
G1 X311.2150 Y211.3669 Z-9.0600
G1 X309.6023 Y205.0411 Z-9.0600
G1 X307.9110 Y198.7746 Z-9.0600
G1 X306.1404 Y192.5685 Z-9.0600
G1 X304.2902 Y186.4237 Z-9.0600
G1 X302.3600 Y180.3410 Z-9.0600
G1 X300.3499 Y174.3208 Z-9.0600
G1 X298.2596 Y168.3637 Z-9.0600
G1 X296.0893 Y162.4699 Z-9.0600
G1 X293.8392 Y156.6396 Z-9.0600
G1 X291.5095 Y150.8728 Z-9.0600
G1 X289.1003 Y145.1694 Z-9.0600
G1 X286.6121 Y139.5293 Z-9.0600
G1 X284.0450 Y133.9525 Z-9.0600
G1 X281.3995 Y128.4386 Z-9.0600
G1 X278.6759 Y122.9874 Z-9.0600
G1 X275.8747 Y117.5985 Z-9.0600
G1 X272.9960 Y112.2717 Z-9.0600
G1 X270.0405 Y107.0065 Z-9.0600
G1 X267.0083 Y101.8027 Z-9.0600
G1 X263.8998 Y96.6597 Z-9.0600
G1 X260.7154 Y91.5774 Z-9.0600
G1 X257.4554 Y86.5553 Z-9.0600
G1 X254.1199 Y81.5931 Z-9.0600
G1 X250.7093 Y76.6905 Z-9.0600
G1 X247.2237 Y71.8473 Z-9.0600
G1 X243.6633 Y67.0634 Z-9.0600
G1 X240.0281 Y62.3384 Z-9.0600
G1 X236.3483 Y57.7097 Z-9.0600
G2 X231.0000 Y59.5766 I-2.3483 J1.8669
G1 X231.0000 Y218.4766 Z-9.0600
G2 X234.0000 Y221.4766 I3.0000 J0.0000
G1 X272.7740 Y221.4766 Z-9.0600
G1 X272.8240 Y221.5266 Z-9.0600
G1 X272.7740 Y221.5766 Z-9.0600
G2 X269.7740 Y224.5766 I0.0000 J3.0000
G1 X269.7740 Y227.6769 Z-9.0600
G2 X272.7318 Y230.6766 I3.0000 J0.0000
G1 X234.0000 Y230.6766 Z-9.0600
G2 X231.0000 Y233.6766 I0.0000 J3.0000
G1 X231.0000 Y341.0781 Z-9.0600
G1 X231.0000 Y341.0781 Z-12.0800
G1 X231.0000 Y448.4797 Z-12.0800
G2 X234.0000 Y451.4797 I3.0000 J0.0000
G1 X281.3461 Y451.4797 Z-12.0800
G1 X281.3785 Y451.5266 Z-12.0800
G1 X281.3782 Y451.5315 Z-12.0800
G1 X281.3775 Y451.5363 Z-12.0800
G1 X281.3763 Y451.5411 Z-12.0800
G1 X281.3747 Y451.5457 Z-12.0800
G1 X281.3726 Y451.5502 Z-12.0800
G1 X281.3700 Y451.5544 Z-12.0800
G1 X281.3671 Y451.5583 Z-12.0800
G1 X281.3638 Y451.5620 Z-12.0800
G1 X281.3602 Y451.5653 Z-12.0800
G1 X281.3563 Y451.5682 Z-12.0800
G1 X281.3521 Y451.5708 Z-12.0800
G1 X281.3476 Y451.5729 Z-12.0800
G1 X281.3430 Y451.5746 Z-12.0800
G1 X281.3383 Y451.5758 Z-12.0800
G1 X281.3334 Y451.5766 Z-12.0800
G1 X281.3285 Y451.5766 Z-12.0800
G1 X281.0344 Y451.5910 Z-12.0800
G2 X278.3285 Y454.5766 I0.2941 J2.9856
G2 X278.3851 Y458.2570 I18.8821 J1.5501
G2 X281.2863 Y460.6766 I2.9434 J-0.5801
G1 X233.9998 Y460.6797 Z-12.0800
G2 X231.0000 Y463.6797 I0.0002 J3.0000
G1 X231.0000 Y471.3899 Z-12.0800
G1 X231.0000 Y471.3899 Z-11.1000
G1 X231.0000 Y481.3899 Z-11.1000
G1 X231.0000 Y481.3899 Z-12.0800
G1 X231.0000 Y678.4766 Z-12.0800
G2 X234.0000 Y681.4766 I3.0000 J0.0000
G1 X272.7740 Y681.4766 Z-12.0800
G1 X272.8240 Y681.5266 Z-12.0800
G1 X272.8237 Y681.5315 Z-12.0800
G1 X272.8230 Y681.5363 Z-12.0800
G1 X272.8218 Y681.5411 Z-12.0800
G1 X272.8202 Y681.5457 Z-12.0800
G1 X272.8181 Y681.5502 Z-12.0800
G1 X272.8155 Y681.5544 Z-12.0800
G1 X272.8126 Y681.5583 Z-12.0800
G1 X272.8093 Y681.5620 Z-12.0800
G1 X272.8057 Y681.5653 Z-12.0800
G1 X272.8018 Y681.5682 Z-12.0800
G1 X272.7976 Y681.5708 Z-12.0800
G1 X272.7931 Y681.5729 Z-12.0800
G1 X272.7885 Y681.5746 Z-12.0800
G1 X272.7838 Y681.5758 Z-12.0800
G1 X272.7789 Y681.5766 Z-12.0800
G1 X272.7740 Y681.5766 Z-12.0800
G1 X272.4799 Y681.5910 Z-12.0800
G2 X269.7740 Y684.5766 I0.2941 J2.9856
G2 X269.8306 Y688.2570 I18.8821 J1.5501
G2 X272.7318 Y690.6766 I2.9434 J-0.5801
G1 X234.0000 Y690.6766 Z-12.0800
G2 X231.0000 Y693.6766 I0.0000 J3.0000
G1 X231.0000 Y852.5766 Z-12.0800
G2 X236.3483 Y854.4435 I3.0000 J0.0000
G1 X240.0576 Y849.7770 Z-12.0800
G1 X241.6795 Y847.6683 Z-12.0800
G1 X241.6795 Y847.6683 Z-11.1000
G1 X243.6922 Y845.0516 Z-11.1000
G1 X247.2521 Y840.2671 Z-11.1000
G1 X247.7374 Y839.5925 Z-11.1000
G1 X247.7374 Y839.5925 Z-12.0800
G1 X250.7371 Y835.4234 Z-12.0800
G1 X254.1471 Y830.5204 Z-12.0800
G1 X257.4819 Y825.5577 Z-12.0800
G1 X260.7413 Y820.5352 Z-12.0800
G1 X263.9251 Y815.4524 Z-12.0800
G1 X267.0329 Y810.3090 Z-12.0800
G1 X270.0644 Y805.1047 Z-12.0800
G1 X273.0193 Y799.8392 Z-12.0800
G1 X275.8972 Y794.5120 Z-12.0800
G1 X278.6978 Y789.1229 Z-12.0800
G1 X281.4206 Y783.6714 Z-12.0800
G1 X284.0654 Y778.1573 Z-12.0800
G1 X286.6317 Y772.5803 Z-12.0800
G1 X289.1191 Y766.9402 Z-12.0800
G1 X291.5275 Y761.2368 Z-12.0800
G1 X293.8565 Y755.4699 Z-12.0800
G1 X296.1057 Y749.6397 Z-12.0800
G1 X298.2752 Y743.7460 Z-12.0800
G1 X300.3646 Y737.7892 Z-12.0800
G1 X302.3740 Y731.7694 Z-12.0800
G1 X304.3033 Y725.6870 Z-12.0800
G1 X306.1527 Y719.5427 Z-12.0800
G1 X307.9225 Y713.3372 Z-12.0800
G1 X309.6130 Y707.0714 Z-12.0800
G1 X311.2248 Y700.7464 Z-12.0800
G1 X312.7587 Y694.3636 Z-12.0800
G1 X314.2154 Y687.9245 Z-12.0800
G1 X315.5962 Y681.4308 Z-12.0800
G1 X316.9021 Y674.8847 Z-12.0800
G1 X318.1346 Y668.2883 Z-12.0800
G1 X319.2953 Y661.6441 Z-12.0800
G1 X320.3861 Y654.9548 Z-12.0800
G1 X321.4089 Y648.2233 Z-12.0800
G1 X322.3657 Y641.4525 Z-12.0800
G1 X323.2588 Y634.6456 Z-12.0800
G1 X324.0904 Y627.8060 Z-12.0800
G1 X324.8640 Y620.9248 Z-12.0800
G1 X326.2408 Y607.1137 Z-12.0800
G1 X327.4102 Y593.2269 Z-12.0800
G1 X328.3919 Y579.2934 Z-12.0800
G1 X329.2054 Y565.3417 Z-12.0800
G1 X329.8698 Y551.4001 Z-12.0800
G1 X330.4031 Y537.4955 Z-12.0800
G1 X330.8222 Y523.6533 Z-12.0800
G1 X331.1422 Y509.8966 Z-12.0800
G1 X331.3762 Y496.2453 Z-12.0800
G1 X331.5351 Y482.7094 Z-12.0800
G1 X331.6570 Y456.0628 Z-12.0800
G1 X331.5350 Y429.4222 Z-12.0800
G1 X331.3760 Y415.8916 Z-12.0800
G1 X331.1418 Y402.2382 Z-12.0800
G1 X330.8518 Y389.7722 Z-12.0800
G1 X330.8518 Y389.7722 Z-11.1000
G1 X330.8217 Y388.4788 Z-11.1000
G1 X330.5574 Y379.7555 Z-11.1000
G1 X330.5574 Y379.7555 Z-12.0800
G1 X330.4023 Y374.6334 Z-12.0800
G1 X329.8686 Y360.7252 Z-12.0800
G1 X329.2037 Y346.7796 Z-12.0800
G1 X328.3895 Y332.8235 Z-12.0800
G1 X327.4070 Y318.8853 Z-12.0800
G1 X326.2366 Y304.9936 Z-12.0800
G1 X324.8600 Y291.1907 Z-12.0800
G1 X324.0872 Y284.3203 Z-12.0800
G1 X323.2552 Y277.4793 Z-12.0800
G1 X322.3617 Y270.6711 Z-12.0800
G1 X321.4044 Y263.8990 Z-12.0800
G1 X320.3810 Y257.1661 Z-12.0800
G1 X319.2897 Y250.4755 Z-12.0800
G1 X318.1283 Y243.8301 Z-12.0800
G1 X316.8951 Y237.2325 Z-12.0800
G1 X315.5885 Y230.6853 Z-12.0800
G1 X314.2071 Y224.1906 Z-12.0800
G1 X312.7496 Y217.7506 Z-12.0800
G1 X311.2150 Y211.3669 Z-12.0800
G1 X309.6023 Y205.0411 Z-12.0800
G1 X307.9110 Y198.7746 Z-12.0800
G1 X306.1404 Y192.5685 Z-12.0800
G1 X304.2902 Y186.4237 Z-12.0800
G1 X302.3600 Y180.3410 Z-12.0800
G1 X300.3499 Y174.3208 Z-12.0800
G1 X298.2596 Y168.3637 Z-12.0800
G1 X296.0893 Y162.4699 Z-12.0800
G1 X293.8392 Y156.6396 Z-12.0800
G1 X291.5095 Y150.8728 Z-12.0800
G1 X289.1003 Y145.1694 Z-12.0800
G1 X286.6121 Y139.5293 Z-12.0800
G1 X284.0450 Y133.9525 Z-12.0800
G1 X281.3995 Y128.4386 Z-12.0800
G1 X278.6759 Y122.9874 Z-12.0800
G1 X275.8747 Y117.5985 Z-12.0800
G1 X272.9960 Y112.2717 Z-12.0800
G1 X270.0405 Y107.0065 Z-12.0800
G1 X267.0083 Y101.8027 Z-12.0800
G1 X263.8998 Y96.6597 Z-12.0800
G1 X260.7154 Y91.5774 Z-12.0800
G1 X257.4554 Y86.5553 Z-12.0800
G1 X254.1199 Y81.5931 Z-12.0800
G1 X250.7093 Y76.6905 Z-12.0800
G1 X247.2237 Y71.8473 Z-12.0800
G1 X243.6633 Y67.0634 Z-12.0800
G1 X240.0281 Y62.3384 Z-12.0800
G1 X236.3483 Y57.7097 Z-12.0800
G2 X231.0000 Y59.5766 I-2.3483 J1.8669
G1 X231.0000 Y183.4857 Z-12.0800
G1 X231.0000 Y183.4857 Z-11.1000
G1 X231.0000 Y193.4857 Z-11.1000
G1 X231.0000 Y193.4857 Z-12.0800
G1 X231.0000 Y218.4766 Z-12.0800
G2 X234.0000 Y221.4766 I3.0000 J0.0000
G1 X272.7740 Y221.4766 Z-12.0800
G1 X272.8240 Y221.5266 Z-12.0800
G1 X272.8237 Y221.5318 Z-12.0800
G1 X272.8229 Y221.5370 Z-12.0800
G1 X272.8216 Y221.5420 Z-12.0800
G1 X272.8197 Y221.5469 Z-12.0800
G1 X272.8173 Y221.5516 Z-12.0800
G1 X272.8145 Y221.5560 Z-12.0800
G1 X272.8112 Y221.5600 Z-12.0800
G1 X272.8075 Y221.5637 Z-12.0800
G1 X272.8034 Y221.5670 Z-12.0800
G1 X272.7990 Y221.5699 Z-12.0800
G1 X272.7943 Y221.5722 Z-12.0800
G1 X272.7895 Y221.5741 Z-12.0800
G1 X272.7844 Y221.5755 Z-12.0800
G1 X272.7792 Y221.5763 Z-12.0800
G1 X272.7740 Y221.5766 Z-12.0800
G1 X272.4799 Y221.5910 Z-12.0800
G1 X272.1887 Y221.6342 Z-12.0800
G2 X269.7740 Y224.5766 I0.5853 J2.9424
G2 X269.8306 Y228.2570 I18.8821 J1.5501
G2 X272.7318 Y230.6766 I2.9434 J-0.5801
G1 X234.0000 Y230.6766 Z-12.0800
G2 X231.0000 Y233.6766 I0.0000 J3.0000
G1 X231.0000 Y341.0781 Z-12.0800
G1 X231.0000 Y341.0781 Z-15.1000
G1 X231.0000 Y448.4797 Z-15.1000
G2 X234.0000 Y451.4797 I3.0000 J0.0000
G1 X281.3461 Y451.4797 Z-15.1000
G1 X281.3785 Y451.5266 Z-15.1000
G1 X281.3782 Y451.5315 Z-15.1000
G1 X281.3775 Y451.5363 Z-15.1000
G1 X281.3763 Y451.5411 Z-15.1000
G1 X281.3747 Y451.5457 Z-15.1000
G1 X281.3726 Y451.5502 Z-15.1000
G1 X281.3700 Y451.5544 Z-15.1000
G1 X281.3671 Y451.5583 Z-15.1000
G1 X281.3638 Y451.5620 Z-15.1000
G1 X281.3602 Y451.5653 Z-15.1000
G1 X281.3563 Y451.5682 Z-15.1000
G1 X281.3521 Y451.5708 Z-15.1000
G1 X281.3476 Y451.5729 Z-15.1000
G1 X281.3430 Y451.5746 Z-15.1000
G1 X281.3383 Y451.5758 Z-15.1000
G1 X281.3334 Y451.5766 Z-15.1000
G1 X281.3285 Y451.5766 Z-15.1000
G1 X281.0344 Y451.5910 Z-15.1000
G2 X278.3285 Y454.5766 I0.2941 J2.9856
G2 X278.3851 Y458.2570 I18.8821 J1.5501
G2 X281.2863 Y460.6766 I2.9434 J-0.5801
G1 X233.9998 Y460.6797 Z-15.1000
G2 X231.0000 Y463.6797 I0.0002 J3.0000
G1 X231.0000 Y471.3899 Z-15.1000
G1 X231.0000 Y471.3899 Z-11.1000
G1 X231.0000 Y481.3899 Z-11.1000
G1 X231.0000 Y481.3899 Z-15.1000
G1 X231.0000 Y678.4766 Z-15.1000
G2 X234.0000 Y681.4766 I3.0000 J0.0000
G1 X272.7740 Y681.4766 Z-15.1000
G1 X272.8240 Y681.5266 Z-15.1000
G1 X272.8237 Y681.5315 Z-15.1000
G1 X272.8230 Y681.5363 Z-15.1000
G1 X272.8218 Y681.5411 Z-15.1000
G1 X272.8202 Y681.5457 Z-15.1000
G1 X272.8181 Y681.5502 Z-15.1000
G1 X272.8155 Y681.5544 Z-15.1000
G1 X272.8126 Y681.5583 Z-15.1000
G1 X272.8093 Y681.5620 Z-15.1000
G1 X272.8057 Y681.5653 Z-15.1000
G1 X272.8018 Y681.5682 Z-15.1000
G1 X272.7976 Y681.5708 Z-15.1000
G1 X272.7931 Y681.5729 Z-15.1000
G1 X272.7885 Y681.5746 Z-15.1000
G1 X272.7838 Y681.5758 Z-15.1000
G1 X272.7789 Y681.5766 Z-15.1000
G1 X272.7740 Y681.5766 Z-15.1000
G1 X272.4799 Y681.5910 Z-15.1000
G2 X269.7740 Y684.5766 I0.2941 J2.9856
G2 X269.8306 Y688.2570 I18.8821 J1.5501
G2 X272.7318 Y690.6766 I2.9434 J-0.5801
G1 X234.0000 Y690.6766 Z-15.1000
G2 X231.0000 Y693.6766 I0.0000 J3.0000
G1 X231.0000 Y852.5766 Z-15.1000
G2 X236.3483 Y854.4435 I3.0000 J0.0000
G1 X240.0576 Y849.7770 Z-15.1000
G1 X241.6795 Y847.6683 Z-15.1000
G1 X241.6795 Y847.6683 Z-11.1000
G1 X243.6922 Y845.0516 Z-11.1000
G1 X247.2521 Y840.2671 Z-11.1000
G1 X247.7374 Y839.5925 Z-11.1000
G1 X247.7374 Y839.5925 Z-15.1000
G1 X250.7371 Y835.4234 Z-15.1000
G1 X254.1471 Y830.5204 Z-15.1000
G1 X257.4819 Y825.5577 Z-15.1000
G1 X260.7413 Y820.5352 Z-15.1000
G1 X263.9251 Y815.4524 Z-15.1000
G1 X267.0329 Y810.3090 Z-15.1000
G1 X270.0644 Y805.1047 Z-15.1000
G1 X273.0193 Y799.8392 Z-15.1000
G1 X275.8972 Y794.5120 Z-15.1000
G1 X278.6978 Y789.1229 Z-15.1000
G1 X281.4206 Y783.6714 Z-15.1000
G1 X284.0654 Y778.1573 Z-15.1000
G1 X286.6317 Y772.5803 Z-15.1000
G1 X289.1191 Y766.9402 Z-15.1000
G1 X291.5275 Y761.2368 Z-15.1000
G1 X293.8565 Y755.4699 Z-15.1000
G1 X296.1057 Y749.6397 Z-15.1000
G1 X298.2752 Y743.7460 Z-15.1000
G1 X300.3646 Y737.7892 Z-15.1000
G1 X302.3740 Y731.7694 Z-15.1000
G1 X304.3033 Y725.6870 Z-15.1000
G1 X306.1527 Y719.5427 Z-15.1000
G1 X307.9225 Y713.3372 Z-15.1000
G1 X309.6130 Y707.0714 Z-15.1000
G1 X311.2248 Y700.7464 Z-15.1000
G1 X312.7587 Y694.3636 Z-15.1000
G1 X314.2154 Y687.9245 Z-15.1000
G1 X315.5962 Y681.4308 Z-15.1000
G1 X316.9021 Y674.8847 Z-15.1000
G1 X318.1346 Y668.2883 Z-15.1000
G1 X319.2953 Y661.6441 Z-15.1000
G1 X320.3861 Y654.9548 Z-15.1000
G1 X321.4089 Y648.2233 Z-15.1000
G1 X322.3657 Y641.4525 Z-15.1000
G1 X323.2588 Y634.6456 Z-15.1000
G1 X324.0904 Y627.8060 Z-15.1000
G1 X324.8640 Y620.9248 Z-15.1000
G1 X326.2408 Y607.1137 Z-15.1000
G1 X327.4102 Y593.2269 Z-15.1000
G1 X328.3919 Y579.2934 Z-15.1000
G1 X329.2054 Y565.3417 Z-15.1000
G1 X329.8698 Y551.4001 Z-15.1000
G1 X330.4031 Y537.4955 Z-15.1000
G1 X330.8222 Y523.6533 Z-15.1000
G1 X331.1422 Y509.8966 Z-15.1000
G1 X331.3762 Y496.2453 Z-15.1000
G1 X331.5351 Y482.7094 Z-15.1000
G1 X331.6570 Y456.0628 Z-15.1000
G1 X331.5350 Y429.4222 Z-15.1000
G1 X331.3760 Y415.8916 Z-15.1000
G1 X331.1418 Y402.2382 Z-15.1000
G1 X330.8518 Y389.7722 Z-15.1000
G1 X330.8518 Y389.7722 Z-11.1000
G1 X330.8217 Y388.4788 Z-11.1000
G1 X330.5574 Y379.7555 Z-11.1000
G1 X330.5574 Y379.7555 Z-15.1000
G1 X330.4023 Y374.6334 Z-15.1000
G1 X329.8686 Y360.7252 Z-15.1000
G1 X329.2037 Y346.7796 Z-15.1000
G1 X328.3895 Y332.8235 Z-15.1000
G1 X327.4070 Y318.8853 Z-15.1000
G1 X326.2366 Y304.9936 Z-15.1000
G1 X324.8600 Y291.1907 Z-15.1000
G1 X324.0872 Y284.3203 Z-15.1000
G1 X323.2552 Y277.4793 Z-15.1000
G1 X322.3617 Y270.6711 Z-15.1000
G1 X321.4044 Y263.8990 Z-15.1000
G1 X320.3810 Y257.1661 Z-15.1000
G1 X319.2897 Y250.4755 Z-15.1000
G1 X318.1283 Y243.8301 Z-15.1000
G1 X316.8951 Y237.2325 Z-15.1000
G1 X315.5885 Y230.6853 Z-15.1000
G1 X314.2071 Y224.1906 Z-15.1000
G1 X312.7496 Y217.7506 Z-15.1000
G1 X311.2150 Y211.3669 Z-15.1000
G1 X309.6023 Y205.0411 Z-15.1000
G1 X307.9110 Y198.7746 Z-15.1000
G1 X306.1404 Y192.5685 Z-15.1000
G1 X304.2902 Y186.4237 Z-15.1000
G1 X302.3600 Y180.3410 Z-15.1000
G1 X300.3499 Y174.3208 Z-15.1000
G1 X298.2596 Y168.3637 Z-15.1000
G1 X296.0893 Y162.4699 Z-15.1000
G1 X293.8392 Y156.6396 Z-15.1000
G1 X291.5095 Y150.8728 Z-15.1000
G1 X289.1003 Y145.1694 Z-15.1000
G1 X286.6121 Y139.5293 Z-15.1000
G1 X284.0450 Y133.9525 Z-15.1000
G1 X281.3995 Y128.4386 Z-15.1000
G1 X278.6759 Y122.9874 Z-15.1000
G1 X275.8747 Y117.5985 Z-15.1000
G1 X272.9960 Y112.2717 Z-15.1000
G1 X270.0405 Y107.0065 Z-15.1000
G1 X267.0083 Y101.8027 Z-15.1000
G1 X263.8998 Y96.6597 Z-15.1000
G1 X260.7154 Y91.5774 Z-15.1000
G1 X257.4554 Y86.5553 Z-15.1000
G1 X254.1199 Y81.5931 Z-15.1000
G1 X250.7093 Y76.6905 Z-15.1000
G1 X247.2237 Y71.8473 Z-15.1000
G1 X243.6633 Y67.0634 Z-15.1000
G1 X240.0281 Y62.3384 Z-15.1000
G1 X236.3483 Y57.7097 Z-15.1000
G2 X231.0000 Y59.5766 I-2.3483 J1.8669
G1 X231.0000 Y183.4857 Z-15.1000
G1 X231.0000 Y183.4857 Z-11.1000
G1 X231.0000 Y193.4857 Z-11.1000
G1 X231.0000 Y193.4857 Z-15.1000
G1 X231.0000 Y218.4766 Z-15.1000
G2 X234.0000 Y221.4766 I3.0000 J0.0000
G1 X272.7740 Y221.4766 Z-15.1000
G1 X272.8240 Y221.5266 Z-15.1000
G1 X272.8237 Y221.5318 Z-15.1000
G1 X272.8229 Y221.5370 Z-15.1000
G1 X272.8216 Y221.5420 Z-15.1000
G1 X272.8197 Y221.5469 Z-15.1000
G1 X272.8173 Y221.5516 Z-15.1000
G1 X272.8145 Y221.5560 Z-15.1000
G1 X272.8112 Y221.5600 Z-15.1000
G1 X272.8075 Y221.5637 Z-15.1000
G1 X272.8034 Y221.5670 Z-15.1000
G1 X272.7990 Y221.5699 Z-15.1000
G1 X272.7943 Y221.5722 Z-15.1000
G1 X272.7895 Y221.5741 Z-15.1000
G1 X272.7844 Y221.5755 Z-15.1000
G1 X272.7792 Y221.5763 Z-15.1000
G1 X272.7740 Y221.5766 Z-15.1000
G1 X272.4799 Y221.5910 Z-15.1000
G1 X272.1887 Y221.6342 Z-15.1000
G2 X269.7740 Y224.5766 I0.5853 J2.9424
G2 X269.8306 Y228.2570 I18.8821 J1.5501
G2 X272.7318 Y230.6766 I2.9434 J-0.5801
G1 X234.0000 Y230.6766 Z-15.1000
G2 X231.0000 Y233.6766 I0.0000 J3.0000
G1 X231.0000 Y341.0781 Z-15.1000
G0 Z20.0000
G0 X231.0000 Y341.0781
G0 Z20.0000
G0 X677.5319 Y453.2210
G1 X677.5319 Y453.2210 Z-1.7500 F2250.
G1 X677.5319 Y460.4235 Z-3.0200
G1 X677.5319 Y822.4235 Z-3.0200 F4500.
G2 X682.2783 Y824.8628 I3.0000 J0.0000
G2 X728.0843 Y775.7142 I-95.9105 J-135.3073
G2 X744.8876 Y743.6674 I-210.6569 J-130.8842
G1 X746.7415 Y739.3564 Z-3.0200
G1 X748.5443 Y734.9814 Z-3.0200
G1 X750.2970 Y730.5434 Z-3.0200
G1 X752.0008 Y726.0433 Z-3.0200
G1 X753.6566 Y721.4823 Z-3.0200
G1 X755.2712 Y716.8435 Z-3.0200
G1 X758.3582 Y707.4002 Z-3.0200
G1 X758.6496 Y706.4002 Z-3.0200
G2 X755.7694 Y702.5610 I-2.8802 J-0.8392
G1 X718.5963 Y702.5610 Z-3.0200
G1 X718.5955 Y702.5605 Z-3.0200
G1 X718.5963 Y702.5591 Z-3.0200
G2 X721.6383 Y699.5597 I0.0420 J-2.9997
G1 X721.6386 Y696.4594 Z-3.0200
G2 X718.6380 Y693.4591 I-3.0000 J-0.0003
G1 X718.5939 Y693.4326 Z-3.0200
G1 X718.5965 Y693.3812 Z-3.0200
G1 X718.6432 Y693.3594 Z-3.0200
G1 X718.9542 Y693.3756 Z-3.0200
G1 X760.1931 Y693.3784 Z-3.0200
G2 X763.0736 Y691.2176 I0.0002 J-3.0000
G2 X766.3092 Y678.8058 I-203.1642 J-59.5905
G1 X767.6946 Y673.0333 Z-3.0200
G1 X769.0332 Y667.1780 Z-3.0200
G1 X771.5573 Y655.2963 Z-3.0200
G1 X773.8908 Y643.1487 Z-3.0200
G1 X776.0386 Y630.7376 Z-3.0200
G1 X778.0041 Y618.0640 Z-3.0200
G1 X779.7902 Y605.1281 Z-3.0200
G1 X781.3988 Y591.9289 Z-3.0200
G1 X782.8308 Y578.4644 Z-3.0200
G1 X784.0867 Y564.7323 Z-3.0200
G1 X785.1662 Y550.7291 Z-3.0200
G1 X786.0685 Y536.4515 Z-3.0200
G1 X786.7927 Y521.8955 Z-3.0200
G1 X787.3374 Y507.0575 Z-3.0200
G1 X787.7013 Y491.9344 Z-3.0200
G1 X787.8834 Y475.5235 Z-3.0200
G2 X784.8834 Y472.5235 I-3.0000 J0.0000
G1 X732.7785 Y472.5232 Z-3.0200
G2 X735.7189 Y469.5238 I-0.0596 J-2.9994
G1 X735.7189 Y466.4235 Z-3.0200
G2 X732.7189 Y463.4235 I-3.0000 J0.0000
G1 X732.6689 Y463.3735 Z-3.0200
G1 X732.7189 Y463.3235 Z-3.0200
G1 X784.8691 Y463.3235 Z-3.0200
G2 X787.8691 Y460.3235 I0.0000 J-3.0000
G1 X787.6409 Y443.8942 Z-3.0200
G1 X787.2103 Y428.8226 Z-3.0200
G1 X786.5842 Y414.0533 Z-3.0200
G1 X785.7709 Y399.5727 Z-3.0200
G1 X784.7788 Y385.3671 Z-3.0200
G1 X783.6155 Y371.4237 Z-3.0200
G1 X782.2868 Y357.7318 Z-3.0200
G1 X780.7963 Y344.2839 Z-3.0200
G1 X779.1454 Y331.0759 Z-3.0200
G1 X777.3326 Y318.1074 Z-3.0200
G1 X775.3542 Y305.3816 Z-3.0200
G1 X773.2042 Y292.9053 Z-3.0200
G1 X770.8746 Y280.6881 Z-3.0200
G1 X768.3603 Y268.7571 Z-3.0200
G1 X767.0281 Y262.8895 Z-3.0200
G1 X765.6456 Y257.0940 Z-3.0200
G1 X764.2109 Y251.3694 Z-3.0200
G1 X762.4646 Y244.7575 Z-3.0200
G2 X759.5641 Y242.5235 I-2.9005 J0.7660
G1 X718.7121 Y242.5232 Z-3.0200
G2 X721.6524 Y239.5238 I-0.0597 J-2.9994
G1 X721.6524 Y236.4235 Z-3.0200
G2 X718.6524 Y233.4235 I-3.0000 J0.0000
G1 X718.6024 Y233.3735 Z-3.0200
G1 X718.6475 Y233.3235 Z-3.0200
G1 X755.3441 Y233.3235 Z-3.0200
G2 X758.2339 Y229.5179 I0.0000 J-3.0000
G3 X754.4097 Y213.1125 I178.1219 J-50.1698
G1 X752.9562 Y205.4754 Z-3.0200
G1 X751.6922 Y197.8979 Z-3.0200
G1 X750.5936 Y190.3798 Z-3.0200
G1 X749.6354 Y182.9228 Z-3.0200
G1 X748.7924 Y175.5299 Z-3.0200
G1 X748.0406 Y168.2099 Z-3.0200
G1 X746.7155 Y153.7886 Z-3.0200
G1 X745.4926 Y139.7381 Z-3.0200
G1 X744.2362 Y126.1332 Z-3.0200
G1 X742.8640 Y113.1293 Z-3.0200
G1 X741.4922 Y98.1500 Z-3.0200
G2 X738.5047 Y95.4235 I-2.9875 J0.2735
G1 X680.5319 Y95.4235 Z-3.0200
G2 X677.5319 Y98.4235 I0.0000 J3.0000
G1 X677.5319 Y460.4235 Z-3.0200
G1 X677.5319 Y460.4235 Z-6.0400
G1 X677.5319 Y822.4235 Z-6.0400
G2 X682.2783 Y824.8628 I3.0000 J0.0000
G2 X728.0843 Y775.7142 I-95.9105 J-135.3073
G2 X744.8876 Y743.6674 I-210.6569 J-130.8842
G1 X746.7415 Y739.3564 Z-6.0400
G1 X748.5443 Y734.9814 Z-6.0400
G1 X750.2970 Y730.5434 Z-6.0400
G1 X752.0008 Y726.0433 Z-6.0400
G1 X753.6566 Y721.4823 Z-6.0400
G1 X755.2712 Y716.8435 Z-6.0400
G1 X758.3582 Y707.4002 Z-6.0400
G1 X758.6496 Y706.4002 Z-6.0400
G2 X755.7694 Y702.5610 I-2.8802 J-0.8392
G1 X718.5963 Y702.5610 Z-6.0400
G1 X718.5955 Y702.5605 Z-6.0400
G1 X718.5963 Y702.5591 Z-6.0400
G2 X721.6383 Y699.5597 I0.0420 J-2.9997
G1 X721.6386 Y696.4594 Z-6.0400
G2 X718.6380 Y693.4591 I-3.0000 J-0.0003
G1 X718.5939 Y693.4326 Z-6.0400
G1 X718.5965 Y693.3812 Z-6.0400
G1 X718.6432 Y693.3594 Z-6.0400
G1 X718.9542 Y693.3756 Z-6.0400
G1 X760.1931 Y693.3784 Z-6.0400
G2 X763.0736 Y691.2176 I0.0002 J-3.0000
G2 X766.3092 Y678.8058 I-203.1642 J-59.5905
G1 X767.6946 Y673.0333 Z-6.0400
G1 X769.0332 Y667.1780 Z-6.0400
G1 X771.5573 Y655.2963 Z-6.0400
G1 X773.8908 Y643.1487 Z-6.0400
G1 X776.0386 Y630.7376 Z-6.0400
G1 X778.0041 Y618.0640 Z-6.0400
G1 X779.7902 Y605.1281 Z-6.0400
G1 X781.3988 Y591.9289 Z-6.0400
G1 X782.8308 Y578.4644 Z-6.0400
G1 X784.0867 Y564.7323 Z-6.0400
G1 X785.1662 Y550.7291 Z-6.0400
G1 X786.0685 Y536.4515 Z-6.0400
G1 X786.7927 Y521.8955 Z-6.0400
G1 X787.3374 Y507.0575 Z-6.0400
G1 X787.7013 Y491.9344 Z-6.0400
G1 X787.8834 Y475.5235 Z-6.0400
G2 X784.8834 Y472.5235 I-3.0000 J0.0000
G1 X732.7785 Y472.5232 Z-6.0400
G2 X735.7189 Y469.5238 I-0.0596 J-2.9994
G1 X735.7189 Y466.4235 Z-6.0400
G2 X732.7189 Y463.4235 I-3.0000 J0.0000
G1 X732.6689 Y463.3735 Z-6.0400
G1 X732.7189 Y463.3235 Z-6.0400
G1 X784.8691 Y463.3235 Z-6.0400
G2 X787.8691 Y460.3235 I0.0000 J-3.0000
G1 X787.6409 Y443.8942 Z-6.0400
G1 X787.2103 Y428.8226 Z-6.0400
G1 X786.5842 Y414.0533 Z-6.0400
G1 X785.7709 Y399.5727 Z-6.0400
G1 X784.7788 Y385.3671 Z-6.0400
G1 X783.6155 Y371.4237 Z-6.0400
G1 X782.2868 Y357.7318 Z-6.0400
G1 X780.7963 Y344.2839 Z-6.0400
G1 X779.1454 Y331.0759 Z-6.0400
G1 X777.3326 Y318.1074 Z-6.0400
G1 X775.3542 Y305.3816 Z-6.0400
G1 X773.2042 Y292.9053 Z-6.0400
G1 X770.8746 Y280.6881 Z-6.0400
G1 X768.3603 Y268.7571 Z-6.0400
G1 X767.0281 Y262.8895 Z-6.0400
G1 X765.6456 Y257.0940 Z-6.0400
G1 X764.2109 Y251.3694 Z-6.0400
G1 X762.4646 Y244.7575 Z-6.0400
G2 X759.5641 Y242.5235 I-2.9005 J0.7660
G1 X718.7121 Y242.5232 Z-6.0400
G2 X721.6524 Y239.5238 I-0.0597 J-2.9994
G1 X721.6524 Y236.4235 Z-6.0400
G2 X718.6524 Y233.4235 I-3.0000 J0.0000
G1 X718.6024 Y233.3735 Z-6.0400
G1 X718.6475 Y233.3235 Z-6.0400
G1 X755.3441 Y233.3235 Z-6.0400
G2 X758.2339 Y229.5179 I0.0000 J-3.0000
G3 X754.4097 Y213.1125 I178.1219 J-50.1698
G1 X752.9562 Y205.4754 Z-6.0400
G1 X751.6922 Y197.8979 Z-6.0400
G1 X750.5936 Y190.3798 Z-6.0400
G1 X749.6354 Y182.9228 Z-6.0400
G1 X748.7924 Y175.5299 Z-6.0400
G1 X748.0406 Y168.2099 Z-6.0400
G1 X746.7155 Y153.7886 Z-6.0400
G1 X745.4926 Y139.7381 Z-6.0400
G1 X744.2362 Y126.1332 Z-6.0400
G1 X742.8640 Y113.1293 Z-6.0400
G1 X741.4922 Y98.1500 Z-6.0400
G2 X738.5047 Y95.4235 I-2.9875 J0.2735
G1 X680.5319 Y95.4235 Z-6.0400
G2 X677.5319 Y98.4235 I0.0000 J3.0000
G1 X677.5319 Y460.4235 Z-6.0400
G1 X677.5319 Y460.4235 Z-9.0600
G1 X677.5319 Y822.4235 Z-9.0600
G2 X682.2783 Y824.8628 I3.0000 J0.0000
G2 X728.0843 Y775.7142 I-95.9105 J-135.3073
G2 X744.8876 Y743.6674 I-210.6569 J-130.8842
G1 X746.7415 Y739.3564 Z-9.0600
G1 X748.5443 Y734.9814 Z-9.0600
G1 X750.2970 Y730.5434 Z-9.0600
G1 X752.0008 Y726.0433 Z-9.0600
G1 X753.6566 Y721.4823 Z-9.0600
G1 X755.2712 Y716.8435 Z-9.0600
G1 X758.3582 Y707.4002 Z-9.0600
G1 X758.6496 Y706.4002 Z-9.0600
G2 X755.7694 Y702.5610 I-2.8802 J-0.8392
G1 X718.5963 Y702.5610 Z-9.0600
G1 X718.5955 Y702.5605 Z-9.0600
G1 X718.5963 Y702.5591 Z-9.0600
G2 X721.6383 Y699.5597 I0.0420 J-2.9997
G1 X721.6386 Y696.4594 Z-9.0600
G2 X718.6380 Y693.4591 I-3.0000 J-0.0003
G1 X718.5939 Y693.4326 Z-9.0600
G1 X718.5965 Y693.3812 Z-9.0600
G1 X718.6432 Y693.3594 Z-9.0600
G1 X718.9542 Y693.3756 Z-9.0600
G1 X760.1931 Y693.3784 Z-9.0600
G2 X763.0736 Y691.2176 I0.0002 J-3.0000
G2 X766.3092 Y678.8058 I-203.1642 J-59.5905
G1 X767.6946 Y673.0333 Z-9.0600
G1 X769.0332 Y667.1780 Z-9.0600
G1 X771.5573 Y655.2963 Z-9.0600
G1 X773.8908 Y643.1487 Z-9.0600
G1 X776.0386 Y630.7376 Z-9.0600
G1 X778.0041 Y618.0640 Z-9.0600
G1 X779.7902 Y605.1281 Z-9.0600
G1 X781.3988 Y591.9289 Z-9.0600
G1 X782.8308 Y578.4644 Z-9.0600
G1 X784.0867 Y564.7323 Z-9.0600
G1 X785.1662 Y550.7291 Z-9.0600
G1 X786.0685 Y536.4515 Z-9.0600
G1 X786.7927 Y521.8955 Z-9.0600
G1 X787.3374 Y507.0575 Z-9.0600
G1 X787.7013 Y491.9344 Z-9.0600
G1 X787.8834 Y475.5235 Z-9.0600
G2 X784.8834 Y472.5235 I-3.0000 J0.0000
G1 X732.7785 Y472.5232 Z-9.0600
G2 X735.7189 Y469.5238 I-0.0596 J-2.9994
G1 X735.7189 Y466.4235 Z-9.0600
G2 X732.7189 Y463.4235 I-3.0000 J0.0000
G1 X732.6689 Y463.3735 Z-9.0600
G1 X732.7189 Y463.3235 Z-9.0600
G1 X784.8691 Y463.3235 Z-9.0600
G2 X787.8691 Y460.3235 I0.0000 J-3.0000
G1 X787.6409 Y443.8942 Z-9.0600
G1 X787.2103 Y428.8226 Z-9.0600
G1 X786.5842 Y414.0533 Z-9.0600
G1 X785.7709 Y399.5727 Z-9.0600
G1 X784.7788 Y385.3671 Z-9.0600
G1 X783.6155 Y371.4237 Z-9.0600
G1 X782.2868 Y357.7318 Z-9.0600
G1 X780.7963 Y344.2839 Z-9.0600
G1 X779.1454 Y331.0759 Z-9.0600
G1 X777.3326 Y318.1074 Z-9.0600
G1 X775.3542 Y305.3816 Z-9.0600
G1 X773.2042 Y292.9053 Z-9.0600
G1 X770.8746 Y280.6881 Z-9.0600
G1 X768.3603 Y268.7571 Z-9.0600
G1 X767.0281 Y262.8895 Z-9.0600
G1 X765.6456 Y257.0940 Z-9.0600
G1 X764.2109 Y251.3694 Z-9.0600
G1 X762.4646 Y244.7575 Z-9.0600
G2 X759.5641 Y242.5235 I-2.9005 J0.7660
G1 X718.7121 Y242.5232 Z-9.0600
G2 X721.6524 Y239.5238 I-0.0597 J-2.9994
G1 X721.6524 Y236.4235 Z-9.0600
G2 X718.6524 Y233.4235 I-3.0000 J0.0000
G1 X718.6024 Y233.3735 Z-9.0600
G1 X718.6475 Y233.3235 Z-9.0600
G1 X755.3441 Y233.3235 Z-9.0600
G2 X758.2339 Y229.5179 I0.0000 J-3.0000
G3 X754.4097 Y213.1125 I178.1219 J-50.1698
G1 X752.9562 Y205.4754 Z-9.0600
G1 X751.6922 Y197.8979 Z-9.0600
G1 X750.5936 Y190.3798 Z-9.0600
G1 X749.6354 Y182.9228 Z-9.0600
G1 X748.7924 Y175.5299 Z-9.0600
G1 X748.0406 Y168.2099 Z-9.0600
G1 X746.7155 Y153.7886 Z-9.0600
G1 X745.4926 Y139.7381 Z-9.0600
G1 X744.2362 Y126.1332 Z-9.0600
G1 X742.8640 Y113.1293 Z-9.0600
G1 X741.4922 Y98.1500 Z-9.0600
G2 X738.5047 Y95.4235 I-2.9875 J0.2735
G1 X680.5319 Y95.4235 Z-9.0600
G2 X677.5319 Y98.4235 I0.0000 J3.0000
G1 X677.5319 Y460.4235 Z-9.0600
G1 X677.5319 Y460.4235 Z-12.0800
G1 X677.5319 Y682.6213 Z-12.0800
G1 X677.5319 Y682.6213 Z-11.1000
G1 X677.5319 Y692.6213 Z-11.1000
G1 X677.5319 Y692.6213 Z-12.0800
G1 X677.5319 Y822.4235 Z-12.0800
G2 X682.2783 Y824.8628 I3.0000 J0.0000
G2 X728.0843 Y775.7142 I-95.9105 J-135.3073
G2 X744.8876 Y743.6674 I-210.6569 J-130.8842
G1 X746.7415 Y739.3564 Z-12.0800
G1 X748.5443 Y734.9814 Z-12.0800
G1 X750.2970 Y730.5434 Z-12.0800
G1 X752.0008 Y726.0433 Z-12.0800
G1 X753.6566 Y721.4823 Z-12.0800
G1 X755.2712 Y716.8435 Z-12.0800
G2 X758.7177 Y706.1156 I-122.5934 J-45.3023
G2 X755.7694 Y702.5610 I-2.9483 J-0.5546
G1 X718.5963 Y702.5610 Z-12.0800
G1 X718.5955 Y702.5605 Z-12.0800
G1 X718.5963 Y702.5591 Z-12.0800
G2 X721.6383 Y699.5597 I0.0420 J-2.9997
G2 X721.5810 Y695.8740 I-18.7358 J-1.5519
G2 X718.5977 Y693.4387 I-3.1527 J0.8172
G1 X718.5957 Y693.4357 Z-12.0800
G1 X718.5939 Y693.4326 Z-12.0800
G1 X718.5965 Y693.3812 Z-12.0800
G1 X718.6432 Y693.3594 Z-12.0800
G1 X718.9542 Y693.3756 Z-12.0800
G1 X760.1931 Y693.3784 Z-12.0800
G2 X763.0736 Y691.2176 I0.0002 J-3.0000
G2 X766.3092 Y678.8058 I-203.1642 J-59.5905
G1 X767.6946 Y673.0333 Z-12.0800
G1 X769.0332 Y667.1780 Z-12.0800
G1 X771.5573 Y655.2963 Z-12.0800
G1 X773.8908 Y643.1487 Z-12.0800
G1 X776.0386 Y630.7376 Z-12.0800
G1 X777.6646 Y620.2534 Z-12.0800
G1 X777.6646 Y620.2534 Z-11.1000
G1 X778.0041 Y618.0640 Z-11.1000
G1 X779.0757 Y610.3032 Z-11.1000
G1 X779.0757 Y610.3032 Z-12.0800
G1 X779.7902 Y605.1281 Z-12.0800
G1 X781.3988 Y591.9289 Z-12.0800
G1 X782.8308 Y578.4644 Z-12.0800
G1 X784.0867 Y564.7323 Z-12.0800
G1 X785.1662 Y550.7291 Z-12.0800
G1 X786.0685 Y536.4515 Z-12.0800
G1 X786.7927 Y521.8955 Z-12.0800
G1 X787.3374 Y507.0575 Z-12.0800
G1 X787.7013 Y491.9344 Z-12.0800
G1 X787.8834 Y475.5235 Z-12.0800
G2 X784.8834 Y472.5235 I-3.0000 J0.0000
G1 X732.7785 Y472.5232 Z-12.0800
G2 X735.7189 Y469.5238 I-0.0596 J-2.9994
G2 X735.6612 Y465.8383 I-18.7389 J-1.5501
G2 X732.6713 Y463.3890 I-3.3088 J0.9896
G1 X732.6700 Y463.3839 Z-12.0800
G1 X732.6691 Y463.3788 Z-12.0800
G1 X732.6689 Y463.3735 Z-12.0800
G1 X732.7189 Y463.3235 Z-12.0800
G1 X784.8691 Y463.3235 Z-12.0800
G2 X787.8691 Y460.3235 I0.0000 J-3.0000
G1 X787.6409 Y443.8942 Z-12.0800
G1 X787.2103 Y428.8226 Z-12.0800
G1 X786.5842 Y414.0533 Z-12.0800
G1 X785.7709 Y399.5727 Z-12.0800
G1 X784.7788 Y385.3671 Z-12.0800
G1 X783.6155 Y371.4237 Z-12.0800
G1 X782.2868 Y357.7318 Z-12.0800
G1 X780.7963 Y344.2839 Z-12.0800
G1 X779.1454 Y331.0759 Z-12.0800
G1 X777.3326 Y318.1074 Z-12.0800
G1 X775.3542 Y305.3816 Z-12.0800
G1 X773.2042 Y292.9053 Z-12.0800
G1 X770.8746 Y280.6881 Z-12.0800
G1 X770.2408 Y277.6807 Z-12.0800
G1 X770.2408 Y277.6807 Z-11.1000
G1 X768.3603 Y268.7571 Z-11.1000
G1 X768.1550 Y267.8530 Z-11.1000
G1 X768.1550 Y267.8530 Z-12.0800
G1 X767.0281 Y262.8895 Z-12.0800
G1 X765.6456 Y257.0940 Z-12.0800
G1 X764.2109 Y251.3694 Z-12.0800
G1 X762.4646 Y244.7575 Z-12.0800
G2 X759.5641 Y242.5235 I-2.9005 J0.7660
G1 X718.7121 Y242.5232 Z-12.0800
G2 X721.6524 Y239.5238 I-0.0597 J-2.9994
G2 X721.5948 Y235.8383 I-18.7389 J-1.5501
G2 X718.6049 Y233.3890 I-3.3088 J0.9896
G1 X718.6035 Y233.3839 Z-12.0800
G1 X718.6027 Y233.3788 Z-12.0800
G1 X718.6024 Y233.3735 Z-12.0800
G1 X718.6475 Y233.3235 Z-12.0800
G1 X755.3441 Y233.3235 Z-12.0800
G2 X758.2339 Y229.5179 I0.0000 J-3.0000
G3 X754.4097 Y213.1125 I178.1219 J-50.1698
G1 X752.9562 Y205.4754 Z-12.0800
G1 X751.6922 Y197.8979 Z-12.0800
G1 X750.5936 Y190.3798 Z-12.0800
G1 X749.6354 Y182.9228 Z-12.0800
G1 X748.7924 Y175.5299 Z-12.0800
G1 X748.0406 Y168.2099 Z-12.0800
G1 X746.7155 Y153.7886 Z-12.0800
G1 X745.4926 Y139.7381 Z-12.0800
G1 X744.2362 Y126.1332 Z-12.0800
G1 X742.8640 Y113.1293 Z-12.0800
G1 X741.4922 Y98.1500 Z-12.0800
G2 X738.5047 Y95.4235 I-2.9875 J0.2735
G1 X680.5319 Y95.4235 Z-12.0800
G2 X677.5319 Y98.4235 I0.0000 J3.0000
G1 X677.5319 Y228.2477 Z-12.0800
G1 X677.5319 Y228.2477 Z-11.1000
G1 X677.5319 Y238.2477 Z-11.1000
G1 X677.5319 Y238.2477 Z-12.0800
G1 X677.5319 Y460.4235 Z-12.0800
G1 X677.5319 Y460.4235 Z-15.1000
G1 X677.5319 Y682.6213 Z-15.1000
G1 X677.5319 Y682.6213 Z-11.1000
G1 X677.5319 Y692.6213 Z-11.1000
G1 X677.5319 Y692.6213 Z-15.1000
G1 X677.5319 Y822.4235 Z-15.1000
G2 X682.2783 Y824.8628 I3.0000 J0.0000
G2 X728.0843 Y775.7142 I-95.9105 J-135.3073
G2 X744.8876 Y743.6674 I-210.6569 J-130.8842
G1 X746.7415 Y739.3564 Z-15.1000
G1 X748.5443 Y734.9814 Z-15.1000
G1 X750.2970 Y730.5434 Z-15.1000
G1 X752.0008 Y726.0433 Z-15.1000
G1 X753.6566 Y721.4823 Z-15.1000
